( This gcode generated by C:/Program Files/EAGLE-5.7.0/ulp/pcb-gcode.ulp )
( Copyright 2005 by John Johnson. See readme.txt for licensing terms. )

( This file generated from the board //Maggie/data/micro/design/eagle/projects/realway/cnc/ioexp_breakout/ioexp_breakout.brd )
( This file generated 2010-05-23 22:51:32 )

G21

G90
G00 Z1.0000 
G00 X0 Y0
M03
G04 P3.000000
G00 Z1.0000 
G00 X10.3249 Y18.4231 
G01 Z-0.1000 F150.00 
G01 X10.3249 Y18.7118 
G01 X11.0530 Y18.7118 
G01 X11.0530 Y18.2731 
G01 X11.0735 Y18.2235 
G01 X11.1115 Y18.1855 
G01 X11.1611 Y18.1650 
G01 X12.7148 Y18.1650 
G01 X12.7644 Y18.1855 
G01 X12.8024 Y18.2235 
G01 X12.8229 Y18.2731 
G01 X12.8229 Y19.8268 
G01 X12.8024 Y19.8764 
G01 X12.7644 Y19.9144 
G01 X12.7148 Y19.9349 
G01 X11.1611 Y19.9349 
G01 X11.1115 Y19.9144 
G01 X11.0735 Y19.8764 
G01 X11.0530 Y19.8268 
G01 X11.0530 Y19.3881 
G01 X10.3249 Y19.3881 
G01 X10.3249 Y19.6768 
G01 X10.3044 Y19.7264 
G01 X10.2664 Y19.7644 
G01 X10.2168 Y19.7849 
G01 X9.3631 Y19.7849 
G01 X9.3135 Y19.7644 
G01 X9.2755 Y19.7264 
G01 X9.2550 Y19.6768 
G01 X9.2550 Y18.4231 
G01 X9.2755 Y18.3735 
G01 X9.3135 Y18.3355 
G01 X9.3631 Y18.3150 
G01 X10.2168 Y18.3150 
G01 X10.2664 Y18.3355 
G01 X10.3044 Y18.3735 
G01 X10.3249 Y18.4231 
G00 Z1.0000 
G00 X39.2050 Y45.0768 
G01 Z-0.1000 F150.00 
G01 X39.2050 Y43.8231 
G01 X39.2255 Y43.7735 
G01 X39.2635 Y43.7355 
G01 X39.3131 Y43.7150 
G01 X40.1668 Y43.7150 
G01 X40.2164 Y43.7355 
G01 X40.2544 Y43.7735 
G01 X40.2749 Y43.8231 
G01 X40.2749 Y44.5067 
G01 X42.7900 Y47.0218 
G01 X43.7150 Y47.0218 
G01 X43.7150 Y46.9331 
G01 X43.7355 Y46.8835 
G01 X43.7735 Y46.8455 
G01 X43.8231 Y46.8250 
G01 X45.0768 Y46.8250 
G01 X45.1264 Y46.8455 
G01 X45.1644 Y46.8835 
G01 X45.1849 Y46.9331 
G01 X45.1849 Y47.7868 
G01 X45.1644 Y47.8364 
G01 X45.1264 Y47.8744 
G01 X45.0768 Y47.8949 
G01 X43.8231 Y47.8949 
G01 X43.7735 Y47.8744 
G01 X43.7355 Y47.8364 
G01 X43.7150 Y47.7868 
G01 X43.7150 Y47.6981 
G01 X42.6945 Y47.6981 
G01 X42.6054 Y47.6981 
G01 X42.5194 Y47.6751 
G01 X42.4423 Y47.6305 
G01 X39.9967 Y45.1849 
G01 X39.3131 Y45.1849 
G01 X39.2635 Y45.1644 
G01 X39.2255 Y45.1264 
G01 X39.2050 Y45.0768 
G00 Z1.0000 
G00 X35.3950 Y45.0768 
G01 Z-0.1000 F150.00 
G01 X35.3950 Y43.8231 
G01 X35.4155 Y43.7735 
G01 X35.4535 Y43.7355 
G01 X35.5031 Y43.7150 
G01 X36.3568 Y43.7150 
G01 X36.4064 Y43.7355 
G01 X36.4444 Y43.7735 
G01 X36.4649 Y43.8231 
G01 X36.4649 Y44.5068 
G01 X38.9800 Y47.0218 
G01 X39.9050 Y47.0218 
G01 X39.9050 Y46.9331 
G01 X39.9255 Y46.8835 
G01 X39.9635 Y46.8455 
G01 X40.0131 Y46.8250 
G01 X41.2668 Y46.8250 
G01 X41.3164 Y46.8455 
G01 X41.3544 Y46.8835 
G01 X41.3749 Y46.9331 
G01 X41.3749 Y47.7868 
G01 X41.3544 Y47.8364 
G01 X41.3164 Y47.8744 
G01 X41.2668 Y47.8949 
G01 X40.0131 Y47.8949 
G01 X39.9635 Y47.8744 
G01 X39.9255 Y47.8364 
G01 X39.9050 Y47.7868 
G01 X39.9050 Y47.6981 
G01 X38.8845 Y47.6981 
G01 X38.7954 Y47.6981 
G01 X38.7094 Y47.6751 
G01 X38.6323 Y47.6305 
G01 X36.1868 Y45.1849 
G01 X35.5031 Y45.1849 
G01 X35.4535 Y45.1644 
G01 X35.4155 Y45.1264 
G01 X35.3950 Y45.0768 
G00 Z1.0000 
G00 X31.5850 Y45.0768 
G01 Z-0.1000 F150.00 
G01 X31.5850 Y43.8231 
G01 X31.6055 Y43.7735 
G01 X31.6435 Y43.7355 
G01 X31.6931 Y43.7150 
G01 X32.5468 Y43.7150 
G01 X32.5964 Y43.7355 
G01 X32.6344 Y43.7735 
G01 X32.6549 Y43.8231 
G01 X32.6549 Y44.5068 
G01 X35.1700 Y47.0218 
G01 X36.0950 Y47.0218 
G01 X36.0950 Y46.9331 
G01 X36.1155 Y46.8835 
G01 X36.1535 Y46.8455 
G01 X36.2031 Y46.8250 
G01 X37.4568 Y46.8250 
G01 X37.5064 Y46.8455 
G01 X37.5444 Y46.8835 
G01 X37.5649 Y46.9331 
G01 X37.5649 Y47.7868 
G01 X37.5444 Y47.8364 
G01 X37.5064 Y47.8744 
G01 X37.4568 Y47.8949 
G01 X36.2031 Y47.8949 
G01 X36.1535 Y47.8744 
G01 X36.1155 Y47.8364 
G01 X36.0950 Y47.7868 
G01 X36.0950 Y47.6981 
G01 X35.0745 Y47.6981 
G01 X34.9854 Y47.6981 
G01 X34.8994 Y47.6751 
G01 X34.8223 Y47.6305 
G01 X32.3768 Y45.1849 
G01 X31.6931 Y45.1849 
G01 X31.6435 Y45.1644 
G01 X31.6055 Y45.1264 
G01 X31.5850 Y45.0768 
G00 Z1.0000 
G00 X27.7750 Y45.0768 
G01 Z-0.1000 F150.00 
G01 X27.7750 Y43.8231 
G01 X27.7955 Y43.7735 
G01 X27.8335 Y43.7355 
G01 X27.8831 Y43.7150 
G01 X28.7368 Y43.7150 
G01 X28.7864 Y43.7355 
G01 X28.8244 Y43.7735 
G01 X28.8449 Y43.8231 
G01 X28.8449 Y44.5068 
G01 X31.3600 Y47.0218 
G01 X32.2850 Y47.0218 
G01 X32.2850 Y46.9331 
G01 X32.3055 Y46.8835 
G01 X32.3435 Y46.8455 
G01 X32.3931 Y46.8250 
G01 X33.6468 Y46.8250 
G01 X33.6964 Y46.8455 
G01 X33.7344 Y46.8835 
G01 X33.7549 Y46.9331 
G01 X33.7549 Y47.7868 
G01 X33.7344 Y47.8364 
G01 X33.6964 Y47.8744 
G01 X33.6468 Y47.8949 
G01 X32.3931 Y47.8949 
G01 X32.3435 Y47.8744 
G01 X32.3055 Y47.8364 
G01 X32.2850 Y47.7868 
G01 X32.2850 Y47.6981 
G01 X31.2645 Y47.6981 
G01 X31.1754 Y47.6981 
G01 X31.0894 Y47.6751 
G01 X31.0123 Y47.6305 
G01 X28.5668 Y45.1849 
G01 X27.8831 Y45.1849 
G01 X27.8335 Y45.1644 
G01 X27.7955 Y45.1264 
G01 X27.7750 Y45.0768 
G00 Z1.0000 
G00 X23.9650 Y45.0768 
G01 Z-0.1000 F150.00 
G01 X23.9650 Y43.8231 
G01 X23.9855 Y43.7735 
G01 X24.0235 Y43.7355 
G01 X24.0731 Y43.7150 
G01 X24.9268 Y43.7150 
G01 X24.9764 Y43.7355 
G01 X25.0144 Y43.7735 
G01 X25.0349 Y43.8231 
G01 X25.0349 Y44.5068 
G01 X27.5500 Y47.0218 
G01 X28.4750 Y47.0218 
G01 X28.4750 Y46.9331 
G01 X28.4955 Y46.8835 
G01 X28.5335 Y46.8455 
G01 X28.5831 Y46.8250 
G01 X29.8368 Y46.8250 
G01 X29.8864 Y46.8455 
G01 X29.9244 Y46.8835 
G01 X29.9449 Y46.9331 
G01 X29.9449 Y47.7868 
G01 X29.9244 Y47.8364 
G01 X29.8864 Y47.8744 
G01 X29.8368 Y47.8949 
G01 X28.5831 Y47.8949 
G01 X28.5335 Y47.8744 
G01 X28.4955 Y47.8364 
G01 X28.4750 Y47.7868 
G01 X28.4750 Y47.6981 
G01 X27.4545 Y47.6981 
G01 X27.3654 Y47.6981 
G01 X27.2794 Y47.6751 
G01 X27.2023 Y47.6305 
G01 X24.7568 Y45.1849 
G01 X24.0731 Y45.1849 
G01 X24.0235 Y45.1644 
G01 X23.9855 Y45.1264 
G01 X23.9650 Y45.0768 
G00 Z1.0000 
G00 X20.1550 Y45.0768 
G01 Z-0.1000 F150.00 
G01 X20.1550 Y43.8231 
G01 X20.1755 Y43.7735 
G01 X20.2135 Y43.7355 
G01 X20.2631 Y43.7150 
G01 X21.1168 Y43.7150 
G01 X21.1664 Y43.7355 
G01 X21.2044 Y43.7735 
G01 X21.2249 Y43.8231 
G01 X21.2249 Y44.5068 
G01 X23.7400 Y47.0218 
G01 X24.6650 Y47.0218 
G01 X24.6650 Y46.9331 
G01 X24.6855 Y46.8835 
G01 X24.7235 Y46.8455 
G01 X24.7731 Y46.8250 
G01 X26.0268 Y46.8250 
G01 X26.0764 Y46.8455 
G01 X26.1144 Y46.8835 
G01 X26.1349 Y46.9331 
G01 X26.1349 Y47.7868 
G01 X26.1144 Y47.8364 
G01 X26.0764 Y47.8744 
G01 X26.0268 Y47.8949 
G01 X24.7731 Y47.8949 
G01 X24.7235 Y47.8744 
G01 X24.6855 Y47.8364 
G01 X24.6650 Y47.7868 
G01 X24.6650 Y47.6981 
G01 X23.6445 Y47.6981 
G01 X23.5554 Y47.6981 
G01 X23.4694 Y47.6751 
G01 X23.3923 Y47.6305 
G01 X20.9468 Y45.1849 
G01 X20.2631 Y45.1849 
G01 X20.2135 Y45.1644 
G01 X20.1755 Y45.1264 
G01 X20.1550 Y45.0768 
G00 Z1.0000 
G00 X16.3450 Y45.0768 
G01 Z-0.1000 F150.00 
G01 X16.3450 Y43.8231 
G01 X16.3655 Y43.7735 
G01 X16.4035 Y43.7355 
G01 X16.4531 Y43.7150 
G01 X17.3068 Y43.7150 
G01 X17.3564 Y43.7355 
G01 X17.3944 Y43.7735 
G01 X17.4149 Y43.8231 
G01 X17.4149 Y44.5067 
G01 X19.9300 Y47.0218 
G01 X20.8550 Y47.0218 
G01 X20.8550 Y46.9331 
G01 X20.8755 Y46.8835 
G01 X20.9135 Y46.8455 
G01 X20.9631 Y46.8250 
G01 X22.2168 Y46.8250 
G01 X22.2664 Y46.8455 
G01 X22.3044 Y46.8835 
G01 X22.3249 Y46.9331 
G01 X22.3249 Y47.7868 
G01 X22.3044 Y47.8364 
G01 X22.2664 Y47.8744 
G01 X22.2168 Y47.8949 
G01 X20.9631 Y47.8949 
G01 X20.9135 Y47.8744 
G01 X20.8755 Y47.8364 
G01 X20.8550 Y47.7868 
G01 X20.8550 Y47.6981 
G01 X19.8345 Y47.6981 
G01 X19.7454 Y47.6981 
G01 X19.6594 Y47.6751 
G01 X19.5823 Y47.6305 
G01 X17.1367 Y45.1849 
G01 X16.4531 Y45.1849 
G01 X16.4035 Y45.1644 
G01 X16.3655 Y45.1264 
G01 X16.3450 Y45.0768 
G00 Z1.0000 
G00 X18.1450 Y45.0768 
G01 Z-0.1000 F150.00 
G01 X18.1450 Y43.8231 
G01 X18.1655 Y43.7735 
G01 X18.2035 Y43.7355 
G01 X18.2531 Y43.7150 
G01 X18.3418 Y43.7150 
G01 X18.3418 Y43.2040 
G01 X11.4134 Y36.2756 
G01 X11.3688 Y36.1985 
G01 X11.3458 Y36.1125 
G01 X11.3458 Y36.0234 
G01 X11.3458 Y23.3234 
G01 X11.3688 Y23.2374 
G01 X11.4134 Y23.1603 
G01 X11.4763 Y23.0974 
G01 X15.1593 Y19.4144 
G01 X15.2364 Y19.3698 
G01 X15.3224 Y19.3468 
G01 X15.4115 Y19.3468 
G01 X16.4359 Y19.3468 
G01 X16.5106 Y19.2721 
G01 X16.6283 Y19.2042 
G01 X16.7595 Y19.1690 
G01 X18.2924 Y19.1690 
G01 X18.4236 Y19.2042 
G01 X18.5413 Y19.2721 
G01 X18.6160 Y19.3468 
G01 X18.8784 Y19.3468 
G01 X18.9675 Y19.3468 
G01 X19.0535 Y19.3698 
G01 X19.1306 Y19.4144 
G01 X23.5756 Y23.8594 
G01 X23.6385 Y23.9223 
G01 X23.6831 Y23.9994 
G01 X23.7061 Y24.0854 
G01 X23.7061 Y32.3719 
G01 X25.7940 Y34.4598 
G01 X40.7539 Y34.4598 
G01 X42.3338 Y32.8799 
G01 X42.3338 Y28.8420 
G01 X40.9883 Y27.4964 
G01 X40.9016 Y27.5324 
G01 X40.7283 Y27.5669 
G01 X40.5516 Y27.5669 
G01 X40.3783 Y27.5324 
G01 X40.2151 Y27.4648 
G01 X40.0682 Y27.3667 
G01 X39.9432 Y27.2417 
G01 X39.8451 Y27.0948 
G01 X39.7775 Y26.9316 
G01 X39.7430 Y26.7583 
G01 X39.7430 Y26.5816 
G01 X39.7775 Y26.4083 
G01 X39.8451 Y26.2451 
G01 X39.9432 Y26.0982 
G01 X40.0682 Y25.9732 
G01 X40.2151 Y25.8751 
G01 X40.3783 Y25.8075 
G01 X40.5516 Y25.7730 
G01 X40.7283 Y25.7730 
G01 X40.9016 Y25.8075 
G01 X41.0648 Y25.8751 
G01 X41.2117 Y25.9732 
G01 X41.3367 Y26.0982 
G01 X41.4348 Y26.2451 
G01 X41.5024 Y26.4083 
G01 X41.5369 Y26.5816 
G01 X41.5369 Y26.7583 
G01 X41.5024 Y26.9316 
G01 X41.4664 Y27.0183 
G01 X42.9425 Y28.4943 
G01 X42.9871 Y28.5714 
G01 X43.0101 Y28.6574 
G01 X43.0101 Y28.7465 
G01 X43.0101 Y33.0645 
G01 X42.9871 Y33.1505 
G01 X42.9425 Y33.2276 
G01 X42.8796 Y33.2905 
G01 X41.1016 Y35.0685 
G01 X41.0245 Y35.1131 
G01 X40.9385 Y35.1361 
G01 X40.8494 Y35.1361 
G01 X25.6094 Y35.1361 
G01 X25.5234 Y35.1131 
G01 X25.4463 Y35.0685 
G01 X25.3834 Y35.0056 
G01 X23.0974 Y32.7196 
G01 X23.0528 Y32.6425 
G01 X23.0298 Y32.5565 
G01 X23.0298 Y32.4674 
G01 X23.0298 Y24.2700 
G01 X18.7829 Y20.0231 
G01 X18.6160 Y20.0231 
G01 X18.5413 Y20.0978 
G01 X18.4236 Y20.1657 
G01 X18.2924 Y20.2009 
G01 X16.7595 Y20.2009 
G01 X16.6283 Y20.1657 
G01 X16.5106 Y20.0978 
G01 X16.4359 Y20.0231 
G01 X15.5070 Y20.0231 
G01 X12.0221 Y23.5080 
G01 X12.0221 Y35.9279 
G01 X18.9505 Y42.8563 
G01 X18.9951 Y42.9334 
G01 X19.0181 Y43.0194 
G01 X19.0181 Y43.1085 
G01 X19.0181 Y43.7150 
G01 X19.1068 Y43.7150 
G01 X19.1564 Y43.7355 
G01 X19.1944 Y43.7735 
G01 X19.2149 Y43.8231 
G01 X19.2149 Y45.0768 
G01 X19.1944 Y45.1264 
G01 X19.1564 Y45.1644 
G01 X19.1068 Y45.1849 
G01 X18.2531 Y45.1849 
G01 X18.2035 Y45.1644 
G01 X18.1655 Y45.1264 
G01 X18.1450 Y45.0768 
G00 Z1.0000 
G00 X12.5350 Y45.0768 
G01 Z-0.1000 F150.00 
G01 X12.5350 Y43.8231 
G01 X12.5555 Y43.7735 
G01 X12.5935 Y43.7355 
G01 X12.6431 Y43.7150 
G01 X13.4968 Y43.7150 
G01 X13.5464 Y43.7355 
G01 X13.5844 Y43.7735 
G01 X13.6049 Y43.8231 
G01 X13.6049 Y44.5067 
G01 X16.1200 Y47.0218 
G01 X17.0450 Y47.0218 
G01 X17.0450 Y46.9331 
G01 X17.0655 Y46.8835 
G01 X17.1035 Y46.8455 
G01 X17.1531 Y46.8250 
G01 X18.4068 Y46.8250 
G01 X18.4564 Y46.8455 
G01 X18.4944 Y46.8835 
G01 X18.5149 Y46.9331 
G01 X18.5149 Y47.7868 
G01 X18.4944 Y47.8364 
G01 X18.4564 Y47.8744 
G01 X18.4068 Y47.8949 
G01 X17.1531 Y47.8949 
G01 X17.1035 Y47.8744 
G01 X17.0655 Y47.8364 
G01 X17.0450 Y47.7868 
G01 X17.0450 Y47.6981 
G01 X16.0245 Y47.6981 
G01 X15.9354 Y47.6981 
G01 X15.8494 Y47.6751 
G01 X15.7723 Y47.6305 
G01 X13.3267 Y45.1849 
G01 X12.6431 Y45.1849 
G01 X12.5935 Y45.1644 
G01 X12.5555 Y45.1264 
G01 X12.5350 Y45.0768 
G00 Z1.0000 
G00 X14.3350 Y45.0768 
G01 Z-0.1000 F150.00 
G01 X14.3350 Y43.8231 
G01 X14.3555 Y43.7735 
G01 X14.3935 Y43.7355 
G01 X14.4431 Y43.7150 
G01 X14.5318 Y43.7150 
G01 X14.5318 Y40.6640 
G01 X10.6514 Y36.7836 
G01 X10.6068 Y36.7065 
G01 X10.5838 Y36.6205 
G01 X10.5838 Y36.5314 
G01 X10.5838 Y22.8154 
G01 X10.6068 Y22.7294 
G01 X10.6514 Y22.6523 
G01 X10.7143 Y22.5894 
G01 X10.7144 Y22.5894 
G01 X15.1593 Y18.1444 
G01 X15.2364 Y18.0998 
G01 X15.3224 Y18.0768 
G01 X15.4115 Y18.0768 
G01 X16.4359 Y18.0768 
G01 X16.5106 Y18.0021 
G01 X16.6283 Y17.9342 
G01 X16.7595 Y17.8990 
G01 X18.2924 Y17.8990 
G01 X18.4236 Y17.9342 
G01 X18.4506 Y17.9498 
G01 X18.8405 Y17.9498 
G01 X18.9265 Y17.9728 
G01 X19.0036 Y18.0174 
G01 X19.0665 Y18.0803 
G01 X24.4005 Y23.4143 
G01 X24.4451 Y23.4914 
G01 X24.4681 Y23.5774 
G01 X24.4681 Y23.6665 
G01 X24.4681 Y31.8639 
G01 X26.3020 Y33.6978 
G01 X40.4999 Y33.6978 
G01 X41.5718 Y32.6259 
G01 X41.5718 Y30.3660 
G01 X41.1522 Y29.9464 
G01 X41.0648 Y30.0048 
G01 X40.9016 Y30.0724 
G01 X40.7283 Y30.1069 
G01 X40.5516 Y30.1069 
G01 X40.3783 Y30.0724 
G01 X40.2151 Y30.0048 
G01 X40.0682 Y29.9067 
G01 X39.9432 Y29.7817 
G01 X39.8451 Y29.6348 
G01 X39.7775 Y29.4716 
G01 X39.7430 Y29.2983 
G01 X39.7430 Y29.1216 
G01 X39.7775 Y28.9483 
G01 X39.8451 Y28.7851 
G01 X39.9432 Y28.6382 
G01 X40.0682 Y28.5132 
G01 X40.2151 Y28.4151 
G01 X40.3783 Y28.3475 
G01 X40.5516 Y28.3130 
G01 X40.7283 Y28.3130 
G01 X40.9016 Y28.3475 
G01 X41.0648 Y28.4151 
G01 X41.2117 Y28.5132 
G01 X41.3367 Y28.6382 
G01 X41.4348 Y28.7851 
G01 X41.5024 Y28.9483 
G01 X41.5369 Y29.1216 
G01 X41.5369 Y29.2983 
G01 X41.5242 Y29.3620 
G01 X42.1176 Y29.9554 
G01 X42.1805 Y30.0183 
G01 X42.2251 Y30.0954 
G01 X42.2481 Y30.1814 
G01 X42.2481 Y32.8105 
G01 X42.2251 Y32.8965 
G01 X42.1805 Y32.9736 
G01 X42.1176 Y33.0365 
G01 X40.9105 Y34.2436 
G01 X40.8476 Y34.3065 
G01 X40.7705 Y34.3511 
G01 X40.6845 Y34.3741 
G01 X26.2065 Y34.3741 
G01 X26.1174 Y34.3741 
G01 X26.0314 Y34.3511 
G01 X25.9543 Y34.3065 
G01 X23.9223 Y32.2745 
G01 X23.8594 Y32.2116 
G01 X23.8148 Y32.1345 
G01 X23.7918 Y32.0485 
G01 X23.7918 Y23.7620 
G01 X18.6828 Y18.6529 
G01 X18.6373 Y18.7318 
G01 X18.5413 Y18.8278 
G01 X18.4236 Y18.8957 
G01 X18.2924 Y18.9309 
G01 X16.7595 Y18.9309 
G01 X16.6283 Y18.8957 
G01 X16.5106 Y18.8278 
G01 X16.4359 Y18.7531 
G01 X15.5070 Y18.7531 
G01 X11.2601 Y23.0000 
G01 X11.2601 Y36.4359 
G01 X15.1405 Y40.3163 
G01 X15.1851 Y40.3934 
G01 X15.2081 Y40.4794 
G01 X15.2081 Y40.5685 
G01 X15.2081 Y43.7150 
G01 X15.2968 Y43.7150 
G01 X15.3464 Y43.7355 
G01 X15.3844 Y43.7735 
G01 X15.4049 Y43.8231 
G01 X15.4049 Y45.0768 
G01 X15.3844 Y45.1264 
G01 X15.3464 Y45.1644 
G01 X15.2968 Y45.1849 
G01 X14.4431 Y45.1849 
G01 X14.3935 Y45.1644 
G01 X14.3555 Y45.1264 
G01 X14.3350 Y45.0768 
G00 Z1.0000 
G00 X40.2749 Y6.9931 
G01 Z-0.1000 F150.00 
G01 X40.2749 Y8.2468 
G01 X40.2544 Y8.2964 
G01 X40.2164 Y8.3344 
G01 X40.1668 Y8.3549 
G01 X40.0781 Y8.3549 
G01 X40.0781 Y9.9904 
G01 X40.0805 Y10.0032 
G01 X40.0781 Y10.0346 
G01 X40.0781 Y10.0665 
G01 X40.0746 Y10.0793 
G01 X40.0737 Y10.0920 
G01 X40.0635 Y10.1209 
G01 X40.0551 Y10.1525 
G01 X40.0483 Y10.1641 
G01 X40.0442 Y10.1760 
G01 X40.0265 Y10.2017 
G01 X40.0105 Y10.2296 
G01 X40.0013 Y10.2387 
G01 X39.9940 Y10.2495 
G01 X39.9699 Y10.2701 
G01 X39.9476 Y10.2925 
G01 X39.9363 Y10.2990 
G01 X38.9522 Y11.1438 
G01 X38.9624 Y11.1683 
G01 X38.9969 Y11.3416 
G01 X38.9969 Y11.5183 
G01 X38.9624 Y11.6916 
G01 X38.8948 Y11.8548 
G01 X38.7967 Y12.0017 
G01 X38.6717 Y12.1267 
G01 X38.5248 Y12.2248 
G01 X38.3616 Y12.2924 
G01 X38.1883 Y12.3269 
G01 X38.0116 Y12.3269 
G01 X37.8383 Y12.2924 
G01 X37.6751 Y12.2248 
G01 X37.5282 Y12.1267 
G01 X37.4032 Y12.0017 
G01 X37.3051 Y11.8548 
G01 X37.2692 Y11.7681 
G01 X37.2240 Y11.7681 
G01 X31.5766 Y17.4155 
G01 X31.4995 Y17.4601 
G01 X31.4135 Y17.4831 
G01 X31.3244 Y17.4831 
G01 X29.4109 Y17.4831 
G01 X29.3363 Y17.5578 
G01 X29.2186 Y17.6257 
G01 X29.0874 Y17.6609 
G01 X27.5545 Y17.6609 
G01 X27.4233 Y17.6257 
G01 X27.3056 Y17.5578 
G01 X27.2096 Y17.4618 
G01 X27.1417 Y17.3441 
G01 X27.1065 Y17.2129 
G01 X27.1065 Y17.0770 
G01 X27.1417 Y16.9458 
G01 X27.2096 Y16.8281 
G01 X27.3056 Y16.7321 
G01 X27.4233 Y16.6642 
G01 X27.5545 Y16.6290 
G01 X29.0874 Y16.6290 
G01 X29.2186 Y16.6642 
G01 X29.3363 Y16.7321 
G01 X29.4109 Y16.8068 
G01 X31.2289 Y16.8068 
G01 X36.8134 Y11.2223 
G01 X36.8763 Y11.1594 
G01 X36.9534 Y11.1148 
G01 X37.0394 Y11.0918 
G01 X37.2692 Y11.0918 
G01 X37.3051 Y11.0051 
G01 X37.4032 Y10.8582 
G01 X37.5282 Y10.7332 
G01 X37.6751 Y10.6351 
G01 X37.8383 Y10.5675 
G01 X38.0116 Y10.5330 
G01 X38.1883 Y10.5330 
G01 X38.3616 Y10.5675 
G01 X38.5126 Y10.6301 
G01 X39.4018 Y9.8666 
G01 X39.4018 Y8.3549 
G01 X39.3131 Y8.3549 
G01 X39.2635 Y8.3344 
G01 X39.2255 Y8.2964 
G01 X39.2050 Y8.2468 
G01 X39.2050 Y6.9931 
G01 X39.2255 Y6.9435 
G01 X39.2635 Y6.9055 
G01 X39.3131 Y6.8850 
G01 X40.1668 Y6.8850 
G01 X40.2164 Y6.9055 
G01 X40.2544 Y6.9435 
G01 X40.2749 Y6.9931 
G00 Z1.0000 
G00 X38.2649 Y6.9931 
G01 Z-0.1000 F150.00 
G01 X38.2649 Y8.2468 
G01 X38.2444 Y8.2964 
G01 X38.2064 Y8.3344 
G01 X38.1568 Y8.3549 
G01 X37.3031 Y8.3549 
G01 X37.2535 Y8.3344 
G01 X37.2155 Y8.2964 
G01 X37.1950 Y8.2468 
G01 X37.1950 Y6.9931 
G01 X37.2155 Y6.9435 
G01 X37.2535 Y6.9055 
G01 X37.3031 Y6.8850 
G01 X37.3918 Y6.8850 
G01 X37.3918 Y5.7485 
G01 X37.3918 Y5.6594 
G01 X37.4148 Y5.5734 
G01 X37.4594 Y5.4963 
G01 X38.5163 Y4.4394 
G01 X38.5934 Y4.3948 
G01 X38.6794 Y4.3718 
G01 X38.7685 Y4.3718 
G01 X39.9050 Y4.3718 
G01 X39.9050 Y4.2831 
G01 X39.9255 Y4.2335 
G01 X39.9635 Y4.1955 
G01 X40.0131 Y4.1750 
G01 X41.2668 Y4.1750 
G01 X41.3164 Y4.1955 
G01 X41.3544 Y4.2335 
G01 X41.3749 Y4.2831 
G01 X41.3749 Y5.1368 
G01 X41.3544 Y5.1864 
G01 X41.3164 Y5.2244 
G01 X41.2668 Y5.2449 
G01 X40.0131 Y5.2449 
G01 X39.9635 Y5.2244 
G01 X39.9255 Y5.1864 
G01 X39.9050 Y5.1368 
G01 X39.9050 Y5.0481 
G01 X38.8640 Y5.0481 
G01 X38.0681 Y5.8440 
G01 X38.0681 Y6.8850 
G01 X38.1568 Y6.8850 
G01 X38.2064 Y6.9055 
G01 X38.2444 Y6.9435 
G01 X38.2649 Y6.9931 
G00 Z1.0000 
G00 X30.6449 Y8.2468 
G01 Z-0.1000 F150.00 
G01 X30.6244 Y8.2964 
G01 X30.5864 Y8.3344 
G01 X30.5368 Y8.3549 
G01 X29.6831 Y8.3549 
G01 X29.6335 Y8.3344 
G01 X29.5955 Y8.2964 
G01 X29.5750 Y8.2468 
G01 X29.5750 Y6.9931 
G01 X29.5955 Y6.9435 
G01 X29.6335 Y6.9055 
G01 X29.6831 Y6.8850 
G01 X30.3667 Y6.8850 
G01 X32.2850 Y4.9667 
G01 X32.2850 Y4.2831 
G01 X32.3055 Y4.2335 
G01 X32.3435 Y4.1955 
G01 X32.3931 Y4.1750 
G01 X33.6468 Y4.1750 
G01 X33.6964 Y4.1955 
G01 X33.7344 Y4.2335 
G01 X33.7549 Y4.2831 
G01 X33.7549 Y5.1368 
G01 X33.7344 Y5.1864 
G01 X33.6964 Y5.2244 
G01 X33.6468 Y5.2449 
G01 X32.9632 Y5.2449 
G01 X30.6449 Y7.5632 
G01 X30.6449 Y8.2468 
G00 Z1.0000 
G00 X28.8449 Y6.9931 
G01 Z-0.1000 F150.00 
G01 X28.8449 Y8.2468 
G01 X28.8244 Y8.2964 
G01 X28.7864 Y8.3344 
G01 X28.7368 Y8.3549 
G01 X28.4452 Y8.3549 
G01 X24.7221 Y12.0780 
G01 X24.7221 Y17.8940 
G01 X27.3466 Y20.5185 
G01 X27.4233 Y20.4742 
G01 X27.5545 Y20.4390 
G01 X29.0874 Y20.4390 
G01 X29.2186 Y20.4742 
G01 X29.3363 Y20.5421 
G01 X29.4109 Y20.6168 
G01 X31.4829 Y20.6168 
G01 X33.2574 Y18.8423 
G01 X33.3203 Y18.7794 
G01 X33.3974 Y18.7348 
G01 X33.4834 Y18.7118 
G01 X37.2692 Y18.7118 
G01 X37.3051 Y18.6251 
G01 X37.4032 Y18.4782 
G01 X37.5282 Y18.3532 
G01 X37.6751 Y18.2551 
G01 X37.8383 Y18.1875 
G01 X38.0116 Y18.1530 
G01 X38.1883 Y18.1530 
G01 X38.3616 Y18.1875 
G01 X38.5248 Y18.2551 
G01 X38.6717 Y18.3532 
G01 X38.7967 Y18.4782 
G01 X38.8948 Y18.6251 
G01 X38.9624 Y18.7883 
G01 X38.9969 Y18.9616 
G01 X38.9969 Y19.1383 
G01 X38.9624 Y19.3116 
G01 X38.8948 Y19.4748 
G01 X38.7967 Y19.6217 
G01 X38.6717 Y19.7467 
G01 X38.5248 Y19.8448 
G01 X38.3616 Y19.9124 
G01 X38.1883 Y19.9469 
G01 X38.0116 Y19.9469 
G01 X37.8383 Y19.9124 
G01 X37.6751 Y19.8448 
G01 X37.5282 Y19.7467 
G01 X37.4032 Y19.6217 
G01 X37.3051 Y19.4748 
G01 X37.2692 Y19.3881 
G01 X33.6680 Y19.3881 
G01 X31.8306 Y21.2255 
G01 X31.7535 Y21.2701 
G01 X31.6675 Y21.2931 
G01 X31.5784 Y21.2931 
G01 X29.4109 Y21.2931 
G01 X29.3363 Y21.3678 
G01 X29.2186 Y21.4357 
G01 X29.0874 Y21.4709 
G01 X27.5545 Y21.4709 
G01 X27.4233 Y21.4357 
G01 X27.3056 Y21.3678 
G01 X27.2202 Y21.2823 
G01 X27.1744 Y21.2701 
G01 X27.0973 Y21.2255 
G01 X27.0344 Y21.1626 
G01 X27.0343 Y21.1624 
G01 X24.1765 Y18.3046 
G01 X24.1763 Y18.3045 
G01 X24.1134 Y18.2416 
G01 X24.0688 Y18.1645 
G01 X24.0458 Y18.0785 
G01 X24.0458 Y11.8934 
G01 X24.0688 Y11.8074 
G01 X24.1134 Y11.7303 
G01 X24.1763 Y11.6674 
G01 X27.7750 Y8.0687 
G01 X27.7750 Y6.9931 
G01 X27.7955 Y6.9435 
G01 X27.8335 Y6.9055 
G01 X27.8831 Y6.8850 
G01 X28.7368 Y6.8850 
G01 X28.7864 Y6.9055 
G01 X28.8244 Y6.9435 
G01 X28.8449 Y6.9931 
G00 Z1.0000 
G00 X23.0249 Y8.2468 
G01 Z-0.1000 F150.00 
G01 X23.0044 Y8.2964 
G01 X22.9664 Y8.3344 
G01 X22.9168 Y8.3549 
G01 X22.0631 Y8.3549 
G01 X22.0135 Y8.3344 
G01 X21.9755 Y8.2964 
G01 X21.9550 Y8.2468 
G01 X21.9550 Y6.9931 
G01 X21.9755 Y6.9435 
G01 X22.0135 Y6.9055 
G01 X22.0631 Y6.8850 
G01 X22.7467 Y6.8850 
G01 X24.6650 Y4.9667 
G01 X24.6650 Y4.2831 
G01 X24.6855 Y4.2335 
G01 X24.7235 Y4.1955 
G01 X24.7731 Y4.1750 
G01 X26.0268 Y4.1750 
G01 X26.0764 Y4.1955 
G01 X26.1144 Y4.2335 
G01 X26.1349 Y4.2831 
G01 X26.1349 Y5.1368 
G01 X26.1144 Y5.1864 
G01 X26.0764 Y5.2244 
G01 X26.0268 Y5.2449 
G01 X25.3432 Y5.2449 
G01 X23.0249 Y7.5632 
G01 X23.0249 Y8.2468 
G00 Z1.0000 
G00 X19.2149 Y8.2468 
G01 Z-0.1000 F150.00 
G01 X19.1944 Y8.2964 
G01 X19.1564 Y8.3344 
G01 X19.1068 Y8.3549 
G01 X18.2531 Y8.3549 
G01 X18.2035 Y8.3344 
G01 X18.1655 Y8.2964 
G01 X18.1450 Y8.2468 
G01 X18.1450 Y6.9931 
G01 X18.1655 Y6.9435 
G01 X18.2035 Y6.9055 
G01 X18.2531 Y6.8850 
G01 X18.9367 Y6.8850 
G01 X20.8550 Y4.9667 
G01 X20.8550 Y4.2831 
G01 X20.8755 Y4.2335 
G01 X20.9135 Y4.1955 
G01 X20.9631 Y4.1750 
G01 X22.2168 Y4.1750 
G01 X22.2664 Y4.1955 
G01 X22.3044 Y4.2335 
G01 X22.3249 Y4.2831 
G01 X22.3249 Y5.1368 
G01 X22.3044 Y5.1864 
G01 X22.2664 Y5.2244 
G01 X22.2168 Y5.2449 
G01 X21.5332 Y5.2449 
G01 X19.2149 Y7.5632 
G01 X19.2149 Y8.2468 
G00 Z1.0000 
G00 X17.4149 Y6.9931 
G01 Z-0.1000 F150.00 
G01 X17.4149 Y8.0467 
G01 X19.9520 Y10.5838 
G01 X20.7834 Y10.5838 
G01 X20.8725 Y10.5838 
G01 X20.9585 Y10.6068 
G01 X21.0356 Y10.6514 
G01 X22.3056 Y11.9214 
G01 X22.3685 Y11.9843 
G01 X22.4131 Y12.0614 
G01 X22.4361 Y12.1474 
G01 X22.4361 Y19.4179 
G01 X27.3466 Y24.3285 
G01 X27.4233 Y24.2842 
G01 X27.5545 Y24.2490 
G01 X29.0874 Y24.2490 
G01 X29.2186 Y24.2842 
G01 X29.3363 Y24.3521 
G01 X29.4109 Y24.4268 
G01 X29.8004 Y24.4268 
G01 X29.8895 Y24.4268 
G01 X29.9755 Y24.4498 
G01 X30.0526 Y24.4944 
G01 X31.8900 Y26.3318 
G01 X37.2692 Y26.3318 
G01 X37.3051 Y26.2451 
G01 X37.4032 Y26.0982 
G01 X37.5282 Y25.9732 
G01 X37.6751 Y25.8751 
G01 X37.8383 Y25.8075 
G01 X38.0116 Y25.7730 
G01 X38.1883 Y25.7730 
G01 X38.3616 Y25.8075 
G01 X38.5248 Y25.8751 
G01 X38.6717 Y25.9732 
G01 X38.7967 Y26.0982 
G01 X38.8948 Y26.2451 
G01 X38.9624 Y26.4083 
G01 X38.9969 Y26.5816 
G01 X38.9969 Y26.7583 
G01 X38.9624 Y26.9316 
G01 X38.8948 Y27.0948 
G01 X38.7967 Y27.2417 
G01 X38.6717 Y27.3667 
G01 X38.5248 Y27.4648 
G01 X38.3616 Y27.5324 
G01 X38.1883 Y27.5669 
G01 X38.0116 Y27.5669 
G01 X37.8383 Y27.5324 
G01 X37.6751 Y27.4648 
G01 X37.5282 Y27.3667 
G01 X37.4032 Y27.2417 
G01 X37.3051 Y27.0948 
G01 X37.2692 Y27.0081 
G01 X31.7054 Y27.0081 
G01 X31.6194 Y26.9851 
G01 X31.5423 Y26.9405 
G01 X31.4794 Y26.8776 
G01 X29.7049 Y25.1031 
G01 X29.4109 Y25.1031 
G01 X29.3363 Y25.1778 
G01 X29.2186 Y25.2457 
G01 X29.0874 Y25.2809 
G01 X27.5545 Y25.2809 
G01 X27.4233 Y25.2457 
G01 X27.3056 Y25.1778 
G01 X27.2202 Y25.0923 
G01 X27.1744 Y25.0801 
G01 X27.0973 Y25.0355 
G01 X21.8274 Y19.7656 
G01 X21.7828 Y19.6885 
G01 X21.7598 Y19.6025 
G01 X21.7598 Y19.5134 
G01 X21.7598 Y12.3320 
G01 X20.6879 Y11.2601 
G01 X19.7674 Y11.2601 
G01 X19.6814 Y11.2371 
G01 X19.6043 Y11.1925 
G01 X19.5414 Y11.1296 
G01 X16.7667 Y8.3549 
G01 X16.4531 Y8.3549 
G01 X16.4035 Y8.3344 
G01 X16.3655 Y8.2964 
G01 X16.3450 Y8.2468 
G01 X16.3450 Y6.9931 
G01 X16.3655 Y6.9435 
G01 X16.4035 Y6.9055 
G01 X16.4531 Y6.8850 
G01 X17.3068 Y6.8850 
G01 X17.3564 Y6.9055 
G01 X17.3944 Y6.9435 
G01 X17.4149 Y6.9931 
G00 Z1.0000 
G00 X20.9631 Y48.6250 
G01 Z-0.1000 F150.00 
G01 X22.2168 Y48.6250 
G01 X22.2664 Y48.6455 
G01 X22.3044 Y48.6835 
G01 X22.3195 Y48.7202 
G01 X24.6704 Y48.7202 
G01 X24.6855 Y48.6835 
G01 X24.7235 Y48.6455 
G01 X24.7731 Y48.6250 
G01 X26.0268 Y48.6250 
G01 X26.0764 Y48.6455 
G01 X26.1144 Y48.6835 
G01 X26.1295 Y48.7202 
G01 X28.4804 Y48.7202 
G01 X28.4955 Y48.6835 
G01 X28.5335 Y48.6455 
G01 X28.5831 Y48.6250 
G01 X29.8368 Y48.6250 
G01 X29.8864 Y48.6455 
G01 X29.9244 Y48.6835 
G01 X29.9395 Y48.7202 
G01 X32.2904 Y48.7202 
G01 X32.3055 Y48.6835 
G01 X32.3435 Y48.6455 
G01 X32.3931 Y48.6250 
G01 X33.6468 Y48.6250 
G01 X33.6964 Y48.6455 
G01 X33.7344 Y48.6835 
G01 X33.7495 Y48.7202 
G01 X36.1004 Y48.7202 
G01 X36.1155 Y48.6835 
G01 X36.1535 Y48.6455 
G01 X36.2031 Y48.6250 
G01 X37.4568 Y48.6250 
G01 X37.5064 Y48.6455 
G01 X37.5444 Y48.6835 
G01 X37.5595 Y48.7202 
G01 X39.9104 Y48.7202 
G01 X39.9255 Y48.6835 
G01 X39.9635 Y48.6455 
G01 X40.0131 Y48.6250 
G01 X41.2668 Y48.6250 
G01 X41.3164 Y48.6455 
G01 X41.3544 Y48.6835 
G01 X41.3695 Y48.7202 
G01 X43.7204 Y48.7202 
G01 X43.7355 Y48.6835 
G01 X43.7735 Y48.6455 
G01 X43.8231 Y48.6250 
G01 X45.0768 Y48.6250 
G01 X45.1264 Y48.6455 
G01 X45.1644 Y48.6835 
G01 X45.1849 Y48.7331 
G01 X45.1849 Y48.8362 
G01 X45.7918 Y48.8362 
G01 X47.8202 Y46.8078 
G01 X47.8202 Y5.7701 
G01 X45.3998 Y3.3497 
G01 X45.1795 Y3.3497 
G01 X45.1644 Y3.3864 
G01 X45.1264 Y3.4244 
G01 X45.0768 Y3.4449 
G01 X43.8231 Y3.4449 
G01 X43.7735 Y3.4244 
G01 X43.7355 Y3.3864 
G01 X43.7204 Y3.3497 
G01 X43.0101 Y3.3497 
G01 X43.0101 Y5.1245 
G01 X42.9871 Y5.2105 
G01 X42.9425 Y5.2876 
G01 X42.8796 Y5.3505 
G01 X42.1176 Y6.1125 
G01 X42.0405 Y6.1571 
G01 X41.9545 Y6.1801 
G01 X41.8654 Y6.1801 
G01 X39.7640 Y6.1801 
G01 X39.2001 Y6.7440 
G01 X39.2001 Y8.4265 
G01 X39.1771 Y8.5125 
G01 X39.1325 Y8.5896 
G01 X39.0696 Y8.6525 
G01 X39.0695 Y8.6525 
G01 X31.6396 Y16.0824 
G01 X31.6395 Y16.0826 
G01 X31.5766 Y16.1455 
G01 X31.4995 Y16.1901 
G01 X31.4135 Y16.2131 
G01 X29.4109 Y16.2131 
G01 X29.3363 Y16.2878 
G01 X29.2186 Y16.3557 
G01 X29.0874 Y16.3909 
G01 X27.5545 Y16.3909 
G01 X27.4233 Y16.3557 
G01 X27.3056 Y16.2878 
G01 X27.2096 Y16.1918 
G01 X27.1417 Y16.0741 
G01 X27.1065 Y15.9429 
G01 X27.1065 Y15.8070 
G01 X27.1417 Y15.6758 
G01 X27.2096 Y15.5581 
G01 X27.3056 Y15.4621 
G01 X27.4233 Y15.3942 
G01 X27.5545 Y15.3590 
G01 X27.9828 Y15.3590 
G01 X27.9828 Y15.1209 
G01 X27.5545 Y15.1209 
G01 X27.4233 Y15.0857 
G01 X27.3056 Y15.0178 
G01 X27.2096 Y14.9218 
G01 X27.1417 Y14.8041 
G01 X27.1065 Y14.6729 
G01 X27.1065 Y14.5370 
G01 X27.1417 Y14.4058 
G01 X27.2096 Y14.2881 
G01 X27.3056 Y14.1921 
G01 X27.4233 Y14.1242 
G01 X27.5545 Y14.0890 
G01 X29.0874 Y14.0890 
G01 X29.2186 Y14.1242 
G01 X29.3363 Y14.1921 
G01 X29.4323 Y14.2881 
G01 X29.5002 Y14.4058 
G01 X29.5354 Y14.5370 
G01 X29.5354 Y14.6729 
G01 X29.5002 Y14.8041 
G01 X29.4323 Y14.9218 
G01 X29.3363 Y15.0178 
G01 X29.2186 Y15.0857 
G01 X29.0874 Y15.1209 
G01 X28.6591 Y15.1209 
G01 X28.6591 Y15.3590 
G01 X29.0874 Y15.3590 
G01 X29.2186 Y15.3942 
G01 X29.3363 Y15.4621 
G01 X29.4109 Y15.5368 
G01 X31.2290 Y15.5368 
G01 X38.5238 Y8.2420 
G01 X38.5238 Y6.6485 
G01 X38.5238 Y6.5594 
G01 X38.5468 Y6.4734 
G01 X38.5914 Y6.3963 
G01 X39.3534 Y5.6344 
G01 X39.3534 Y5.6343 
G01 X39.4163 Y5.5714 
G01 X39.4934 Y5.5268 
G01 X39.5794 Y5.5038 
G01 X41.7699 Y5.5038 
G01 X42.3338 Y4.9399 
G01 X42.3338 Y3.3497 
G01 X41.3695 Y3.3497 
G01 X41.3544 Y3.3864 
G01 X41.3164 Y3.4244 
G01 X41.2668 Y3.4449 
G01 X40.0131 Y3.4449 
G01 X39.9635 Y3.4244 
G01 X39.9255 Y3.3864 
G01 X39.9104 Y3.3497 
G01 X37.5595 Y3.3497 
G01 X37.5444 Y3.3864 
G01 X37.5064 Y3.4244 
G01 X37.4568 Y3.4449 
G01 X36.2031 Y3.4449 
G01 X36.1535 Y3.4244 
G01 X36.1155 Y3.3864 
G01 X36.1004 Y3.3497 
G01 X33.7495 Y3.3497 
G01 X33.7344 Y3.3864 
G01 X33.6964 Y3.4244 
G01 X33.6468 Y3.4449 
G01 X32.3931 Y3.4449 
G01 X32.3435 Y3.4244 
G01 X32.3055 Y3.3864 
G01 X32.2904 Y3.3497 
G01 X29.9395 Y3.3497 
G01 X29.9244 Y3.3864 
G01 X29.8864 Y3.4244 
G01 X29.8368 Y3.4449 
G01 X28.5831 Y3.4449 
G01 X28.5335 Y3.4244 
G01 X28.4955 Y3.3864 
G01 X28.4804 Y3.3497 
G01 X26.1295 Y3.3497 
G01 X26.1144 Y3.3864 
G01 X26.0764 Y3.4244 
G01 X26.0268 Y3.4449 
G01 X24.7731 Y3.4449 
G01 X24.7235 Y3.4244 
G01 X24.6855 Y3.3864 
G01 X24.6704 Y3.3497 
G01 X22.3195 Y3.3497 
G01 X22.3044 Y3.3864 
G01 X22.2664 Y3.4244 
G01 X22.2168 Y3.4449 
G01 X20.9631 Y3.4449 
G01 X20.9135 Y3.4244 
G01 X20.8755 Y3.3864 
G01 X20.8604 Y3.3497 
G01 X18.5095 Y3.3497 
G01 X18.4944 Y3.3864 
G01 X18.4564 Y3.4244 
G01 X18.4068 Y3.4449 
G01 X17.1531 Y3.4449 
G01 X17.1035 Y3.4244 
G01 X17.0655 Y3.3864 
G01 X17.0450 Y3.3368 
G01 X17.0450 Y2.4831 
G01 X17.0655 Y2.4335 
G01 X17.1035 Y2.3955 
G01 X17.1531 Y2.3750 
G01 X18.4068 Y2.3750 
G01 X18.4564 Y2.3955 
G01 X18.4944 Y2.4335 
G01 X18.5095 Y2.4702 
G01 X20.8604 Y2.4702 
G01 X20.8755 Y2.4335 
G01 X20.9135 Y2.3955 
G01 X20.9631 Y2.3750 
G01 X22.2168 Y2.3750 
G01 X22.2664 Y2.3955 
G01 X22.3044 Y2.4335 
G01 X22.3195 Y2.4702 
G01 X24.6704 Y2.4702 
G01 X24.6855 Y2.4335 
G01 X24.7235 Y2.3955 
G01 X24.7731 Y2.3750 
G01 X26.0268 Y2.3750 
G01 X26.0764 Y2.3955 
G01 X26.1144 Y2.4335 
G01 X26.1295 Y2.4702 
G01 X28.4804 Y2.4702 
G01 X28.4955 Y2.4335 
G01 X28.5335 Y2.3955 
G01 X28.5831 Y2.3750 
G01 X29.8368 Y2.3750 
G01 X29.8864 Y2.3955 
G01 X29.9244 Y2.4335 
G01 X29.9395 Y2.4702 
G01 X32.2904 Y2.4702 
G01 X32.3055 Y2.4335 
G01 X32.3435 Y2.3955 
G01 X32.3931 Y2.3750 
G01 X33.6468 Y2.3750 
G01 X33.6964 Y2.3955 
G01 X33.7344 Y2.4335 
G01 X33.7495 Y2.4702 
G01 X36.1004 Y2.4702 
G01 X36.1155 Y2.4335 
G01 X36.1535 Y2.3955 
G01 X36.2031 Y2.3750 
G01 X37.4568 Y2.3750 
G01 X37.5064 Y2.3955 
G01 X37.5444 Y2.4335 
G01 X37.5595 Y2.4702 
G01 X39.9104 Y2.4702 
G01 X39.9255 Y2.4335 
G01 X39.9635 Y2.3955 
G01 X40.0131 Y2.3750 
G01 X41.2668 Y2.3750 
G01 X41.3164 Y2.3955 
G01 X41.3544 Y2.4335 
G01 X41.3695 Y2.4702 
G01 X42.6140 Y2.4702 
G01 X43.7204 Y2.4702 
G01 X43.7355 Y2.4335 
G01 X43.7735 Y2.3955 
G01 X43.8231 Y2.3750 
G01 X45.0768 Y2.3750 
G01 X45.1264 Y2.3955 
G01 X45.1644 Y2.4335 
G01 X45.1795 Y2.4702 
G01 X45.5240 Y2.4702 
G01 X45.6399 Y2.4702 
G01 X45.7517 Y2.5002 
G01 X45.8520 Y2.5581 
G01 X48.6118 Y5.3179 
G01 X48.6697 Y5.4182 
G01 X48.6997 Y5.5300 
G01 X48.6997 Y5.6459 
G01 X48.6997 Y47.0479 
G01 X48.6697 Y47.1597 
G01 X48.6118 Y47.2600 
G01 X48.5300 Y47.3418 
G01 X46.2440 Y49.6278 
G01 X46.1437 Y49.6857 
G01 X46.0319 Y49.7157 
G01 X45.9160 Y49.7157 
G01 X44.3920 Y49.7157 
G01 X44.3145 Y49.6949 
G01 X43.8231 Y49.6949 
G01 X43.7735 Y49.6744 
G01 X43.7355 Y49.6364 
G01 X43.7204 Y49.5997 
G01 X41.3695 Y49.5997 
G01 X41.3544 Y49.6364 
G01 X41.3164 Y49.6744 
G01 X41.2668 Y49.6949 
G01 X40.0131 Y49.6949 
G01 X39.9635 Y49.6744 
G01 X39.9255 Y49.6364 
G01 X39.9104 Y49.5997 
G01 X37.5595 Y49.5997 
G01 X37.5444 Y49.6364 
G01 X37.5064 Y49.6744 
G01 X37.4568 Y49.6949 
G01 X36.2031 Y49.6949 
G01 X36.1535 Y49.6744 
G01 X36.1155 Y49.6364 
G01 X36.1004 Y49.5997 
G01 X33.7495 Y49.5997 
G01 X33.7344 Y49.6364 
G01 X33.6964 Y49.6744 
G01 X33.6468 Y49.6949 
G01 X32.3931 Y49.6949 
G01 X32.3435 Y49.6744 
G01 X32.3055 Y49.6364 
G01 X32.2904 Y49.5997 
G01 X29.9395 Y49.5997 
G01 X29.9244 Y49.6364 
G01 X29.8864 Y49.6744 
G01 X29.8368 Y49.6949 
G01 X28.5831 Y49.6949 
G01 X28.5335 Y49.6744 
G01 X28.4955 Y49.6364 
G01 X28.4804 Y49.5997 
G01 X26.1295 Y49.5997 
G01 X26.1144 Y49.6364 
G01 X26.0764 Y49.6744 
G01 X26.0268 Y49.6949 
G01 X24.7731 Y49.6949 
G01 X24.7235 Y49.6744 
G01 X24.6855 Y49.6364 
G01 X24.6704 Y49.5997 
G01 X22.3195 Y49.5997 
G01 X22.3044 Y49.6364 
G01 X22.2664 Y49.6744 
G01 X22.2168 Y49.6949 
G01 X20.9631 Y49.6949 
G01 X20.9135 Y49.6744 
G01 X20.8755 Y49.6364 
G01 X20.8604 Y49.5997 
G01 X18.5095 Y49.5997 
G01 X18.4944 Y49.6364 
G01 X18.4564 Y49.6744 
G01 X18.4068 Y49.6949 
G01 X17.1531 Y49.6949 
G01 X17.1035 Y49.6744 
G01 X17.0655 Y49.6364 
G01 X17.0504 Y49.5997 
G01 X15.4359 Y49.5997 
G01 X15.3200 Y49.5997 
G01 X15.2082 Y49.5697 
G01 X15.1079 Y49.5118 
G01 X7.6381 Y42.0420 
G01 X7.5802 Y41.9417 
G01 X7.5502 Y41.8299 
G01 X7.5502 Y41.7140 
G01 X7.5502 Y19.7795 
G01 X7.5135 Y19.7644 
G01 X7.4755 Y19.7264 
G01 X7.4550 Y19.6768 
G01 X7.4550 Y19.4897 
G01 X4.5948 Y19.4897 
G01 X4.5067 Y19.6217 
G01 X4.3817 Y19.7467 
G01 X4.2348 Y19.8448 
G01 X4.0716 Y19.9124 
G01 X3.8983 Y19.9469 
G01 X3.7216 Y19.9469 
G01 X3.5483 Y19.9124 
G01 X3.3851 Y19.8448 
G01 X3.2382 Y19.7467 
G01 X3.1132 Y19.6217 
G01 X3.0151 Y19.4748 
G01 X2.9475 Y19.3116 
G01 X2.9130 Y19.1383 
G01 X2.9130 Y18.9616 
G01 X2.9475 Y18.7883 
G01 X3.0151 Y18.6251 
G01 X3.1132 Y18.4782 
G01 X3.2382 Y18.3532 
G01 X3.3851 Y18.2551 
G01 X3.5483 Y18.1875 
G01 X3.7216 Y18.1530 
G01 X3.8983 Y18.1530 
G01 X4.0716 Y18.1875 
G01 X4.2348 Y18.2551 
G01 X4.3817 Y18.3532 
G01 X4.5067 Y18.4782 
G01 X4.5948 Y18.6102 
G01 X7.4550 Y18.6102 
G01 X7.4550 Y18.4231 
G01 X7.4755 Y18.3735 
G01 X7.5135 Y18.3355 
G01 X7.5502 Y18.3204 
G01 X7.5502 Y17.8379 
G01 X7.5502 Y15.4049 
G01 X6.9931 Y15.4049 
G01 X6.9435 Y15.3844 
G01 X6.9055 Y15.3464 
G01 X6.8850 Y15.2968 
G01 X6.8850 Y14.4431 
G01 X6.9055 Y14.3935 
G01 X6.9435 Y14.3555 
G01 X6.9931 Y14.3350 
G01 X8.2468 Y14.3350 
G01 X8.2964 Y14.3555 
G01 X8.3344 Y14.3935 
G01 X8.3495 Y14.4302 
G01 X9.4304 Y14.4302 
G01 X9.4455 Y14.3935 
G01 X9.4835 Y14.3555 
G01 X9.5331 Y14.3350 
G01 X10.7868 Y14.3350 
G01 X10.8364 Y14.3555 
G01 X10.8744 Y14.3935 
G01 X10.8949 Y14.4431 
G01 X10.8949 Y15.2968 
G01 X10.8744 Y15.3464 
G01 X10.8364 Y15.3844 
G01 X10.7868 Y15.4049 
G01 X9.5331 Y15.4049 
G01 X9.4835 Y15.3844 
G01 X9.4455 Y15.3464 
G01 X9.4304 Y15.3097 
G01 X8.4297 Y15.3097 
G01 X8.4297 Y16.7500 
G01 X8.4552 Y16.7352 
G01 X8.5670 Y16.7052 
G01 X16.5573 Y16.7052 
G01 X16.6283 Y16.6642 
G01 X16.7595 Y16.6290 
G01 X18.2924 Y16.6290 
G01 X18.4236 Y16.6642 
G01 X18.4946 Y16.7052 
G01 X19.5028 Y16.7052 
G01 X19.8802 Y16.3278 
G01 X19.8802 Y14.1521 
G01 X19.5028 Y13.7747 
G01 X18.4946 Y13.7747 
G01 X18.4236 Y13.8157 
G01 X18.2924 Y13.8509 
G01 X16.7595 Y13.8509 
G01 X16.6283 Y13.8157 
G01 X16.5106 Y13.7478 
G01 X16.4146 Y13.6518 
G01 X16.3467 Y13.5341 
G01 X16.3115 Y13.4029 
G01 X16.3115 Y13.2670 
G01 X16.3467 Y13.1358 
G01 X16.4146 Y13.0181 
G01 X16.5106 Y12.9221 
G01 X16.6283 Y12.8542 
G01 X16.7595 Y12.8190 
G01 X18.2924 Y12.8190 
G01 X18.4236 Y12.8542 
G01 X18.4946 Y12.8952 
G01 X19.6270 Y12.8952 
G01 X19.7429 Y12.8952 
G01 X19.8547 Y12.9252 
G01 X19.9550 Y12.9831 
G01 X20.5900 Y13.6181 
G01 X20.6718 Y13.6999 
G01 X20.7297 Y13.8002 
G01 X20.7597 Y13.9120 
G01 X20.7597 Y16.5679 
G01 X20.7297 Y16.6797 
G01 X20.6718 Y16.7800 
G01 X20.5900 Y16.8618 
G01 X19.9550 Y17.4968 
G01 X19.8547 Y17.5547 
G01 X19.7429 Y17.5847 
G01 X19.6270 Y17.5847 
G01 X18.4946 Y17.5847 
G01 X18.4236 Y17.6257 
G01 X18.2924 Y17.6609 
G01 X16.7595 Y17.6609 
G01 X16.6283 Y17.6257 
G01 X16.5573 Y17.5847 
G01 X8.6634 Y17.5847 
G01 X8.4297 Y17.8184 
G01 X8.4297 Y17.8379 
G01 X8.4297 Y18.3204 
G01 X8.4664 Y18.3355 
G01 X8.5044 Y18.3735 
G01 X8.5249 Y18.4231 
G01 X8.5249 Y19.6768 
G01 X8.5044 Y19.7264 
G01 X8.4664 Y19.7644 
G01 X8.4297 Y19.7795 
G01 X8.4297 Y41.5898 
G01 X15.5601 Y48.7202 
G01 X17.0504 Y48.7202 
G01 X17.0655 Y48.6835 
G01 X17.1035 Y48.6455 
G01 X17.1531 Y48.6250 
G01 X18.4068 Y48.6250 
G01 X18.4564 Y48.6455 
G01 X18.4944 Y48.6835 
G01 X18.5095 Y48.7202 
G01 X20.8604 Y48.7202 
G01 X20.8755 Y48.6835 
G01 X20.9135 Y48.6455 
G01 X20.9631 Y48.6250 
G00 Z1.0000 
G00 X45.0768 Y5.2449 
G01 Z-0.1000 F150.00 
G01 X44.3932 Y5.2449 
G01 X42.0749 Y7.5632 
G01 X42.0749 Y8.2468 
G01 X42.0544 Y8.2964 
G01 X42.0164 Y8.3344 
G01 X41.9668 Y8.3549 
G01 X41.1131 Y8.3549 
G01 X41.0635 Y8.3344 
G01 X41.0255 Y8.2964 
G01 X41.0050 Y8.2468 
G01 X41.0050 Y6.9931 
G01 X41.0255 Y6.9435 
G01 X41.0635 Y6.9055 
G01 X41.1131 Y6.8850 
G01 X41.7967 Y6.8850 
G01 X43.7150 Y4.9667 
G01 X43.7150 Y4.2831 
G01 X43.7355 Y4.2335 
G01 X43.7735 Y4.1955 
G01 X43.8231 Y4.1750 
G01 X45.0768 Y4.1750 
G01 X45.1264 Y4.1955 
G01 X45.1644 Y4.2335 
G01 X45.1849 Y4.2831 
G01 X45.1849 Y5.1368 
G01 X45.1644 Y5.1864 
G01 X45.1264 Y5.2244 
G01 X45.0768 Y5.2449 
G00 Z1.0000 
G00 X37.4568 Y5.2449 
G01 Z-0.1000 F150.00 
G01 X36.7732 Y5.2449 
G01 X34.4549 Y7.5632 
G01 X34.4549 Y8.2468 
G01 X34.4344 Y8.2964 
G01 X34.3964 Y8.3344 
G01 X34.3468 Y8.3549 
G01 X33.4931 Y8.3549 
G01 X33.4435 Y8.3344 
G01 X33.4055 Y8.2964 
G01 X33.3850 Y8.2468 
G01 X33.3850 Y6.9931 
G01 X33.4055 Y6.9435 
G01 X33.4435 Y6.9055 
G01 X33.4931 Y6.8850 
G01 X34.1767 Y6.8850 
G01 X36.0950 Y4.9667 
G01 X36.0950 Y4.2831 
G01 X36.1155 Y4.2335 
G01 X36.1535 Y4.1955 
G01 X36.2031 Y4.1750 
G01 X37.4568 Y4.1750 
G01 X37.5064 Y4.1955 
G01 X37.5444 Y4.2335 
G01 X37.5649 Y4.2831 
G01 X37.5649 Y5.1368 
G01 X37.5444 Y5.1864 
G01 X37.5064 Y5.2244 
G01 X37.4568 Y5.2449 
G00 Z1.0000 
G00 X29.8368 Y5.2449 
G01 Z-0.1000 F150.00 
G01 X29.1532 Y5.2449 
G01 X26.8349 Y7.5632 
G01 X26.8349 Y8.2468 
G01 X26.8144 Y8.2964 
G01 X26.7764 Y8.3344 
G01 X26.7268 Y8.3549 
G01 X25.8731 Y8.3549 
G01 X25.8235 Y8.3344 
G01 X25.7855 Y8.2964 
G01 X25.7650 Y8.2468 
G01 X25.7650 Y6.9931 
G01 X25.7855 Y6.9435 
G01 X25.8235 Y6.9055 
G01 X25.8731 Y6.8850 
G01 X26.5567 Y6.8850 
G01 X28.4750 Y4.9667 
G01 X28.4750 Y4.2831 
G01 X28.4955 Y4.2335 
G01 X28.5335 Y4.1955 
G01 X28.5831 Y4.1750 
G01 X29.8368 Y4.1750 
G01 X29.8864 Y4.1955 
G01 X29.9244 Y4.2335 
G01 X29.9449 Y4.2831 
G01 X29.9449 Y5.1368 
G01 X29.9244 Y5.1864 
G01 X29.8864 Y5.2244 
G01 X29.8368 Y5.2449 
G00 Z1.0000 
G00 X18.4068 Y5.2449 
G01 Z-0.1000 F150.00 
G01 X17.7232 Y5.2449 
G01 X15.4049 Y7.5632 
G01 X15.4049 Y8.2468 
G01 X15.3844 Y8.2964 
G01 X15.3464 Y8.3344 
G01 X15.2968 Y8.3549 
G01 X14.4431 Y8.3549 
G01 X14.3935 Y8.3344 
G01 X14.3555 Y8.2964 
G01 X14.3350 Y8.2468 
G01 X14.3350 Y6.9931 
G01 X14.3555 Y6.9435 
G01 X14.3935 Y6.9055 
G01 X14.4431 Y6.8850 
G01 X15.1267 Y6.8850 
G01 X17.0450 Y4.9667 
G01 X17.0450 Y4.2831 
G01 X17.0655 Y4.2335 
G01 X17.1035 Y4.1955 
G01 X17.1531 Y4.1750 
G01 X18.4068 Y4.1750 
G01 X18.4564 Y4.1955 
G01 X18.4944 Y4.2335 
G01 X18.5149 Y4.2831 
G01 X18.5149 Y5.1368 
G01 X18.4944 Y5.1864 
G01 X18.4564 Y5.2244 
G01 X18.4068 Y5.2449 
G00 Z1.0000 
G00 X4.7069 Y21.5016 
G01 Z-0.1000 F150.00 
G01 X4.7069 Y21.6783 
G01 X4.6724 Y21.8516 
G01 X4.6048 Y22.0148 
G01 X4.5067 Y22.1617 
G01 X4.3817 Y22.2867 
G01 X4.2348 Y22.3848 
G01 X4.0716 Y22.4524 
G01 X3.8983 Y22.4869 
G01 X3.7216 Y22.4869 
G01 X3.5483 Y22.4524 
G01 X3.3851 Y22.3848 
G01 X3.2382 Y22.2867 
G01 X3.1132 Y22.1617 
G01 X3.0151 Y22.0148 
G01 X2.9475 Y21.8516 
G01 X2.9130 Y21.6783 
G01 X2.9130 Y21.5016 
G01 X2.9475 Y21.3283 
G01 X3.0151 Y21.1651 
G01 X3.0735 Y21.0777 
G01 X2.3323 Y20.3365 
G01 X2.2694 Y20.2736 
G01 X2.2248 Y20.1965 
G01 X2.2018 Y20.1105 
G01 X2.2018 Y18.1945 
G01 X2.2018 Y18.1054 
G01 X2.2248 Y18.0194 
G01 X2.2694 Y17.9423 
G01 X6.8850 Y13.3267 
G01 X6.8850 Y12.6431 
G01 X6.9055 Y12.5935 
G01 X6.9435 Y12.5555 
G01 X6.9931 Y12.5350 
G01 X8.2468 Y12.5350 
G01 X8.2964 Y12.5555 
G01 X8.3344 Y12.5935 
G01 X8.3549 Y12.6431 
G01 X8.3549 Y13.3267 
G01 X8.6600 Y13.6318 
G01 X12.4905 Y13.6318 
G01 X12.5765 Y13.6548 
G01 X12.6536 Y13.6994 
G01 X12.7165 Y13.7623 
G01 X14.4910 Y15.5368 
G01 X16.4359 Y15.5368 
G01 X16.5106 Y15.4621 
G01 X16.6283 Y15.3942 
G01 X16.7595 Y15.3590 
G01 X18.2924 Y15.3590 
G01 X18.4236 Y15.3942 
G01 X18.5413 Y15.4621 
G01 X18.6373 Y15.5581 
G01 X18.7052 Y15.6758 
G01 X18.7404 Y15.8070 
G01 X18.7404 Y15.9429 
G01 X18.7052 Y16.0741 
G01 X18.6373 Y16.1918 
G01 X18.5413 Y16.2878 
G01 X18.4236 Y16.3557 
G01 X18.2924 Y16.3909 
G01 X16.7595 Y16.3909 
G01 X16.6283 Y16.3557 
G01 X16.5106 Y16.2878 
G01 X16.4359 Y16.2131 
G01 X14.3955 Y16.2131 
G01 X14.3064 Y16.2131 
G01 X14.2204 Y16.1901 
G01 X14.1433 Y16.1455 
G01 X12.3059 Y14.3081 
G01 X8.5645 Y14.3081 
G01 X8.4754 Y14.3081 
G01 X8.3894 Y14.2851 
G01 X8.3123 Y14.2405 
G01 X7.6767 Y13.6049 
G01 X7.5632 Y13.6049 
G01 X2.8781 Y18.2900 
G01 X2.8781 Y19.9259 
G01 X3.6579 Y20.7057 
G01 X3.7216 Y20.6930 
G01 X3.8983 Y20.6930 
G01 X4.0716 Y20.7275 
G01 X4.2348 Y20.7951 
G01 X4.3817 Y20.8932 
G01 X4.5067 Y21.0182 
G01 X4.6048 Y21.1651 
G01 X4.6724 Y21.3283 
G01 X4.7069 Y21.5016 
G00 Z1.0000 
G00 X4.7069 Y24.0416 
G01 Z-0.1000 F150.00 
G01 X4.7069 Y24.2183 
G01 X4.6724 Y24.3916 
G01 X4.6048 Y24.5548 
G01 X4.5067 Y24.7017 
G01 X4.3817 Y24.8267 
G01 X4.2348 Y24.9248 
G01 X4.0716 Y24.9924 
G01 X3.8983 Y25.0269 
G01 X3.7216 Y25.0269 
G01 X3.5483 Y24.9924 
G01 X3.3851 Y24.9248 
G01 X3.2382 Y24.8267 
G01 X3.1132 Y24.7017 
G01 X3.0151 Y24.5548 
G01 X2.9475 Y24.3916 
G01 X2.9130 Y24.2183 
G01 X2.9130 Y24.0416 
G01 X2.9475 Y23.8683 
G01 X2.9835 Y23.7816 
G01 X1.5704 Y22.3685 
G01 X1.5703 Y22.3685 
G01 X1.5074 Y22.3056 
G01 X1.4628 Y22.2285 
G01 X1.4398 Y22.1425 
G01 X1.4398 Y17.0625 
G01 X1.4398 Y16.9734 
G01 X1.4628 Y16.8874 
G01 X1.5074 Y16.8103 
G01 X6.8414 Y11.4764 
G01 X6.8414 Y11.4763 
G01 X6.9043 Y11.4134 
G01 X6.9814 Y11.3688 
G01 X7.0674 Y11.3458 
G01 X8.7294 Y11.3458 
G01 X8.8185 Y11.3458 
G01 X8.9045 Y11.3688 
G01 X8.9816 Y11.4134 
G01 X10.1032 Y12.5350 
G01 X10.7868 Y12.5350 
G01 X10.8364 Y12.5555 
G01 X10.8744 Y12.5935 
G01 X10.8949 Y12.6431 
G01 X10.8949 Y12.7318 
G01 X12.7714 Y12.7318 
G01 X12.8605 Y12.7318 
G01 X12.9465 Y12.7548 
G01 X13.0236 Y12.7994 
G01 X14.4910 Y14.2668 
G01 X16.4360 Y14.2668 
G01 X16.5106 Y14.1921 
G01 X16.6283 Y14.1242 
G01 X16.7595 Y14.0890 
G01 X18.2924 Y14.0890 
G01 X18.4236 Y14.1242 
G01 X18.5413 Y14.1921 
G01 X18.6373 Y14.2881 
G01 X18.7052 Y14.4058 
G01 X18.7404 Y14.5370 
G01 X18.7404 Y14.6729 
G01 X18.7052 Y14.8041 
G01 X18.6373 Y14.9218 
G01 X18.5413 Y15.0178 
G01 X18.4236 Y15.0857 
G01 X18.2924 Y15.1209 
G01 X16.7595 Y15.1209 
G01 X16.6283 Y15.0857 
G01 X16.5106 Y15.0178 
G01 X16.4360 Y14.9431 
G01 X14.3955 Y14.9431 
G01 X14.3064 Y14.9431 
G01 X14.2204 Y14.9201 
G01 X14.1433 Y14.8755 
G01 X12.6759 Y13.4081 
G01 X10.8949 Y13.4081 
G01 X10.8949 Y13.4968 
G01 X10.8744 Y13.5464 
G01 X10.8364 Y13.5844 
G01 X10.7868 Y13.6049 
G01 X9.5331 Y13.6049 
G01 X9.4835 Y13.5844 
G01 X9.4455 Y13.5464 
G01 X9.4250 Y13.4968 
G01 X9.4250 Y12.8132 
G01 X8.6339 Y12.0221 
G01 X7.2520 Y12.0221 
G01 X2.1161 Y17.1580 
G01 X2.1161 Y21.9580 
G01 X3.4616 Y23.3035 
G01 X3.5483 Y23.2675 
G01 X3.7216 Y23.2330 
G01 X3.8983 Y23.2330 
G01 X4.0716 Y23.2675 
G01 X4.2348 Y23.3351 
G01 X4.3817 Y23.4332 
G01 X4.5067 Y23.5582 
G01 X4.6048 Y23.7051 
G01 X4.6724 Y23.8683 
G01 X4.7069 Y24.0416 
G00 Z1.0000 
G00 X38.9969 Y31.6616 
G01 Z-0.1000 F150.00 
G01 X38.9969 Y31.8383 
G01 X38.9624 Y32.0116 
G01 X38.8948 Y32.1748 
G01 X38.7967 Y32.3217 
G01 X38.6717 Y32.4467 
G01 X38.5248 Y32.5448 
G01 X38.3616 Y32.6124 
G01 X38.1883 Y32.6469 
G01 X38.0116 Y32.6469 
G01 X37.8383 Y32.6124 
G01 X37.6751 Y32.5448 
G01 X37.5282 Y32.4467 
G01 X37.4032 Y32.3217 
G01 X37.3051 Y32.1748 
G01 X37.2375 Y32.0116 
G01 X37.2030 Y31.8383 
G01 X37.2030 Y31.6616 
G01 X37.2375 Y31.4883 
G01 X37.3051 Y31.3251 
G01 X37.4032 Y31.1782 
G01 X37.5282 Y31.0532 
G01 X37.6751 Y30.9551 
G01 X37.8383 Y30.8875 
G01 X38.0116 Y30.8530 
G01 X38.1883 Y30.8530 
G01 X38.3616 Y30.8875 
G01 X38.5248 Y30.9551 
G01 X38.6717 Y31.0532 
G01 X38.7967 Y31.1782 
G01 X38.8948 Y31.3251 
G01 X38.9624 Y31.4883 
G01 X38.9969 Y31.6616 
G00 Z1.0000 
G00 X38.9969 Y24.0416 
G01 Z-0.1000 F150.00 
G01 X38.9969 Y24.2183 
G01 X38.9624 Y24.3916 
G01 X38.8948 Y24.5548 
G01 X38.7967 Y24.7017 
G01 X38.6717 Y24.8267 
G01 X38.5248 Y24.9248 
G01 X38.3616 Y24.9924 
G01 X38.1883 Y25.0269 
G01 X38.0116 Y25.0269 
G01 X37.8383 Y24.9924 
G01 X37.6751 Y24.9248 
G01 X37.5282 Y24.8267 
G01 X37.4032 Y24.7017 
G01 X37.3051 Y24.5548 
G01 X37.2692 Y24.4681 
G01 X30.1814 Y24.4681 
G01 X30.0954 Y24.4451 
G01 X30.0183 Y24.4005 
G01 X29.9554 Y24.3376 
G01 X29.4509 Y23.8331 
G01 X29.4110 Y23.8331 
G01 X29.3363 Y23.9078 
G01 X29.2186 Y23.9757 
G01 X29.0874 Y24.0109 
G01 X27.5545 Y24.0109 
G01 X27.4233 Y23.9757 
G01 X27.3056 Y23.9078 
G01 X27.2202 Y23.8223 
G01 X27.1744 Y23.8101 
G01 X27.0973 Y23.7655 
G01 X22.5894 Y19.2576 
G01 X22.5448 Y19.1805 
G01 X22.5218 Y19.0945 
G01 X22.5218 Y19.0054 
G01 X22.5218 Y12.0780 
G01 X20.4194 Y9.9756 
G01 X20.3748 Y9.8985 
G01 X20.3518 Y9.8125 
G01 X20.3518 Y9.7234 
G01 X20.3518 Y8.3549 
G01 X20.2631 Y8.3549 
G01 X20.2135 Y8.3344 
G01 X20.1755 Y8.2964 
G01 X20.1550 Y8.2468 
G01 X20.1550 Y6.9931 
G01 X20.1755 Y6.9435 
G01 X20.2135 Y6.9055 
G01 X20.2631 Y6.8850 
G01 X21.1168 Y6.8850 
G01 X21.1664 Y6.9055 
G01 X21.2044 Y6.9435 
G01 X21.2249 Y6.9931 
G01 X21.2249 Y8.2468 
G01 X21.2044 Y8.2964 
G01 X21.1664 Y8.3344 
G01 X21.1168 Y8.3549 
G01 X21.0281 Y8.3549 
G01 X21.0281 Y9.6279 
G01 X23.0676 Y11.6674 
G01 X23.1305 Y11.7303 
G01 X23.1751 Y11.8074 
G01 X23.1981 Y11.8934 
G01 X23.1981 Y18.9099 
G01 X27.3466 Y23.0585 
G01 X27.4233 Y23.0142 
G01 X27.5545 Y22.9790 
G01 X29.0874 Y22.9790 
G01 X29.2186 Y23.0142 
G01 X29.3363 Y23.0821 
G01 X29.4110 Y23.1568 
G01 X29.5464 Y23.1568 
G01 X29.6355 Y23.1568 
G01 X29.7215 Y23.1798 
G01 X29.7986 Y23.2244 
G01 X30.3660 Y23.7918 
G01 X37.2692 Y23.7918 
G01 X37.3051 Y23.7051 
G01 X37.4032 Y23.5582 
G01 X37.5282 Y23.4332 
G01 X37.6751 Y23.3351 
G01 X37.8383 Y23.2675 
G01 X38.0116 Y23.2330 
G01 X38.1883 Y23.2330 
G01 X38.3616 Y23.2675 
G01 X38.5248 Y23.3351 
G01 X38.6717 Y23.4332 
G01 X38.7967 Y23.5582 
G01 X38.8948 Y23.7051 
G01 X38.9624 Y23.8683 
G01 X38.9969 Y24.0416 
G00 Z1.0000 
G00 X38.9969 Y16.4216 
G01 Z-0.1000 F150.00 
G01 X38.9969 Y16.5983 
G01 X38.9624 Y16.7716 
G01 X38.8948 Y16.9348 
G01 X38.7967 Y17.0817 
G01 X38.6717 Y17.2067 
G01 X38.5248 Y17.3048 
G01 X38.3616 Y17.3724 
G01 X38.1883 Y17.4069 
G01 X38.0116 Y17.4069 
G01 X37.8383 Y17.3724 
G01 X37.6751 Y17.3048 
G01 X37.5282 Y17.2067 
G01 X37.4032 Y17.0817 
G01 X37.3051 Y16.9348 
G01 X37.2692 Y16.8481 
G01 X34.9380 Y16.8481 
G01 X31.8306 Y19.9555 
G01 X31.7535 Y20.0001 
G01 X31.6675 Y20.0231 
G01 X31.5784 Y20.0231 
G01 X29.4109 Y20.0231 
G01 X29.3363 Y20.0978 
G01 X29.2186 Y20.1657 
G01 X29.0874 Y20.2009 
G01 X27.5545 Y20.2009 
G01 X27.4233 Y20.1657 
G01 X27.3056 Y20.0978 
G01 X27.2202 Y20.0123 
G01 X27.1744 Y20.0001 
G01 X27.0973 Y19.9555 
G01 X24.8754 Y17.7336 
G01 X24.8308 Y17.6565 
G01 X24.8078 Y17.5705 
G01 X24.8078 Y17.4814 
G01 X24.8078 Y12.4014 
G01 X24.8308 Y12.3154 
G01 X24.8754 Y12.2383 
G01 X24.9383 Y12.1754 
G01 X27.4783 Y9.6354 
G01 X27.5554 Y9.5908 
G01 X27.6414 Y9.5678 
G01 X27.7305 Y9.5678 
G01 X30.5939 Y9.5678 
G01 X31.7818 Y8.3799 
G01 X31.7818 Y8.3549 
G01 X31.6931 Y8.3549 
G01 X31.6435 Y8.3344 
G01 X31.6055 Y8.2964 
G01 X31.5850 Y8.2468 
G01 X31.5850 Y6.9931 
G01 X31.6055 Y6.9435 
G01 X31.6435 Y6.9055 
G01 X31.6931 Y6.8850 
G01 X32.5468 Y6.8850 
G01 X32.5964 Y6.9055 
G01 X32.6344 Y6.9435 
G01 X32.6549 Y6.9931 
G01 X32.6549 Y8.2468 
G01 X32.6344 Y8.2964 
G01 X32.5964 Y8.3344 
G01 X32.5468 Y8.3549 
G01 X32.4581 Y8.3549 
G01 X32.4581 Y8.4754 
G01 X32.4581 Y8.5645 
G01 X32.4351 Y8.6505 
G01 X32.3905 Y8.7276 
G01 X31.0045 Y10.1136 
G01 X30.9416 Y10.1765 
G01 X30.8645 Y10.2211 
G01 X30.7785 Y10.2441 
G01 X27.8260 Y10.2441 
G01 X25.4841 Y12.5860 
G01 X25.4841 Y17.3859 
G01 X27.3466 Y19.2485 
G01 X27.4233 Y19.2042 
G01 X27.5545 Y19.1690 
G01 X29.0874 Y19.1690 
G01 X29.2186 Y19.2042 
G01 X29.3363 Y19.2721 
G01 X29.4109 Y19.3468 
G01 X31.4829 Y19.3468 
G01 X34.5274 Y16.3023 
G01 X34.5903 Y16.2394 
G01 X34.6674 Y16.1948 
G01 X34.7534 Y16.1718 
G01 X37.2692 Y16.1718 
G01 X37.3051 Y16.0851 
G01 X37.4032 Y15.9382 
G01 X37.5282 Y15.8132 
G01 X37.6751 Y15.7151 
G01 X37.8383 Y15.6475 
G01 X38.0116 Y15.6130 
G01 X38.1883 Y15.6130 
G01 X38.3616 Y15.6475 
G01 X38.5248 Y15.7151 
G01 X38.6717 Y15.8132 
G01 X38.7967 Y15.9382 
G01 X38.8948 Y16.0851 
G01 X38.9624 Y16.2483 
G01 X38.9969 Y16.4216 
G00 Z1.0000 
G00 X41.5369 Y31.6616 
G01 Z-0.1000 F150.00 
G01 X41.5369 Y31.8383 
G01 X41.5024 Y32.0116 
G01 X41.4348 Y32.1748 
G01 X41.3367 Y32.3217 
G01 X41.2117 Y32.4467 
G01 X41.0648 Y32.5448 
G01 X40.9016 Y32.6124 
G01 X40.7283 Y32.6469 
G01 X40.5516 Y32.6469 
G01 X40.3783 Y32.6124 
G01 X40.2151 Y32.5448 
G01 X40.0682 Y32.4467 
G01 X39.9432 Y32.3217 
G01 X39.8451 Y32.1748 
G01 X39.7775 Y32.0116 
G01 X39.7430 Y31.8383 
G01 X39.7430 Y31.6616 
G01 X39.7775 Y31.4883 
G01 X39.8451 Y31.3251 
G01 X39.9432 Y31.1782 
G01 X40.0682 Y31.0532 
G01 X40.2151 Y30.9551 
G01 X40.3783 Y30.8875 
G01 X40.5516 Y30.8530 
G01 X40.7283 Y30.8530 
G01 X40.9016 Y30.8875 
G01 X41.0648 Y30.9551 
G01 X41.2117 Y31.0532 
G01 X41.3367 Y31.1782 
G01 X41.4348 Y31.3251 
G01 X41.5024 Y31.4883 
G01 X41.5369 Y31.6616 
G00 Z1.0000 
G00 X41.5369 Y16.4216 
G01 Z-0.1000 F150.00 
G01 X41.5369 Y16.5983 
G01 X41.5024 Y16.7716 
G01 X41.4664 Y16.8583 
G01 X45.9905 Y21.3823 
G01 X46.0351 Y21.4594 
G01 X46.0581 Y21.5454 
G01 X46.0581 Y21.6345 
G01 X46.0581 Y34.0805 
G01 X46.0351 Y34.1665 
G01 X45.9905 Y34.2436 
G01 X45.9276 Y34.3065 
G01 X42.1176 Y38.1165 
G01 X42.0405 Y38.1611 
G01 X41.9545 Y38.1841 
G01 X41.8654 Y38.1841 
G01 X23.5774 Y38.1841 
G01 X23.4914 Y38.1611 
G01 X23.4143 Y38.1165 
G01 X23.3514 Y38.0536 
G01 X20.0494 Y34.7516 
G01 X20.0048 Y34.6745 
G01 X19.9818 Y34.5885 
G01 X19.9818 Y34.4994 
G01 X19.9818 Y26.3020 
G01 X18.7829 Y25.1031 
G01 X18.6159 Y25.1031 
G01 X18.5413 Y25.1778 
G01 X18.4236 Y25.2457 
G01 X18.2924 Y25.2809 
G01 X16.7595 Y25.2809 
G01 X16.6331 Y25.2469 
G01 X15.0701 Y26.8100 
G01 X15.0701 Y33.8959 
G01 X21.7300 Y40.5558 
G01 X30.6958 Y40.5558 
G01 X30.7019 Y40.5544 
G01 X30.7397 Y40.5558 
G01 X30.7785 Y40.5558 
G01 X30.7847 Y40.5575 
G01 X30.7910 Y40.5577 
G01 X30.8266 Y40.5687 
G01 X30.8645 Y40.5788 
G01 X30.8701 Y40.5821 
G01 X30.8761 Y40.5839 
G01 X30.9090 Y40.6046 
G01 X30.9416 Y40.6234 
G01 X30.9458 Y40.6277 
G01 X30.9515 Y40.6312 
G01 X30.9787 Y40.6606 
G01 X31.0045 Y40.6863 
G01 X31.0075 Y40.6916 
G01 X33.8148 Y43.7150 
G01 X34.3468 Y43.7150 
G01 X34.3964 Y43.7355 
G01 X34.4344 Y43.7735 
G01 X34.4549 Y43.8231 
G01 X34.4549 Y45.0768 
G01 X34.4344 Y45.1264 
G01 X34.3964 Y45.1644 
G01 X34.3468 Y45.1849 
G01 X33.4931 Y45.1849 
G01 X33.4435 Y45.1644 
G01 X33.4055 Y45.1264 
G01 X33.3850 Y45.0768 
G01 X33.3850 Y44.2459 
G01 X30.5866 Y41.2321 
G01 X21.6345 Y41.2321 
G01 X21.5454 Y41.2321 
G01 X21.4594 Y41.2091 
G01 X21.3823 Y41.1645 
G01 X14.5244 Y34.3065 
G01 X14.5243 Y34.3065 
G01 X14.4614 Y34.2436 
G01 X14.4168 Y34.1665 
G01 X14.3938 Y34.0805 
G01 X14.3938 Y26.7146 
G01 X14.3938 Y26.7145 
G01 X14.3938 Y26.6254 
G01 X14.4168 Y26.5394 
G01 X14.4614 Y26.4623 
G01 X16.3426 Y24.5811 
G01 X16.3467 Y24.5658 
G01 X16.4146 Y24.4481 
G01 X16.5106 Y24.3521 
G01 X16.6283 Y24.2842 
G01 X16.7595 Y24.2490 
G01 X18.2924 Y24.2490 
G01 X18.4236 Y24.2842 
G01 X18.5413 Y24.3521 
G01 X18.6159 Y24.4268 
G01 X18.8784 Y24.4268 
G01 X18.9675 Y24.4268 
G01 X19.0535 Y24.4498 
G01 X19.1306 Y24.4944 
G01 X20.5276 Y25.8914 
G01 X20.5905 Y25.9543 
G01 X20.6351 Y26.0314 
G01 X20.6581 Y26.1174 
G01 X20.6581 Y34.4039 
G01 X23.7620 Y37.5078 
G01 X41.7699 Y37.5078 
G01 X45.3818 Y33.8959 
G01 X45.3818 Y21.7300 
G01 X40.9883 Y17.3364 
G01 X40.9016 Y17.3724 
G01 X40.7283 Y17.4069 
G01 X40.5516 Y17.4069 
G01 X40.3783 Y17.3724 
G01 X40.2151 Y17.3048 
G01 X40.0682 Y17.2067 
G01 X39.9432 Y17.0817 
G01 X39.8451 Y16.9348 
G01 X39.7775 Y16.7716 
G01 X39.7430 Y16.5983 
G01 X39.7430 Y16.4216 
G01 X39.7775 Y16.2483 
G01 X39.8451 Y16.0851 
G01 X39.9432 Y15.9382 
G01 X40.0682 Y15.8132 
G01 X40.2151 Y15.7151 
G01 X40.3783 Y15.6475 
G01 X40.5516 Y15.6130 
G01 X40.7283 Y15.6130 
G01 X40.9016 Y15.6475 
G01 X41.0648 Y15.7151 
G01 X41.2117 Y15.8132 
G01 X41.3367 Y15.9382 
G01 X41.4348 Y16.0851 
G01 X41.5024 Y16.2483 
G01 X41.5369 Y16.4216 
G00 Z1.0000 
G00 X41.5369 Y11.3416 
G01 Z-0.1000 F150.00 
G01 X41.5369 Y11.5183 
G01 X41.5024 Y11.6916 
G01 X41.4664 Y11.7783 
G01 X47.5145 Y17.8263 
G01 X47.5591 Y17.9034 
G01 X47.5821 Y17.9894 
G01 X47.5821 Y18.0785 
G01 X47.5821 Y34.5885 
G01 X47.5591 Y34.6745 
G01 X47.5145 Y34.7516 
G01 X47.4516 Y34.8145 
G01 X42.6256 Y39.6405 
G01 X42.5485 Y39.6851 
G01 X42.4625 Y39.7081 
G01 X42.3734 Y39.7081 
G01 X37.3922 Y39.7081 
G01 X41.3991 Y43.7150 
G01 X41.9668 Y43.7150 
G01 X42.0164 Y43.7355 
G01 X42.0544 Y43.7735 
G01 X42.0749 Y43.8231 
G01 X42.0749 Y45.0768 
G01 X42.0544 Y45.1264 
G01 X42.0164 Y45.1644 
G01 X41.9668 Y45.1849 
G01 X41.1131 Y45.1849 
G01 X41.0635 Y45.1644 
G01 X41.0255 Y45.1264 
G01 X41.0050 Y45.0768 
G01 X41.0050 Y44.2771 
G01 X36.4359 Y39.7081 
G01 X22.5614 Y39.7081 
G01 X22.4754 Y39.6851 
G01 X22.3983 Y39.6405 
G01 X22.3354 Y39.5776 
G01 X22.3354 Y39.5775 
G01 X17.2554 Y34.4976 
G01 X17.2108 Y34.4205 
G01 X17.1878 Y34.3345 
G01 X17.1878 Y34.2454 
G01 X17.1878 Y27.8209 
G01 X16.7595 Y27.8209 
G01 X16.6283 Y27.7857 
G01 X16.5106 Y27.7178 
G01 X16.4146 Y27.6218 
G01 X16.3467 Y27.5041 
G01 X16.3115 Y27.3729 
G01 X16.3115 Y27.2370 
G01 X16.3467 Y27.1058 
G01 X16.4146 Y26.9881 
G01 X16.5106 Y26.8921 
G01 X16.6283 Y26.8242 
G01 X16.7595 Y26.7890 
G01 X18.2924 Y26.7890 
G01 X18.4236 Y26.8242 
G01 X18.5413 Y26.8921 
G01 X18.6373 Y26.9881 
G01 X18.7052 Y27.1058 
G01 X18.7404 Y27.2370 
G01 X18.7404 Y27.3729 
G01 X18.7052 Y27.5041 
G01 X18.6373 Y27.6218 
G01 X18.5413 Y27.7178 
G01 X18.4236 Y27.7857 
G01 X18.2924 Y27.8209 
G01 X17.8641 Y27.8209 
G01 X17.8641 Y34.1499 
G01 X22.7459 Y39.0318 
G01 X36.5314 Y39.0318 
G01 X36.6205 Y39.0318 
G01 X42.2779 Y39.0318 
G01 X46.9058 Y34.4039 
G01 X46.9058 Y18.1740 
G01 X40.9883 Y12.2564 
G01 X40.9016 Y12.2924 
G01 X40.7283 Y12.3269 
G01 X40.5516 Y12.3269 
G01 X40.3783 Y12.2924 
G01 X40.2151 Y12.2248 
G01 X40.0682 Y12.1267 
G01 X39.9432 Y12.0017 
G01 X39.8451 Y11.8548 
G01 X39.7775 Y11.6916 
G01 X39.7430 Y11.5183 
G01 X39.7430 Y11.3416 
G01 X39.7775 Y11.1683 
G01 X39.8451 Y11.0051 
G01 X39.9432 Y10.8582 
G01 X40.0682 Y10.7332 
G01 X40.2151 Y10.6351 
G01 X40.3783 Y10.5675 
G01 X40.5516 Y10.5330 
G01 X40.7283 Y10.5330 
G01 X40.9016 Y10.5675 
G01 X41.0648 Y10.6351 
G01 X41.2117 Y10.7332 
G01 X41.3367 Y10.8582 
G01 X41.4348 Y11.0051 
G01 X41.5024 Y11.1683 
G01 X41.5369 Y11.3416 
G00 Z1.0000 
G00 X29.0874 Y26.5509 
G01 Z-0.1000 F150.00 
G01 X27.5545 Y26.5509 
G01 X27.4233 Y26.5157 
G01 X27.3056 Y26.4478 
G01 X27.2096 Y26.3518 
G01 X27.1417 Y26.2341 
G01 X27.1065 Y26.1029 
G01 X27.1065 Y26.0607 
G01 X21.0654 Y20.0196 
G01 X21.0208 Y19.9425 
G01 X20.9978 Y19.8565 
G01 X20.9978 Y19.7674 
G01 X20.9978 Y12.5860 
G01 X20.4339 Y12.0221 
G01 X16.7194 Y12.0221 
G01 X16.6334 Y11.9991 
G01 X16.5563 Y11.9545 
G01 X16.4934 Y11.8916 
G01 X12.9567 Y8.3549 
G01 X12.6431 Y8.3549 
G01 X12.5935 Y8.3344 
G01 X12.5555 Y8.2964 
G01 X12.5350 Y8.2468 
G01 X12.5350 Y6.9931 
G01 X12.5555 Y6.9435 
G01 X12.5935 Y6.9055 
G01 X12.6431 Y6.8850 
G01 X13.4968 Y6.8850 
G01 X13.5464 Y6.9055 
G01 X13.5844 Y6.9435 
G01 X13.6049 Y6.9931 
G01 X13.6049 Y8.0467 
G01 X16.9040 Y11.3458 
G01 X20.5294 Y11.3458 
G01 X20.6185 Y11.3458 
G01 X20.7045 Y11.3688 
G01 X20.7816 Y11.4134 
G01 X21.5436 Y12.1754 
G01 X21.6065 Y12.2383 
G01 X21.6511 Y12.3154 
G01 X21.6741 Y12.4014 
G01 X21.6741 Y19.6719 
G01 X27.5282 Y25.5261 
G01 X27.5545 Y25.5190 
G01 X29.0874 Y25.5190 
G01 X29.2186 Y25.5542 
G01 X29.3363 Y25.6221 
G01 X29.4109 Y25.6968 
G01 X29.8004 Y25.6968 
G01 X29.8895 Y25.6968 
G01 X29.9755 Y25.7198 
G01 X30.0526 Y25.7644 
G01 X33.1600 Y28.8718 
G01 X37.2692 Y28.8718 
G01 X37.3051 Y28.7851 
G01 X37.4032 Y28.6382 
G01 X37.5282 Y28.5132 
G01 X37.6751 Y28.4151 
G01 X37.8383 Y28.3475 
G01 X38.0116 Y28.3130 
G01 X38.1883 Y28.3130 
G01 X38.3616 Y28.3475 
G01 X38.5248 Y28.4151 
G01 X38.6717 Y28.5132 
G01 X38.7967 Y28.6382 
G01 X38.8948 Y28.7851 
G01 X38.9624 Y28.9483 
G01 X38.9969 Y29.1216 
G01 X38.9969 Y29.2983 
G01 X38.9624 Y29.4716 
G01 X38.8948 Y29.6348 
G01 X38.7967 Y29.7817 
G01 X38.6717 Y29.9067 
G01 X38.5248 Y30.0048 
G01 X38.3616 Y30.0724 
G01 X38.1883 Y30.1069 
G01 X38.0116 Y30.1069 
G01 X37.8383 Y30.0724 
G01 X37.6751 Y30.0048 
G01 X37.5282 Y29.9067 
G01 X37.4032 Y29.7817 
G01 X37.3051 Y29.6348 
G01 X37.2692 Y29.5481 
G01 X32.9754 Y29.5481 
G01 X32.8894 Y29.5251 
G01 X32.8123 Y29.4805 
G01 X32.7494 Y29.4176 
G01 X29.7049 Y26.3731 
G01 X29.4109 Y26.3731 
G01 X29.3363 Y26.4478 
G01 X29.2186 Y26.5157 
G01 X29.0874 Y26.5509 
G00 Z1.0000 
G00 X29.0874 Y27.8209 
G01 Z-0.1000 F150.00 
G01 X28.7861 Y27.8209 
G01 X28.7861 Y29.2545 
G01 X28.7631 Y29.3405 
G01 X28.7185 Y29.4176 
G01 X28.6556 Y29.4805 
G01 X28.5709 Y29.5652 
G01 X28.5709 Y30.7488 
G01 X28.5504 Y30.7984 
G01 X28.5124 Y30.8364 
G01 X28.4628 Y30.8569 
G01 X26.9091 Y30.8569 
G01 X26.8595 Y30.8364 
G01 X26.8215 Y30.7984 
G01 X26.8010 Y30.7488 
G01 X26.8010 Y29.1951 
G01 X26.8215 Y29.1455 
G01 X26.8595 Y29.1075 
G01 X26.9091 Y29.0870 
G01 X28.0927 Y29.0870 
G01 X28.1098 Y29.0699 
G01 X28.1098 Y27.8209 
G01 X27.5545 Y27.8209 
G01 X27.4233 Y27.7857 
G01 X27.3056 Y27.7178 
G01 X27.2096 Y27.6218 
G01 X27.1417 Y27.5041 
G01 X27.1065 Y27.3729 
G01 X27.1065 Y27.2370 
G01 X27.1417 Y27.1058 
G01 X27.2096 Y26.9881 
G01 X27.3056 Y26.8921 
G01 X27.4233 Y26.8242 
G01 X27.5545 Y26.7890 
G01 X29.0874 Y26.7890 
G01 X29.2186 Y26.8242 
G01 X29.3363 Y26.8921 
G01 X29.4323 Y26.9881 
G01 X29.5002 Y27.1058 
G01 X29.5354 Y27.2370 
G01 X29.5354 Y27.3729 
G01 X29.5002 Y27.5041 
G01 X29.4323 Y27.6218 
G01 X29.3363 Y27.7178 
G01 X29.2186 Y27.7857 
G01 X29.0874 Y27.8209 
G00 Z1.0000 
G00 X18.2924 Y26.5509 
G01 Z-0.1000 F150.00 
G01 X16.7595 Y26.5509 
G01 X16.6331 Y26.5169 
G01 X15.8321 Y27.3180 
G01 X15.8321 Y33.3879 
G01 X22.2380 Y39.7938 
G01 X33.5725 Y39.7938 
G01 X33.6585 Y39.8168 
G01 X33.7356 Y39.8614 
G01 X33.7985 Y39.9243 
G01 X37.5891 Y43.7150 
G01 X38.1568 Y43.7150 
G01 X38.2064 Y43.7355 
G01 X38.2444 Y43.7735 
G01 X38.2649 Y43.8231 
G01 X38.2649 Y45.0768 
G01 X38.2444 Y45.1264 
G01 X38.2064 Y45.1644 
G01 X38.1568 Y45.1849 
G01 X37.3031 Y45.1849 
G01 X37.2535 Y45.1644 
G01 X37.2155 Y45.1264 
G01 X37.1950 Y45.0768 
G01 X37.1950 Y44.2771 
G01 X33.3879 Y40.4701 
G01 X22.1425 Y40.4701 
G01 X22.0534 Y40.4701 
G01 X21.9674 Y40.4471 
G01 X21.8903 Y40.4025 
G01 X15.2863 Y33.7985 
G01 X15.2234 Y33.7356 
G01 X15.1788 Y33.6585 
G01 X15.1558 Y33.5725 
G01 X15.1558 Y27.2225 
G01 X15.1558 Y27.1334 
G01 X15.1788 Y27.0474 
G01 X15.2234 Y26.9703 
G01 X16.2394 Y25.9543 
G01 X16.3023 Y25.8914 
G01 X16.3372 Y25.8712 
G01 X16.3467 Y25.8358 
G01 X16.4146 Y25.7181 
G01 X16.5106 Y25.6221 
G01 X16.6283 Y25.5542 
G01 X16.7595 Y25.5190 
G01 X18.2924 Y25.5190 
G01 X18.4236 Y25.5542 
G01 X18.5413 Y25.6221 
G01 X18.6160 Y25.6968 
G01 X18.6244 Y25.6968 
G01 X18.7135 Y25.6968 
G01 X18.7995 Y25.7198 
G01 X18.8766 Y25.7644 
G01 X19.7656 Y26.6534 
G01 X19.8285 Y26.7163 
G01 X19.8731 Y26.7934 
G01 X19.8961 Y26.8794 
G01 X19.8961 Y34.9119 
G01 X23.2540 Y38.2698 
G01 X42.0239 Y38.2698 
G01 X46.1438 Y34.1499 
G01 X46.1438 Y19.9520 
G01 X40.9883 Y14.7964 
G01 X40.9016 Y14.8324 
G01 X40.7283 Y14.8669 
G01 X40.5516 Y14.8669 
G01 X40.3783 Y14.8324 
G01 X40.2151 Y14.7648 
G01 X40.0682 Y14.6667 
G01 X39.9432 Y14.5417 
G01 X39.8451 Y14.3948 
G01 X39.7775 Y14.2316 
G01 X39.7430 Y14.0583 
G01 X39.7430 Y13.8816 
G01 X39.7775 Y13.7083 
G01 X39.8451 Y13.5451 
G01 X39.9432 Y13.3982 
G01 X40.0682 Y13.2732 
G01 X40.2151 Y13.1751 
G01 X40.3783 Y13.1075 
G01 X40.5516 Y13.0730 
G01 X40.7283 Y13.0730 
G01 X40.9016 Y13.1075 
G01 X41.0648 Y13.1751 
G01 X41.2117 Y13.2732 
G01 X41.3367 Y13.3982 
G01 X41.4348 Y13.5451 
G01 X41.5024 Y13.7083 
G01 X41.5369 Y13.8816 
G01 X41.5369 Y14.0583 
G01 X41.5024 Y14.2316 
G01 X41.4664 Y14.3183 
G01 X46.7525 Y19.6043 
G01 X46.7971 Y19.6814 
G01 X46.8201 Y19.7674 
G01 X46.8201 Y19.8565 
G01 X46.8201 Y34.3345 
G01 X46.7971 Y34.4205 
G01 X46.7525 Y34.4976 
G01 X46.6896 Y34.5605 
G01 X42.3716 Y38.8785 
G01 X42.2945 Y38.9231 
G01 X42.2085 Y38.9461 
G01 X42.1194 Y38.9461 
G01 X23.0694 Y38.9461 
G01 X22.9834 Y38.9231 
G01 X22.9063 Y38.8785 
G01 X22.8434 Y38.8156 
G01 X19.2874 Y35.2596 
G01 X19.2428 Y35.1825 
G01 X19.2198 Y35.0965 
G01 X19.2198 Y35.0074 
G01 X19.2198 Y27.0640 
G01 X18.5725 Y26.4166 
G01 X18.5413 Y26.4478 
G01 X18.4236 Y26.5157 
G01 X18.2924 Y26.5509 
G00 Z1.0000 
G00 X18.2924 Y24.0109 
G01 Z-0.1000 F150.00 
G01 X16.7595 Y24.0109 
G01 X16.6283 Y23.9757 
G01 X16.5106 Y23.9078 
G01 X16.4359 Y23.8331 
G01 X16.0150 Y23.8331 
G01 X14.3081 Y25.5400 
G01 X14.3081 Y34.4039 
G01 X21.2220 Y41.3178 
G01 X27.4765 Y41.3178 
G01 X27.5625 Y41.3408 
G01 X27.6396 Y41.3854 
G01 X27.7025 Y41.4483 
G01 X29.9691 Y43.7150 
G01 X30.5368 Y43.7150 
G01 X30.5864 Y43.7355 
G01 X30.6244 Y43.7735 
G01 X30.6449 Y43.8231 
G01 X30.6449 Y45.0768 
G01 X30.6244 Y45.1264 
G01 X30.5864 Y45.1644 
G01 X30.5368 Y45.1849 
G01 X29.6831 Y45.1849 
G01 X29.6335 Y45.1644 
G01 X29.5955 Y45.1264 
G01 X29.5750 Y45.0768 
G01 X29.5750 Y44.2771 
G01 X27.2919 Y41.9941 
G01 X21.1265 Y41.9941 
G01 X21.0374 Y41.9941 
G01 X20.9514 Y41.9711 
G01 X20.8743 Y41.9265 
G01 X13.7623 Y34.8145 
G01 X13.6994 Y34.7516 
G01 X13.6548 Y34.6745 
G01 X13.6318 Y34.5885 
G01 X13.6318 Y25.3554 
G01 X13.6548 Y25.2694 
G01 X13.6994 Y25.1923 
G01 X13.7623 Y25.1294 
G01 X13.7624 Y25.1294 
G01 X15.6673 Y23.2244 
G01 X15.7444 Y23.1798 
G01 X15.8304 Y23.1568 
G01 X15.9195 Y23.1568 
G01 X16.4359 Y23.1568 
G01 X16.5106 Y23.0821 
G01 X16.6283 Y23.0142 
G01 X16.7595 Y22.9790 
G01 X18.2924 Y22.9790 
G01 X18.4236 Y23.0142 
G01 X18.5413 Y23.0821 
G01 X18.6160 Y23.1568 
G01 X18.8784 Y23.1568 
G01 X18.9675 Y23.1568 
G01 X19.0535 Y23.1798 
G01 X19.1306 Y23.2244 
G01 X21.2896 Y25.3834 
G01 X21.3525 Y25.4463 
G01 X21.3971 Y25.5234 
G01 X21.4201 Y25.6094 
G01 X21.4201 Y33.8959 
G01 X24.2700 Y36.7458 
G01 X41.5159 Y36.7458 
G01 X44.6198 Y33.6419 
G01 X44.6198 Y23.5080 
G01 X40.9883 Y19.8764 
G01 X40.9016 Y19.9124 
G01 X40.7283 Y19.9469 
G01 X40.5516 Y19.9469 
G01 X40.3783 Y19.9124 
G01 X40.2151 Y19.8448 
G01 X40.0682 Y19.7467 
G01 X39.9432 Y19.6217 
G01 X39.8451 Y19.4748 
G01 X39.7775 Y19.3116 
G01 X39.7430 Y19.1383 
G01 X39.7430 Y18.9616 
G01 X39.7775 Y18.7883 
G01 X39.8451 Y18.6251 
G01 X39.9432 Y18.4782 
G01 X40.0682 Y18.3532 
G01 X40.2151 Y18.2551 
G01 X40.3783 Y18.1875 
G01 X40.5516 Y18.1530 
G01 X40.7283 Y18.1530 
G01 X40.9016 Y18.1875 
G01 X41.0648 Y18.2551 
G01 X41.2117 Y18.3532 
G01 X41.3367 Y18.4782 
G01 X41.4348 Y18.6251 
G01 X41.5024 Y18.7883 
G01 X41.5369 Y18.9616 
G01 X41.5369 Y19.1383 
G01 X41.5024 Y19.3116 
G01 X41.4664 Y19.3983 
G01 X45.2285 Y23.1603 
G01 X45.2731 Y23.2374 
G01 X45.2961 Y23.3234 
G01 X45.2961 Y23.4125 
G01 X45.2961 Y33.8265 
G01 X45.2731 Y33.9125 
G01 X45.2285 Y33.9896 
G01 X45.1656 Y34.0525 
G01 X41.8636 Y37.3545 
G01 X41.7865 Y37.3991 
G01 X41.7005 Y37.4221 
G01 X41.6114 Y37.4221 
G01 X24.0854 Y37.4221 
G01 X23.9994 Y37.3991 
G01 X23.9223 Y37.3545 
G01 X23.8594 Y37.2916 
G01 X20.8114 Y34.2436 
G01 X20.7668 Y34.1665 
G01 X20.7438 Y34.0805 
G01 X20.7438 Y33.9914 
G01 X20.7438 Y25.7940 
G01 X18.7829 Y23.8331 
G01 X18.6160 Y23.8331 
G01 X18.5413 Y23.9078 
G01 X18.4236 Y23.9757 
G01 X18.2924 Y24.0109 
G00 Z1.0000 
G00 X18.2924 Y22.7409 
G01 Z-0.1000 F150.00 
G01 X16.7595 Y22.7409 
G01 X16.6283 Y22.7057 
G01 X16.5106 Y22.6378 
G01 X16.4360 Y22.5631 
G01 X15.7610 Y22.5631 
G01 X13.5461 Y24.7780 
G01 X13.5461 Y34.9119 
G01 X20.7140 Y42.0798 
G01 X24.4285 Y42.0798 
G01 X24.5145 Y42.1028 
G01 X24.5916 Y42.1474 
G01 X24.6545 Y42.2103 
G01 X26.1592 Y43.7150 
G01 X26.7268 Y43.7150 
G01 X26.7764 Y43.7355 
G01 X26.8144 Y43.7735 
G01 X26.8349 Y43.8231 
G01 X26.8349 Y45.0768 
G01 X26.8144 Y45.1264 
G01 X26.7764 Y45.1644 
G01 X26.7268 Y45.1849 
G01 X25.8731 Y45.1849 
G01 X25.8235 Y45.1644 
G01 X25.7855 Y45.1264 
G01 X25.7650 Y45.0768 
G01 X25.7650 Y44.2772 
G01 X24.2439 Y42.7561 
G01 X20.6185 Y42.7561 
G01 X20.5294 Y42.7561 
G01 X20.4434 Y42.7331 
G01 X20.3663 Y42.6885 
G01 X13.0003 Y35.3225 
G01 X12.9374 Y35.2596 
G01 X12.8928 Y35.1825 
G01 X12.8698 Y35.0965 
G01 X12.8698 Y24.5934 
G01 X12.8928 Y24.5074 
G01 X12.9374 Y24.4303 
G01 X13.0003 Y24.3674 
G01 X15.4133 Y21.9544 
G01 X15.4904 Y21.9098 
G01 X15.5764 Y21.8868 
G01 X15.6655 Y21.8868 
G01 X16.4360 Y21.8868 
G01 X16.5106 Y21.8121 
G01 X16.6283 Y21.7442 
G01 X16.7595 Y21.7090 
G01 X18.2924 Y21.7090 
G01 X18.4236 Y21.7442 
G01 X18.5413 Y21.8121 
G01 X18.6159 Y21.8868 
G01 X18.8784 Y21.8868 
G01 X18.9675 Y21.8868 
G01 X19.0535 Y21.9098 
G01 X19.1306 Y21.9544 
G01 X22.0516 Y24.8754 
G01 X22.1145 Y24.9383 
G01 X22.1591 Y25.0154 
G01 X22.1821 Y25.1014 
G01 X22.1821 Y33.3879 
G01 X24.7780 Y35.9838 
G01 X41.2619 Y35.9838 
G01 X43.8578 Y33.3879 
G01 X43.8578 Y25.2860 
G01 X40.9883 Y22.4164 
G01 X40.9016 Y22.4524 
G01 X40.7283 Y22.4869 
G01 X40.5516 Y22.4869 
G01 X40.3783 Y22.4524 
G01 X40.2151 Y22.3848 
G01 X40.0682 Y22.2867 
G01 X39.9432 Y22.1617 
G01 X39.8451 Y22.0148 
G01 X39.7775 Y21.8516 
G01 X39.7430 Y21.6783 
G01 X39.7430 Y21.5016 
G01 X39.7775 Y21.3283 
G01 X39.8451 Y21.1651 
G01 X39.9432 Y21.0182 
G01 X40.0682 Y20.8932 
G01 X40.2151 Y20.7951 
G01 X40.3783 Y20.7275 
G01 X40.5516 Y20.6930 
G01 X40.7283 Y20.6930 
G01 X40.9016 Y20.7275 
G01 X41.0648 Y20.7951 
G01 X41.2117 Y20.8932 
G01 X41.3367 Y21.0182 
G01 X41.4348 Y21.1651 
G01 X41.5024 Y21.3283 
G01 X41.5369 Y21.5016 
G01 X41.5369 Y21.6783 
G01 X41.5024 Y21.8516 
G01 X41.4664 Y21.9383 
G01 X44.4665 Y24.9383 
G01 X44.5111 Y25.0154 
G01 X44.5341 Y25.1014 
G01 X44.5341 Y25.1905 
G01 X44.5341 Y33.5725 
G01 X44.5111 Y33.6585 
G01 X44.4665 Y33.7356 
G01 X44.4036 Y33.7985 
G01 X41.6096 Y36.5925 
G01 X41.5325 Y36.6371 
G01 X41.4465 Y36.6601 
G01 X41.3574 Y36.6601 
G01 X24.5934 Y36.6601 
G01 X24.5074 Y36.6371 
G01 X24.4303 Y36.5925 
G01 X24.3674 Y36.5296 
G01 X21.5734 Y33.7356 
G01 X21.5288 Y33.6585 
G01 X21.5058 Y33.5725 
G01 X21.5058 Y33.4834 
G01 X21.5058 Y25.2860 
G01 X18.7829 Y22.5631 
G01 X18.6159 Y22.5631 
G01 X18.5413 Y22.6378 
G01 X18.4236 Y22.7057 
G01 X18.2924 Y22.7409 
G00 Z1.0000 
G00 X18.2924 Y21.4709 
G01 Z-0.1000 F150.00 
G01 X16.7595 Y21.4709 
G01 X16.6283 Y21.4357 
G01 X16.5106 Y21.3678 
G01 X16.4359 Y21.2931 
G01 X15.7610 Y21.2931 
G01 X12.7841 Y24.2699 
G01 X12.7841 Y35.4199 
G01 X20.2060 Y42.8418 
G01 X21.3805 Y42.8418 
G01 X21.4665 Y42.8648 
G01 X21.5436 Y42.9094 
G01 X21.6065 Y42.9723 
G01 X22.3491 Y43.7150 
G01 X22.9168 Y43.7150 
G01 X22.9664 Y43.7355 
G01 X23.0044 Y43.7735 
G01 X23.0249 Y43.8231 
G01 X23.0249 Y45.0768 
G01 X23.0044 Y45.1264 
G01 X22.9664 Y45.1644 
G01 X22.9168 Y45.1849 
G01 X22.0631 Y45.1849 
G01 X22.0135 Y45.1644 
G01 X21.9755 Y45.1264 
G01 X21.9550 Y45.0768 
G01 X21.9550 Y44.2771 
G01 X21.1959 Y43.5181 
G01 X20.1105 Y43.5181 
G01 X20.0214 Y43.5181 
G01 X19.9354 Y43.4951 
G01 X19.8583 Y43.4505 
G01 X12.2383 Y35.8305 
G01 X12.1754 Y35.7676 
G01 X12.1308 Y35.6905 
G01 X12.1078 Y35.6045 
G01 X12.1078 Y24.0854 
G01 X12.1308 Y23.9994 
G01 X12.1754 Y23.9223 
G01 X12.2383 Y23.8594 
G01 X12.2384 Y23.8594 
G01 X15.4133 Y20.6844 
G01 X15.4904 Y20.6398 
G01 X15.5764 Y20.6168 
G01 X15.6655 Y20.6168 
G01 X16.4359 Y20.6168 
G01 X16.5106 Y20.5421 
G01 X16.6283 Y20.4742 
G01 X16.7595 Y20.4390 
G01 X18.2924 Y20.4390 
G01 X18.4236 Y20.4742 
G01 X18.5413 Y20.5421 
G01 X18.6160 Y20.6168 
G01 X18.8784 Y20.6168 
G01 X18.9675 Y20.6168 
G01 X19.0535 Y20.6398 
G01 X19.1306 Y20.6844 
G01 X22.8765 Y24.4303 
G01 X22.9211 Y24.5074 
G01 X22.9441 Y24.5934 
G01 X22.9441 Y24.6825 
G01 X22.9441 Y32.8799 
G01 X25.2860 Y35.2218 
G01 X41.0080 Y35.2218 
G01 X43.0958 Y33.1339 
G01 X43.0958 Y27.0640 
G01 X40.9883 Y24.9565 
G01 X40.9016 Y24.9924 
G01 X40.7283 Y25.0269 
G01 X40.5516 Y25.0269 
G01 X40.3783 Y24.9924 
G01 X40.2151 Y24.9248 
G01 X40.0682 Y24.8267 
G01 X39.9432 Y24.7017 
G01 X39.8451 Y24.5548 
G01 X39.7775 Y24.3916 
G01 X39.7430 Y24.2183 
G01 X39.7430 Y24.0416 
G01 X39.7775 Y23.8683 
G01 X39.8451 Y23.7051 
G01 X39.9432 Y23.5582 
G01 X40.0682 Y23.4332 
G01 X40.2151 Y23.3351 
G01 X40.3783 Y23.2675 
G01 X40.5516 Y23.2330 
G01 X40.7283 Y23.2330 
G01 X40.9016 Y23.2675 
G01 X41.0648 Y23.3351 
G01 X41.2117 Y23.4332 
G01 X41.3367 Y23.5582 
G01 X41.4348 Y23.7051 
G01 X41.5024 Y23.8683 
G01 X41.5369 Y24.0416 
G01 X41.5369 Y24.2183 
G01 X41.5024 Y24.3916 
G01 X41.4665 Y24.4783 
G01 X43.7045 Y26.7163 
G01 X43.7491 Y26.7934 
G01 X43.7721 Y26.8794 
G01 X43.7721 Y26.9685 
G01 X43.7721 Y26.9686 
G01 X43.7721 Y33.2294 
G01 X43.7721 Y33.3185 
G01 X43.7491 Y33.4045 
G01 X43.7045 Y33.4816 
G01 X41.4185 Y35.7675 
G01 X41.4185 Y35.7676 
G01 X41.3556 Y35.8305 
G01 X41.2785 Y35.8751 
G01 X41.1925 Y35.8981 
G01 X25.1905 Y35.8981 
G01 X25.1014 Y35.8981 
G01 X25.0154 Y35.8751 
G01 X24.9383 Y35.8305 
G01 X22.3984 Y33.2905 
G01 X22.3983 Y33.2905 
G01 X22.3354 Y33.2276 
G01 X22.2908 Y33.1505 
G01 X22.2678 Y33.0645 
G01 X22.2678 Y24.7780 
G01 X18.7829 Y21.2931 
G01 X18.6160 Y21.2931 
G01 X18.5413 Y21.3678 
G01 X18.4236 Y21.4357 
G01 X18.2924 Y21.4709 
G00 Z1.0000 
G00 X29.0874 Y22.7409 
G01 Z-0.1000 F150.00 
G01 X27.5545 Y22.7409 
G01 X27.4233 Y22.7057 
G01 X27.3056 Y22.6378 
G01 X27.2202 Y22.5523 
G01 X27.1744 Y22.5401 
G01 X27.0973 Y22.4955 
G01 X23.3514 Y18.7496 
G01 X23.3068 Y18.6725 
G01 X23.2838 Y18.5865 
G01 X23.2838 Y18.4974 
G01 X23.2838 Y10.6680 
G01 X23.2833 Y10.6276 
G01 X23.2838 Y10.6257 
G01 X23.2838 Y10.6234 
G01 X23.2961 Y10.5778 
G01 X23.3053 Y10.5413 
G01 X23.3062 Y10.5398 
G01 X23.3068 Y10.5374 
G01 X23.3291 Y10.4990 
G01 X23.3488 Y10.4637 
G01 X23.3504 Y10.4622 
G01 X23.3514 Y10.4603 
G01 X23.3808 Y10.4310 
G01 X24.1618 Y9.6303 
G01 X24.1618 Y8.3549 
G01 X24.0731 Y8.3549 
G01 X24.0235 Y8.3344 
G01 X23.9855 Y8.2964 
G01 X23.9650 Y8.2468 
G01 X23.9650 Y6.9931 
G01 X23.9855 Y6.9435 
G01 X24.0235 Y6.9055 
G01 X24.0731 Y6.8850 
G01 X24.9268 Y6.8850 
G01 X24.9764 Y6.9055 
G01 X25.0144 Y6.9435 
G01 X25.0349 Y6.9931 
G01 X25.0349 Y8.2468 
G01 X25.0144 Y8.2964 
G01 X24.9764 Y8.3344 
G01 X24.9268 Y8.3549 
G01 X24.8381 Y8.3549 
G01 X24.8381 Y9.7677 
G01 X24.8386 Y9.8083 
G01 X24.8381 Y9.8102 
G01 X24.8381 Y9.8125 
G01 X24.8259 Y9.8580 
G01 X24.8166 Y9.8946 
G01 X24.8157 Y9.8961 
G01 X24.8151 Y9.8985 
G01 X24.7929 Y9.9367 
G01 X24.7731 Y9.9722 
G01 X24.7715 Y9.9738 
G01 X24.7705 Y9.9756 
G01 X24.7412 Y10.0048 
G01 X23.9601 Y10.8056 
G01 X23.9601 Y18.4019 
G01 X27.3466 Y21.7885 
G01 X27.4233 Y21.7442 
G01 X27.5545 Y21.7090 
G01 X29.0874 Y21.7090 
G01 X29.2186 Y21.7442 
G01 X29.3363 Y21.8121 
G01 X29.4110 Y21.8868 
G01 X37.2522 Y21.8868 
G01 X37.2375 Y21.8516 
G01 X37.2030 Y21.6783 
G01 X37.2030 Y21.5016 
G01 X37.2375 Y21.3283 
G01 X37.3051 Y21.1651 
G01 X37.4032 Y21.0182 
G01 X37.5282 Y20.8932 
G01 X37.6751 Y20.7951 
G01 X37.8383 Y20.7275 
G01 X38.0116 Y20.6930 
G01 X38.1883 Y20.6930 
G01 X38.3616 Y20.7275 
G01 X38.5248 Y20.7951 
G01 X38.6717 Y20.8932 
G01 X38.7967 Y21.0182 
G01 X38.8948 Y21.1651 
G01 X38.9624 Y21.3283 
G01 X38.9969 Y21.5016 
G01 X38.9969 Y21.6783 
G01 X38.9624 Y21.8516 
G01 X38.8948 Y22.0148 
G01 X38.7967 Y22.1617 
G01 X38.6717 Y22.2867 
G01 X38.5248 Y22.3848 
G01 X38.3616 Y22.4524 
G01 X38.1883 Y22.4869 
G01 X38.0116 Y22.4869 
G01 X37.8383 Y22.4524 
G01 X37.7516 Y22.4164 
G01 X37.6726 Y22.4955 
G01 X37.5955 Y22.5401 
G01 X37.5095 Y22.5631 
G01 X37.4204 Y22.5631 
G01 X29.4110 Y22.5631 
G01 X29.3363 Y22.6378 
G01 X29.2186 Y22.7057 
G01 X29.0874 Y22.7409 
G00 Z1.0000 
G00 X29.0874 Y18.9309 
G01 Z-0.1000 F150.00 
G01 X27.5545 Y18.9309 
G01 X27.4233 Y18.8957 
G01 X27.3056 Y18.8278 
G01 X27.2310 Y18.7531 
G01 X27.0955 Y18.7531 
G01 X27.0064 Y18.7531 
G01 X26.9204 Y18.7301 
G01 X26.8433 Y18.6855 
G01 X25.7003 Y17.5425 
G01 X25.6374 Y17.4796 
G01 X25.5928 Y17.4025 
G01 X25.5698 Y17.3165 
G01 X25.5698 Y12.9985 
G01 X25.5698 Y12.9094 
G01 X25.5928 Y12.8234 
G01 X25.6374 Y12.7463 
G01 X27.6694 Y10.7143 
G01 X27.7323 Y10.6514 
G01 X27.8094 Y10.6068 
G01 X27.8954 Y10.5838 
G01 X32.4879 Y10.5838 
G01 X35.3950 Y7.6767 
G01 X35.3950 Y6.9931 
G01 X35.4155 Y6.9435 
G01 X35.4535 Y6.9055 
G01 X35.5031 Y6.8850 
G01 X36.3568 Y6.8850 
G01 X36.4064 Y6.9055 
G01 X36.4444 Y6.9435 
G01 X36.4649 Y6.9931 
G01 X36.4649 Y8.2468 
G01 X36.4444 Y8.2964 
G01 X36.4064 Y8.3344 
G01 X36.3568 Y8.3549 
G01 X35.6732 Y8.3549 
G01 X32.8356 Y11.1925 
G01 X32.7585 Y11.2371 
G01 X32.6725 Y11.2601 
G01 X32.5834 Y11.2601 
G01 X28.0800 Y11.2601 
G01 X26.2461 Y13.0940 
G01 X26.2461 Y17.1319 
G01 X27.1910 Y18.0768 
G01 X27.2310 Y18.0768 
G01 X27.3056 Y18.0021 
G01 X27.4233 Y17.9342 
G01 X27.5545 Y17.8990 
G01 X29.0874 Y17.8990 
G01 X29.2186 Y17.9342 
G01 X29.3363 Y18.0021 
G01 X29.4109 Y18.0768 
G01 X31.2289 Y18.0768 
G01 X35.5434 Y13.7623 
G01 X35.6063 Y13.6994 
G01 X35.6834 Y13.6548 
G01 X35.7694 Y13.6318 
G01 X37.2692 Y13.6318 
G01 X37.3051 Y13.5451 
G01 X37.4032 Y13.3982 
G01 X37.5282 Y13.2732 
G01 X37.6751 Y13.1751 
G01 X37.8383 Y13.1075 
G01 X38.0116 Y13.0730 
G01 X38.1883 Y13.0730 
G01 X38.3616 Y13.1075 
G01 X38.5248 Y13.1751 
G01 X38.6717 Y13.2732 
G01 X38.7967 Y13.3982 
G01 X38.8948 Y13.5451 
G01 X38.9624 Y13.7083 
G01 X38.9969 Y13.8816 
G01 X38.9969 Y14.0583 
G01 X38.9624 Y14.2316 
G01 X38.8948 Y14.3948 
G01 X38.7967 Y14.5417 
G01 X38.6717 Y14.6667 
G01 X38.5248 Y14.7648 
G01 X38.3616 Y14.8324 
G01 X38.1883 Y14.8669 
G01 X38.0116 Y14.8669 
G01 X37.8383 Y14.8324 
G01 X37.6751 Y14.7648 
G01 X37.5282 Y14.6667 
G01 X37.4032 Y14.5417 
G01 X37.3051 Y14.3948 
G01 X37.2692 Y14.3081 
G01 X35.9540 Y14.3081 
G01 X31.5766 Y18.6855 
G01 X31.4995 Y18.7301 
G01 X31.4135 Y18.7531 
G01 X31.3244 Y18.7531 
G01 X29.4109 Y18.7531 
G01 X29.3363 Y18.8278 
G01 X29.2186 Y18.8957 
G01 X29.0874 Y18.9309 
G00 Z1.0000 
G00 X4.6949 Y29.1951 
G01 Z-0.1000 F150.00 
G01 X4.6949 Y30.7488 
G01 X4.6744 Y30.7984 
G01 X4.6364 Y30.8364 
G01 X4.5868 Y30.8569 
G01 X3.0331 Y30.8569 
G01 X2.9835 Y30.8364 
G01 X2.9455 Y30.7984 
G01 X2.9250 Y30.7488 
G01 X2.9250 Y29.1951 
G01 X2.9455 Y29.1455 
G01 X2.9835 Y29.1075 
G01 X3.0331 Y29.0870 
G01 X3.4718 Y29.0870 
G01 X3.4718 Y27.5007 
G01 X3.3851 Y27.4648 
G01 X3.2382 Y27.3667 
G01 X3.1132 Y27.2417 
G01 X3.0151 Y27.0948 
G01 X2.9475 Y26.9316 
G01 X2.9130 Y26.7583 
G01 X2.9130 Y26.5816 
G01 X2.9475 Y26.4083 
G01 X3.0151 Y26.2451 
G01 X3.1132 Y26.0982 
G01 X3.2382 Y25.9732 
G01 X3.3851 Y25.8751 
G01 X3.5483 Y25.8075 
G01 X3.7216 Y25.7730 
G01 X3.8983 Y25.7730 
G01 X4.0716 Y25.8075 
G01 X4.2348 Y25.8751 
G01 X4.3817 Y25.9732 
G01 X4.5067 Y26.0982 
G01 X4.6048 Y26.2451 
G01 X4.6724 Y26.4083 
G01 X4.7069 Y26.5816 
G01 X4.7069 Y26.7583 
G01 X4.6724 Y26.9316 
G01 X4.6048 Y27.0948 
G01 X4.5067 Y27.2417 
G01 X4.3817 Y27.3667 
G01 X4.2348 Y27.4648 
G01 X4.1481 Y27.5007 
G01 X4.1481 Y29.0870 
G01 X4.5868 Y29.0870 
G01 X4.6364 Y29.1075 
G01 X4.6744 Y29.1455 
G01 X4.6949 Y29.1951 
G00 Z1.0000 
G00 X31.3649 Y12.4311 
G01 Z-0.1000 F150.00 
G01 X31.3649 Y13.9848 
G01 X31.3444 Y14.0344 
G01 X31.3064 Y14.0724 
G01 X31.2568 Y14.0929 
G01 X29.7031 Y14.0929 
G01 X29.6535 Y14.0724 
G01 X29.6155 Y14.0344 
G01 X29.5950 Y13.9848 
G01 X29.5950 Y13.6731 
G01 X29.4109 Y13.6731 
G01 X29.3363 Y13.7478 
G01 X29.2186 Y13.8157 
G01 X29.0874 Y13.8509 
G01 X27.5545 Y13.8509 
G01 X27.4233 Y13.8157 
G01 X27.3056 Y13.7478 
G01 X27.2096 Y13.6518 
G01 X27.1417 Y13.5341 
G01 X27.1065 Y13.4029 
G01 X27.1065 Y13.2670 
G01 X27.1417 Y13.1358 
G01 X27.2096 Y13.0181 
G01 X27.3056 Y12.9221 
G01 X27.4233 Y12.8542 
G01 X27.5545 Y12.8190 
G01 X29.0874 Y12.8190 
G01 X29.2186 Y12.8542 
G01 X29.3363 Y12.9221 
G01 X29.4109 Y12.9968 
G01 X29.5950 Y12.9968 
G01 X29.5950 Y12.4311 
G01 X29.6155 Y12.3815 
G01 X29.6535 Y12.3435 
G01 X29.7031 Y12.3230 
G01 X31.2568 Y12.3230 
G01 X31.3064 Y12.3435 
G01 X31.3444 Y12.3815 
G01 X31.3649 Y12.4311 
(File Footer)
G00 Z1.0000 
G00 Z5.0000 
M05
M02
