( This gcode generated by C:/Program Files (x86)/EAGLE-5.7.0/ulp/pcb-gcode.ulp )
( Copyright 2005 by John Johnson. See readme.txt for licensing terms. )

( This file generated from the board //maggie/data/micro/design/eagle/projects/realway/cnc/ctrl/spindle_ctrl.brd )
( This file generated 2010-06-13 13:17:53 )

G21

G90
G00 Z1.0000 
G00 X0 Y0
M03
G04 P3.000000
G00 Z1.0000 
G00 X5.9549 Y3.6701 
G01 Z-0.1000 (F150.00) 
G01 X5.9549 Y4.1676 
G01 X12.4600 Y4.1676 
G01 X12.4600 Y3.6701 
G01 X12.4790 Y3.6241 
G01 X12.5141 Y3.5890 
G01 X12.5601 Y3.5700 
G01 X14.1098 Y3.5700 
G01 X14.1558 Y3.5890 
G01 X14.1909 Y3.6241 
G01 X14.2099 Y3.6701 
G01 X14.2099 Y5.2198 
G01 X14.1909 Y5.2658 
G01 X14.1558 Y5.3009 
G01 X14.1098 Y5.3199 
G01 X12.5601 Y5.3199 
G01 X12.5141 Y5.3009 
G01 X12.4790 Y5.2658 
G01 X12.4600 Y5.2198 
G01 X12.4600 Y4.7223 
G01 X5.9549 Y4.7223 
G01 X5.9549 Y5.2198 
G01 X5.9359 Y5.2658 
G01 X5.9008 Y5.3009 
G01 X5.8548 Y5.3199 
G01 X4.3051 Y5.3199 
G01 X4.2591 Y5.3009 
G01 X4.2240 Y5.2658 
G01 X4.2050 Y5.2198 
G01 X4.2050 Y3.6701 
G01 X4.2240 Y3.6241 
G01 X4.2591 Y3.5890 
G01 X4.3051 Y3.5700 
G01 X5.8548 Y3.5700 
G01 X5.9008 Y3.5890 
G01 X5.9359 Y3.6241 
G01 X5.9549 Y3.6701 
G00 Z1.0000 
G00 X35.7999 Y8.1151 
G01 Z-0.1000 F150.00 
G01 X35.7999 Y9.6648 
G01 X35.7809 Y9.7108 
G01 X35.7458 Y9.7459 
G01 X35.6998 Y9.7649 
G01 X34.1501 Y9.7649 
G01 X34.1041 Y9.7459 
G01 X34.0690 Y9.7108 
G01 X34.0500 Y9.6648 
G01 X34.0500 Y9.1673 
G01 X14.2099 Y9.1673 
G01 X14.2099 Y9.6648 
G01 X14.1909 Y9.7108 
G01 X14.1558 Y9.7459 
G01 X14.1098 Y9.7649 
G01 X12.5601 Y9.7649 
G01 X12.5141 Y9.7459 
G01 X12.4790 Y9.7108 
G01 X12.4600 Y9.6648 
G01 X12.4600 Y8.1151 
G01 X12.4790 Y8.0691 
G01 X12.5141 Y8.0340 
G01 X12.5601 Y8.0150 
G01 X14.1098 Y8.0150 
G01 X14.1558 Y8.0340 
G01 X14.1909 Y8.0691 
G01 X14.2099 Y8.1151 
G01 X14.2099 Y8.6126 
G01 X34.0500 Y8.6126 
G01 X34.0500 Y8.1151 
G01 X34.0690 Y8.0691 
G01 X34.1041 Y8.0340 
G01 X34.1501 Y8.0150 
G01 X35.6998 Y8.0150 
G01 X35.7458 Y8.0340 
G01 X35.7809 Y8.0691 
G01 X35.7999 Y8.1151 
G00 Z1.0000 
G00 X19.2899 Y6.8451 
G01 Z-0.1000 F150.00 
G01 X19.2899 Y8.3948 
G01 X19.2709 Y8.4408 
G01 X19.2358 Y8.4759 
G01 X19.1898 Y8.4949 
G01 X17.6401 Y8.4949 
G01 X17.5941 Y8.4759 
G01 X17.5590 Y8.4408 
G01 X17.5400 Y8.3948 
G01 X17.5400 Y7.8973 
G01 X9.1299 Y7.8973 
G01 X9.1299 Y8.3948 
G01 X9.1109 Y8.4408 
G01 X9.0758 Y8.4759 
G01 X9.0298 Y8.4949 
G01 X7.4801 Y8.4949 
G01 X7.4341 Y8.4759 
G01 X7.3990 Y8.4408 
G01 X7.3800 Y8.3948 
G01 X7.3800 Y6.8451 
G01 X7.3990 Y6.7991 
G01 X7.4341 Y6.7640 
G01 X7.4801 Y6.7450 
G01 X9.0298 Y6.7450 
G01 X9.0758 Y6.7640 
G01 X9.1109 Y6.7991 
G01 X9.1299 Y6.8451 
G01 X9.1299 Y7.3426 
G01 X17.5400 Y7.3426 
G01 X17.5400 Y6.8451 
G01 X17.5590 Y6.7991 
G01 X17.5941 Y6.7640 
G01 X17.6401 Y6.7450 
G01 X19.1898 Y6.7450 
G01 X19.2358 Y6.7640 
G01 X19.2709 Y6.7991 
G01 X19.2899 Y6.8451 
G00 Z1.0000 
G00 X52.3099 Y17.6401 
G01 Z-0.1000 F150.00 
G01 X52.3099 Y19.1898 
G01 X52.2909 Y19.2358 
G01 X52.2558 Y19.2709 
G01 X52.2098 Y19.2899 
G01 X51.7123 Y19.2899 
G01 X51.7123 Y27.7000 
G01 X52.2098 Y27.7000 
G01 X52.2558 Y27.7190 
G01 X52.2909 Y27.7541 
G01 X52.3099 Y27.8001 
G01 X52.3099 Y29.3498 
G01 X52.2909 Y29.3958 
G01 X52.2558 Y29.4309 
G01 X52.2098 Y29.4499 
G01 X50.6601 Y29.4499 
G01 X50.6141 Y29.4309 
G01 X50.5790 Y29.3958 
G01 X50.5600 Y29.3498 
G01 X50.5600 Y27.8001 
G01 X50.5790 Y27.7541 
G01 X50.6141 Y27.7190 
G01 X50.6601 Y27.7000 
G01 X51.1576 Y27.7000 
G01 X51.1576 Y19.2899 
G01 X50.6601 Y19.2899 
G01 X50.6141 Y19.2709 
G01 X50.5790 Y19.2358 
G01 X50.5600 Y19.1898 
G01 X50.5600 Y17.6401 
G01 X50.5790 Y17.5941 
G01 X50.6141 Y17.5590 
G01 X50.6601 Y17.5400 
G01 X52.2098 Y17.5400 
G01 X52.2558 Y17.5590 
G01 X52.2909 Y17.5941 
G01 X52.3099 Y17.6401 
G00 Z1.0000 
G00 X55.4849 Y39.8651 
G01 Z-0.1000 F150.00 
G01 X55.4849 Y41.4148 
G01 X55.4659 Y41.4608 
G01 X55.4308 Y41.4959 
G01 X55.3848 Y41.5149 
G01 X54.8873 Y41.5149 
G01 X54.8873 Y46.1150 
G01 X55.3848 Y46.1150 
G01 X55.4308 Y46.1340 
G01 X55.4659 Y46.1691 
G01 X55.4849 Y46.2151 
G01 X55.4849 Y47.7648 
G01 X55.4659 Y47.8108 
G01 X55.4308 Y47.8459 
G01 X55.3848 Y47.8649 
G01 X53.8351 Y47.8649 
G01 X53.7891 Y47.8459 
G01 X53.7540 Y47.8108 
G01 X53.7350 Y47.7648 
G01 X53.7350 Y46.2151 
G01 X53.7540 Y46.1691 
G01 X53.7891 Y46.1340 
G01 X53.8351 Y46.1150 
G01 X54.3326 Y46.1150 
G01 X54.3326 Y41.5149 
G01 X53.8351 Y41.5149 
G01 X53.7891 Y41.4959 
G01 X53.7540 Y41.4608 
G01 X53.7350 Y41.4148 
G01 X53.7350 Y39.8651 
G01 X53.7540 Y39.8191 
G01 X53.7891 Y39.7840 
G01 X53.8351 Y39.7650 
G01 X55.3848 Y39.7650 
G01 X55.4308 Y39.7840 
G01 X55.4659 Y39.8191 
G01 X55.4849 Y39.8651 
G00 Z1.0000 
G00 X2.7799 Y22.0851 
G01 Z-0.1000 F150.00 
G01 X2.7799 Y22.5826 
G01 X15.6350 Y22.5826 
G01 X15.6350 Y22.0851 
G01 X15.6540 Y22.0391 
G01 X15.6891 Y22.0040 
G01 X15.7351 Y21.9850 
G01 X17.2848 Y21.9850 
G01 X17.3308 Y22.0040 
G01 X17.3659 Y22.0391 
G01 X17.3849 Y22.0851 
G01 X17.3849 Y23.6348 
G01 X17.3659 Y23.6808 
G01 X17.3308 Y23.7159 
G01 X17.2848 Y23.7349 
G01 X15.7351 Y23.7349 
G01 X15.6891 Y23.7159 
G01 X15.6540 Y23.6808 
G01 X15.6350 Y23.6348 
G01 X15.6350 Y23.1373 
G01 X2.7799 Y23.1373 
G01 X2.7799 Y23.6348 
G01 X2.7609 Y23.6808 
G01 X2.7258 Y23.7159 
G01 X2.6798 Y23.7349 
G01 X1.1301 Y23.7349 
G01 X1.0841 Y23.7159 
G01 X1.0490 Y23.6808 
G01 X1.0300 Y23.6348 
G01 X1.0300 Y22.0851 
G01 X1.0490 Y22.0391 
G01 X1.0841 Y22.0040 
G01 X1.1301 Y21.9850 
G01 X2.6798 Y21.9850 
G01 X2.7258 Y22.0040 
G01 X2.7609 Y22.0391 
G01 X2.7799 Y22.0851 
G00 Z1.0000 
G00 X10.4794 Y10.5856 
G01 Z-0.1000 F150.00 
G01 X10.4794 Y12.1593 
G01 X10.4604 Y12.2053 
G01 X10.4253 Y12.2404 
G01 X10.3793 Y12.2594 
G01 X8.8056 Y12.2594 
G01 X8.7596 Y12.2404 
G01 X8.7245 Y12.2053 
G01 X8.7055 Y12.1593 
G01 X8.7055 Y10.5856 
G01 X8.7245 Y10.5396 
G01 X8.7596 Y10.5045 
G01 X8.8056 Y10.4855 
G01 X10.3793 Y10.4855 
G01 X10.4253 Y10.5045 
G01 X10.4604 Y10.5396 
G01 X10.4794 Y10.5856 
G00 Z1.0000 
G00 X13.0194 Y11.2850 
G01 Z-0.1000 F150.00 
G01 X13.0194 Y11.4599 
G01 X12.9853 Y11.6312 
G01 X12.9185 Y11.7926 
G01 X12.8214 Y11.9379 
G01 X12.6979 Y12.0614 
G01 X12.5526 Y12.1585 
G01 X12.3912 Y12.2253 
G01 X12.2199 Y12.2594 
G01 X12.0450 Y12.2594 
G01 X11.8737 Y12.2253 
G01 X11.7123 Y12.1585 
G01 X11.5670 Y12.0614 
G01 X11.4435 Y11.9379 
G01 X11.3464 Y11.7926 
G01 X11.2796 Y11.6312 
G01 X11.2455 Y11.4599 
G01 X11.2455 Y11.2850 
G01 X11.2796 Y11.1137 
G01 X11.3464 Y10.9523 
G01 X11.4435 Y10.8070 
G01 X11.5670 Y10.6835 
G01 X11.7123 Y10.5864 
G01 X11.8737 Y10.5196 
G01 X12.0450 Y10.4855 
G01 X12.2199 Y10.4855 
G01 X12.3912 Y10.5196 
G01 X12.5526 Y10.5864 
G01 X12.6979 Y10.6835 
G01 X12.8214 Y10.8070 
G01 X12.9185 Y10.9523 
G01 X12.9853 Y11.1137 
G01 X13.0194 Y11.2850 
G00 Z1.0000 
G00 X15.5594 Y11.2850 
G01 Z-0.1000 F150.00 
G01 X15.5594 Y11.4599 
G01 X15.5253 Y11.6312 
G01 X15.4585 Y11.7926 
G01 X15.3614 Y11.9379 
G01 X15.2379 Y12.0614 
G01 X15.0926 Y12.1585 
G01 X14.9312 Y12.2253 
G01 X14.7599 Y12.2594 
G01 X14.5850 Y12.2594 
G01 X14.4137 Y12.2253 
G01 X14.2523 Y12.1585 
G01 X14.1070 Y12.0614 
G01 X13.9835 Y11.9379 
G01 X13.8864 Y11.7926 
G01 X13.8196 Y11.6312 
G01 X13.7855 Y11.4599 
G01 X13.7855 Y11.2850 
G01 X13.8196 Y11.1137 
G01 X13.8864 Y10.9523 
G01 X13.9835 Y10.8070 
G01 X14.1070 Y10.6835 
G01 X14.2523 Y10.5864 
G01 X14.4137 Y10.5196 
G01 X14.5850 Y10.4855 
G01 X14.7599 Y10.4855 
G01 X14.9312 Y10.5196 
G01 X15.0926 Y10.5864 
G01 X15.2379 Y10.6835 
G01 X15.3614 Y10.8070 
G01 X15.4585 Y10.9523 
G01 X15.5253 Y11.1137 
G01 X15.5594 Y11.2850 
G00 Z1.0000 
G00 X18.0994 Y11.2850 
G01 Z-0.1000 F150.00 
G01 X18.0994 Y11.4599 
G01 X18.0653 Y11.6312 
G01 X17.9985 Y11.7926 
G01 X17.9014 Y11.9379 
G01 X17.7779 Y12.0614 
G01 X17.6326 Y12.1585 
G01 X17.4712 Y12.2253 
G01 X17.2999 Y12.2594 
G01 X17.1250 Y12.2594 
G01 X16.9537 Y12.2253 
G01 X16.7923 Y12.1585 
G01 X16.6470 Y12.0614 
G01 X16.5235 Y11.9379 
G01 X16.4264 Y11.7926 
G01 X16.3596 Y11.6312 
G01 X16.3255 Y11.4599 
G01 X16.3255 Y11.2850 
G01 X16.3596 Y11.1137 
G01 X16.4264 Y10.9523 
G01 X16.5235 Y10.8070 
G01 X16.6470 Y10.6835 
G01 X16.7923 Y10.5864 
G01 X16.9537 Y10.5196 
G01 X17.1250 Y10.4855 
G01 X17.2999 Y10.4855 
G01 X17.4712 Y10.5196 
G01 X17.6326 Y10.5864 
G01 X17.7779 Y10.6835 
G01 X17.9014 Y10.8070 
G01 X17.9985 Y10.9523 
G01 X18.0653 Y11.1137 
G01 X18.0994 Y11.2850 
G00 Z1.0000 
G00 X20.6394 Y11.2850 
G01 Z-0.1000 F150.00 
G01 X20.6394 Y11.4599 
G01 X20.6053 Y11.6312 
G01 X20.5385 Y11.7926 
G01 X20.4414 Y11.9379 
G01 X20.3179 Y12.0614 
G01 X20.1726 Y12.1585 
G01 X20.0112 Y12.2253 
G01 X19.8399 Y12.2594 
G01 X19.6650 Y12.2594 
G01 X19.4937 Y12.2253 
G01 X19.3323 Y12.1585 
G01 X19.1870 Y12.0614 
G01 X19.0635 Y11.9379 
G01 X18.9664 Y11.7926 
G01 X18.8996 Y11.6312 
G01 X18.8655 Y11.4599 
G01 X18.8655 Y11.2850 
G01 X18.8996 Y11.1137 
G01 X18.9664 Y10.9523 
G01 X19.0635 Y10.8070 
G01 X19.1870 Y10.6835 
G01 X19.3323 Y10.5864 
G01 X19.4937 Y10.5196 
G01 X19.6650 Y10.4855 
G01 X19.8399 Y10.4855 
G01 X20.0112 Y10.5196 
G01 X20.1726 Y10.5864 
G01 X20.3179 Y10.6835 
G01 X20.4414 Y10.8070 
G01 X20.5385 Y10.9523 
G01 X20.6053 Y11.1137 
G01 X20.6394 Y11.2850 
G00 Z1.0000 
G00 X23.1794 Y11.2850 
G01 Z-0.1000 F150.00 
G01 X23.1794 Y11.4599 
G01 X23.1453 Y11.6312 
G01 X23.0785 Y11.7926 
G01 X22.9814 Y11.9379 
G01 X22.8579 Y12.0614 
G01 X22.7126 Y12.1585 
G01 X22.5512 Y12.2253 
G01 X22.3799 Y12.2594 
G01 X22.2050 Y12.2594 
G01 X22.0337 Y12.2253 
G01 X21.8723 Y12.1585 
G01 X21.7270 Y12.0614 
G01 X21.6035 Y11.9379 
G01 X21.5064 Y11.7926 
G01 X21.4396 Y11.6312 
G01 X21.4055 Y11.4599 
G01 X21.4055 Y11.2850 
G01 X21.4396 Y11.1137 
G01 X21.5064 Y10.9523 
G01 X21.6035 Y10.8070 
G01 X21.7270 Y10.6835 
G01 X21.8723 Y10.5864 
G01 X22.0337 Y10.5196 
G01 X22.2050 Y10.4855 
G01 X22.3799 Y10.4855 
G01 X22.5512 Y10.5196 
G01 X22.7126 Y10.5864 
G01 X22.8579 Y10.6835 
G01 X22.9814 Y10.8070 
G01 X23.0785 Y10.9523 
G01 X23.1453 Y11.1137 
G01 X23.1794 Y11.2850 
G00 Z1.0000 
G00 X25.7194 Y11.2850 
G01 Z-0.1000 F150.00 
G01 X25.7194 Y11.4599 
G01 X25.6853 Y11.6312 
G01 X25.6185 Y11.7926 
G01 X25.5214 Y11.9379 
G01 X25.3979 Y12.0614 
G01 X25.2526 Y12.1585 
G01 X25.0912 Y12.2253 
G01 X24.9199 Y12.2594 
G01 X24.7450 Y12.2594 
G01 X24.5737 Y12.2253 
G01 X24.4123 Y12.1585 
G01 X24.2670 Y12.0614 
G01 X24.1435 Y11.9379 
G01 X24.0464 Y11.7926 
G01 X23.9796 Y11.6312 
G01 X23.9455 Y11.4599 
G01 X23.9455 Y11.2850 
G01 X23.9796 Y11.1137 
G01 X24.0464 Y10.9523 
G01 X24.1435 Y10.8070 
G01 X24.2670 Y10.6835 
G01 X24.4123 Y10.5864 
G01 X24.5737 Y10.5196 
G01 X24.7450 Y10.4855 
G01 X24.9199 Y10.4855 
G01 X25.0912 Y10.5196 
G01 X25.2526 Y10.5864 
G01 X25.3979 Y10.6835 
G01 X25.5214 Y10.8070 
G01 X25.6185 Y10.9523 
G01 X25.6853 Y11.1137 
G01 X25.7194 Y11.2850 
G00 Z1.0000 
G00 X28.2594 Y11.2850 
G01 Z-0.1000 F150.00 
G01 X28.2594 Y11.4599 
G01 X28.2253 Y11.6312 
G01 X28.1585 Y11.7926 
G01 X28.0614 Y11.9379 
G01 X27.9379 Y12.0614 
G01 X27.7926 Y12.1585 
G01 X27.6312 Y12.2253 
G01 X27.4599 Y12.2594 
G01 X27.2850 Y12.2594 
G01 X27.1137 Y12.2253 
G01 X26.9523 Y12.1585 
G01 X26.8070 Y12.0614 
G01 X26.6835 Y11.9379 
G01 X26.5864 Y11.7926 
G01 X26.5196 Y11.6312 
G01 X26.4855 Y11.4599 
G01 X26.4855 Y11.2850 
G01 X26.5196 Y11.1137 
G01 X26.5864 Y10.9523 
G01 X26.6835 Y10.8070 
G01 X26.8070 Y10.6835 
G01 X26.9523 Y10.5864 
G01 X27.1137 Y10.5196 
G01 X27.2850 Y10.4855 
G01 X27.4599 Y10.4855 
G01 X27.6312 Y10.5196 
G01 X27.7926 Y10.5864 
G01 X27.9379 Y10.6835 
G01 X28.0614 Y10.8070 
G01 X28.1585 Y10.9523 
G01 X28.2253 Y11.1137 
G01 X28.2594 Y11.2850 
G00 Z1.0000 
G00 X30.7994 Y11.2850 
G01 Z-0.1000 F150.00 
G01 X30.7994 Y11.4599 
G01 X30.7653 Y11.6312 
G01 X30.6985 Y11.7926 
G01 X30.6014 Y11.9379 
G01 X30.4779 Y12.0614 
G01 X30.3326 Y12.1585 
G01 X30.1712 Y12.2253 
G01 X29.9999 Y12.2594 
G01 X29.8250 Y12.2594 
G01 X29.6537 Y12.2253 
G01 X29.4923 Y12.1585 
G01 X29.3470 Y12.0614 
G01 X29.2235 Y11.9379 
G01 X29.1264 Y11.7926 
G01 X29.0596 Y11.6312 
G01 X29.0255 Y11.4599 
G01 X29.0255 Y11.2850 
G01 X29.0596 Y11.1137 
G01 X29.1264 Y10.9523 
G01 X29.2235 Y10.8070 
G01 X29.3470 Y10.6835 
G01 X29.4923 Y10.5864 
G01 X29.6537 Y10.5196 
G01 X29.8250 Y10.4855 
G01 X29.9999 Y10.4855 
G01 X30.1712 Y10.5196 
G01 X30.3326 Y10.5864 
G01 X30.4779 Y10.6835 
G01 X30.6014 Y10.8070 
G01 X30.6985 Y10.9523 
G01 X30.7653 Y11.1137 
G01 X30.7994 Y11.2850 
G00 Z1.0000 
G00 X33.3394 Y11.2850 
G01 Z-0.1000 F150.00 
G01 X33.3394 Y11.4599 
G01 X33.3053 Y11.6312 
G01 X33.2385 Y11.7926 
G01 X33.1414 Y11.9379 
G01 X33.0179 Y12.0614 
G01 X32.8726 Y12.1585 
G01 X32.7112 Y12.2253 
G01 X32.5399 Y12.2594 
G01 X32.3650 Y12.2594 
G01 X32.1937 Y12.2253 
G01 X32.0323 Y12.1585 
G01 X31.8870 Y12.0614 
G01 X31.7635 Y11.9379 
G01 X31.6664 Y11.7926 
G01 X31.5996 Y11.6312 
G01 X31.5655 Y11.4599 
G01 X31.5655 Y11.2850 
G01 X31.5996 Y11.1137 
G01 X31.6664 Y10.9523 
G01 X31.7635 Y10.8070 
G01 X31.8870 Y10.6835 
G01 X32.0323 Y10.5864 
G01 X32.1937 Y10.5196 
G01 X32.3650 Y10.4855 
G01 X32.5399 Y10.4855 
G01 X32.7112 Y10.5196 
G01 X32.8726 Y10.5864 
G01 X33.0179 Y10.6835 
G01 X33.1414 Y10.8070 
G01 X33.2385 Y10.9523 
G01 X33.3053 Y11.1137 
G01 X33.3394 Y11.2850 
G00 Z1.0000 
G00 X35.8794 Y11.2850 
G01 Z-0.1000 F150.00 
G01 X35.8794 Y11.4599 
G01 X35.8453 Y11.6312 
G01 X35.7785 Y11.7926 
G01 X35.6814 Y11.9379 
G01 X35.5579 Y12.0614 
G01 X35.4126 Y12.1585 
G01 X35.2512 Y12.2253 
G01 X35.0799 Y12.2594 
G01 X34.9050 Y12.2594 
G01 X34.7337 Y12.2253 
G01 X34.5723 Y12.1585 
G01 X34.4270 Y12.0614 
G01 X34.3035 Y11.9379 
G01 X34.2064 Y11.7926 
G01 X34.1396 Y11.6312 
G01 X34.1055 Y11.4599 
G01 X34.1055 Y11.2850 
G01 X34.1396 Y11.1137 
G01 X34.2064 Y10.9523 
G01 X34.3035 Y10.8070 
G01 X34.4270 Y10.6835 
G01 X34.5723 Y10.5864 
G01 X34.7337 Y10.5196 
G01 X34.9050 Y10.4855 
G01 X35.0799 Y10.4855 
G01 X35.2512 Y10.5196 
G01 X35.4126 Y10.5864 
G01 X35.5579 Y10.6835 
G01 X35.6814 Y10.8070 
G01 X35.7785 Y10.9523 
G01 X35.8453 Y11.1137 
G01 X35.8794 Y11.2850 
G00 Z1.0000 
G00 X38.4194 Y11.2850 
G01 Z-0.1000 F150.00 
G01 X38.4194 Y11.4599 
G01 X38.3853 Y11.6312 
G01 X38.3185 Y11.7926 
G01 X38.2214 Y11.9379 
G01 X38.0979 Y12.0614 
G01 X37.9526 Y12.1585 
G01 X37.7912 Y12.2253 
G01 X37.6199 Y12.2594 
G01 X37.4450 Y12.2594 
G01 X37.2737 Y12.2253 
G01 X37.1123 Y12.1585 
G01 X36.9670 Y12.0614 
G01 X36.8435 Y11.9379 
G01 X36.7464 Y11.7926 
G01 X36.6796 Y11.6312 
G01 X36.6455 Y11.4599 
G01 X36.6455 Y11.2850 
G01 X36.6796 Y11.1137 
G01 X36.7464 Y10.9523 
G01 X36.8435 Y10.8070 
G01 X36.9670 Y10.6835 
G01 X37.1123 Y10.5864 
G01 X37.2737 Y10.5196 
G01 X37.4450 Y10.4855 
G01 X37.6199 Y10.4855 
G01 X37.7912 Y10.5196 
G01 X37.9526 Y10.5864 
G01 X38.0979 Y10.6835 
G01 X38.2214 Y10.8070 
G01 X38.3185 Y10.9523 
G01 X38.3853 Y11.1137 
G01 X38.4194 Y11.2850 
G00 Z1.0000 
G00 X40.9594 Y11.2850 
G01 Z-0.1000 F150.00 
G01 X40.9594 Y11.4599 
G01 X40.9253 Y11.6312 
G01 X40.8585 Y11.7926 
G01 X40.7614 Y11.9379 
G01 X40.6379 Y12.0614 
G01 X40.4926 Y12.1585 
G01 X40.3312 Y12.2253 
G01 X40.1599 Y12.2594 
G01 X39.9850 Y12.2594 
G01 X39.8137 Y12.2253 
G01 X39.6523 Y12.1585 
G01 X39.5070 Y12.0614 
G01 X39.3835 Y11.9379 
G01 X39.2864 Y11.7926 
G01 X39.2196 Y11.6312 
G01 X39.1855 Y11.4599 
G01 X39.1855 Y11.2850 
G01 X39.2196 Y11.1137 
G01 X39.2864 Y10.9523 
G01 X39.3835 Y10.8070 
G01 X39.5070 Y10.6835 
G01 X39.6523 Y10.5864 
G01 X39.8137 Y10.5196 
G01 X39.9850 Y10.4855 
G01 X40.1599 Y10.4855 
G01 X40.3312 Y10.5196 
G01 X40.4926 Y10.5864 
G01 X40.6379 Y10.6835 
G01 X40.7614 Y10.8070 
G01 X40.8585 Y10.9523 
G01 X40.9253 Y11.1137 
G01 X40.9594 Y11.2850 
G00 Z1.0000 
G00 X43.4994 Y11.2850 
G01 Z-0.1000 F150.00 
G01 X43.4994 Y11.4599 
G01 X43.4653 Y11.6312 
G01 X43.3985 Y11.7926 
G01 X43.3014 Y11.9379 
G01 X43.1779 Y12.0614 
G01 X43.0326 Y12.1585 
G01 X42.8712 Y12.2253 
G01 X42.6999 Y12.2594 
G01 X42.5250 Y12.2594 
G01 X42.3537 Y12.2253 
G01 X42.1923 Y12.1585 
G01 X42.0470 Y12.0614 
G01 X41.9235 Y11.9379 
G01 X41.8264 Y11.7926 
G01 X41.7596 Y11.6312 
G01 X41.7255 Y11.4599 
G01 X41.7255 Y11.2850 
G01 X41.7596 Y11.1137 
G01 X41.8264 Y10.9523 
G01 X41.9235 Y10.8070 
G01 X42.0470 Y10.6835 
G01 X42.1923 Y10.5864 
G01 X42.3537 Y10.5196 
G01 X42.5250 Y10.4855 
G01 X42.6999 Y10.4855 
G01 X42.8712 Y10.5196 
G01 X43.0326 Y10.5864 
G01 X43.1779 Y10.6835 
G01 X43.3014 Y10.8070 
G01 X43.3985 Y10.9523 
G01 X43.4653 Y11.1137 
G01 X43.4994 Y11.2850 
G00 Z1.0000 
G00 X46.0394 Y11.2850 
G01 Z-0.1000 F150.00 
G01 X46.0394 Y11.4599 
G01 X46.0053 Y11.6312 
G01 X45.9385 Y11.7926 
G01 X45.8414 Y11.9379 
G01 X45.7179 Y12.0614 
G01 X45.5726 Y12.1585 
G01 X45.4112 Y12.2253 
G01 X45.2399 Y12.2594 
G01 X45.0650 Y12.2594 
G01 X44.8937 Y12.2253 
G01 X44.7323 Y12.1585 
G01 X44.5870 Y12.0614 
G01 X44.4635 Y11.9379 
G01 X44.3664 Y11.7926 
G01 X44.2996 Y11.6312 
G01 X44.2655 Y11.4599 
G01 X44.2655 Y11.2850 
G01 X44.2996 Y11.1137 
G01 X44.3664 Y10.9523 
G01 X44.4635 Y10.8070 
G01 X44.5870 Y10.6835 
G01 X44.7323 Y10.5864 
G01 X44.8937 Y10.5196 
G01 X45.0650 Y10.4855 
G01 X45.2399 Y10.4855 
G01 X45.4112 Y10.5196 
G01 X45.5726 Y10.5864 
G01 X45.7179 Y10.6835 
G01 X45.8414 Y10.8070 
G01 X45.9385 Y10.9523 
G01 X46.0053 Y11.1137 
G01 X46.0394 Y11.2850 
G00 Z1.0000 
G00 X48.5794 Y11.2850 
G01 Z-0.1000 F150.00 
G01 X48.5794 Y11.4599 
G01 X48.5453 Y11.6312 
G01 X48.4785 Y11.7926 
G01 X48.3814 Y11.9379 
G01 X48.2579 Y12.0614 
G01 X48.1126 Y12.1585 
G01 X47.9512 Y12.2253 
G01 X47.7799 Y12.2594 
G01 X47.6050 Y12.2594 
G01 X47.4337 Y12.2253 
G01 X47.2723 Y12.1585 
G01 X47.1270 Y12.0614 
G01 X47.0035 Y11.9379 
G01 X46.9064 Y11.7926 
G01 X46.8396 Y11.6312 
G01 X46.8055 Y11.4599 
G01 X46.8055 Y11.2850 
G01 X46.8396 Y11.1137 
G01 X46.9064 Y10.9523 
G01 X47.0035 Y10.8070 
G01 X47.1270 Y10.6835 
G01 X47.2723 Y10.5864 
G01 X47.4337 Y10.5196 
G01 X47.6050 Y10.4855 
G01 X47.7799 Y10.4855 
G01 X47.9512 Y10.5196 
G01 X48.1126 Y10.5864 
G01 X48.2579 Y10.6835 
G01 X48.3814 Y10.8070 
G01 X48.4785 Y10.9523 
G01 X48.5453 Y11.1137 
G01 X48.5794 Y11.2850 
G00 Z1.0000 
G00 X51.0011 Y39.9226 
G01 Z-0.1000 F150.00 
G01 X51.0011 Y40.0873 
G01 X50.9690 Y40.2489 
G01 X50.9059 Y40.4010 
G01 X50.8144 Y40.5380 
G01 X50.6980 Y40.6544 
G01 X50.5610 Y40.7459 
G01 X50.4089 Y40.8090 
G01 X50.2473 Y40.8411 
G01 X50.0826 Y40.8411 
G01 X49.9210 Y40.8090 
G01 X49.7689 Y40.7459 
G01 X49.6319 Y40.6544 
G01 X49.5155 Y40.5380 
G01 X49.4240 Y40.4010 
G01 X49.3609 Y40.2489 
G01 X49.3288 Y40.0873 
G01 X49.3288 Y39.9226 
G01 X49.3609 Y39.7610 
G01 X49.4240 Y39.6089 
G01 X49.5155 Y39.4719 
G01 X49.6319 Y39.3555 
G01 X49.7689 Y39.2640 
G01 X49.9210 Y39.2009 
G01 X50.0826 Y39.1688 
G01 X50.2473 Y39.1688 
G01 X50.4089 Y39.2009 
G01 X50.5610 Y39.2640 
G01 X50.6980 Y39.3555 
G01 X50.8144 Y39.4719 
G01 X50.9059 Y39.6089 
G01 X50.9690 Y39.7610 
G01 X51.0011 Y39.9226 
G00 Z1.0000 
G00 X51.0011 Y37.3826 
G01 Z-0.1000 F150.00 
G01 X51.0011 Y37.5473 
G01 X50.9690 Y37.7089 
G01 X50.9059 Y37.8610 
G01 X50.8144 Y37.9980 
G01 X50.6980 Y38.1144 
G01 X50.5610 Y38.2059 
G01 X50.4089 Y38.2690 
G01 X50.2473 Y38.3011 
G01 X50.0826 Y38.3011 
G01 X49.9210 Y38.2690 
G01 X49.7689 Y38.2059 
G01 X49.6319 Y38.1144 
G01 X49.5155 Y37.9980 
G01 X49.4240 Y37.8610 
G01 X49.3609 Y37.7089 
G01 X49.3288 Y37.5473 
G01 X49.3288 Y37.3826 
G01 X49.3609 Y37.2210 
G01 X49.4240 Y37.0689 
G01 X49.5155 Y36.9319 
G01 X49.6319 Y36.8155 
G01 X49.7689 Y36.7240 
G01 X49.9210 Y36.6609 
G01 X50.0826 Y36.6288 
G01 X50.2473 Y36.6288 
G01 X50.4089 Y36.6609 
G01 X50.5610 Y36.7240 
G01 X50.6980 Y36.8155 
G01 X50.8144 Y36.9319 
G01 X50.9059 Y37.0689 
G01 X50.9690 Y37.2210 
G01 X51.0011 Y37.3826 
G00 Z1.0000 
G00 X51.0011 Y34.8426 
G01 Z-0.1000 F150.00 
G01 X51.0011 Y35.0073 
G01 X50.9690 Y35.1689 
G01 X50.9059 Y35.3210 
G01 X50.8144 Y35.4580 
G01 X50.6980 Y35.5744 
G01 X50.5610 Y35.6659 
G01 X50.4089 Y35.7290 
G01 X50.2473 Y35.7611 
G01 X50.0826 Y35.7611 
G01 X49.9210 Y35.7290 
G01 X49.7689 Y35.6659 
G01 X49.6319 Y35.5744 
G01 X49.5155 Y35.4580 
G01 X49.4240 Y35.3210 
G01 X49.3609 Y35.1689 
G01 X49.3288 Y35.0073 
G01 X49.3288 Y34.8426 
G01 X49.3609 Y34.6810 
G01 X49.4240 Y34.5289 
G01 X49.5155 Y34.3919 
G01 X49.6319 Y34.2755 
G01 X49.7689 Y34.1840 
G01 X49.9210 Y34.1209 
G01 X50.0826 Y34.0888 
G01 X50.2473 Y34.0888 
G01 X50.4089 Y34.1209 
G01 X50.5610 Y34.1840 
G01 X50.6980 Y34.2755 
G01 X50.8144 Y34.3919 
G01 X50.9059 Y34.5289 
G01 X50.9690 Y34.6810 
G01 X51.0011 Y34.8426 
G00 Z1.0000 
G00 X51.0011 Y31.6489 
G01 Z-0.1000 F150.00 
G01 X51.0011 Y33.1210 
G01 X50.9821 Y33.1670 
G01 X50.9470 Y33.2021 
G01 X50.9010 Y33.2211 
G01 X49.4289 Y33.2211 
G01 X49.3829 Y33.2021 
G01 X49.3478 Y33.1670 
G01 X49.3288 Y33.1210 
G01 X49.3288 Y31.6489 
G01 X49.3478 Y31.6029 
G01 X49.3829 Y31.5678 
G01 X49.4289 Y31.5488 
G01 X50.9010 Y31.5488 
G01 X50.9470 Y31.5678 
G01 X50.9821 Y31.6029 
G01 X51.0011 Y31.6489 
G00 Z1.0000 
G00 X35.7611 Y39.9226 
G01 Z-0.1000 F150.00 
G01 X35.7611 Y40.0873 
G01 X35.7290 Y40.2489 
G01 X35.6659 Y40.4010 
G01 X35.5744 Y40.5380 
G01 X35.4580 Y40.6544 
G01 X35.3210 Y40.7459 
G01 X35.1689 Y40.8090 
G01 X35.0073 Y40.8411 
G01 X34.8426 Y40.8411 
G01 X34.6810 Y40.8090 
G01 X34.5289 Y40.7459 
G01 X34.3919 Y40.6544 
G01 X34.2755 Y40.5380 
G01 X34.1840 Y40.4010 
G01 X34.1209 Y40.2489 
G01 X34.0888 Y40.0873 
G01 X34.0888 Y39.9226 
G01 X34.1209 Y39.7610 
G01 X34.1840 Y39.6089 
G01 X34.2755 Y39.4719 
G01 X34.3919 Y39.3555 
G01 X34.5289 Y39.2640 
G01 X34.6810 Y39.2009 
G01 X34.8426 Y39.1688 
G01 X35.0073 Y39.1688 
G01 X35.1689 Y39.2009 
G01 X35.3210 Y39.2640 
G01 X35.4580 Y39.3555 
G01 X35.5744 Y39.4719 
G01 X35.6659 Y39.6089 
G01 X35.7290 Y39.7610 
G01 X35.7611 Y39.9226 
G00 Z1.0000 
G00 X33.2211 Y39.2689 
G01 Z-0.1000 F150.00 
G01 X33.2211 Y40.7410 
G01 X33.2021 Y40.7870 
G01 X33.1670 Y40.8221 
G01 X33.1210 Y40.8411 
G01 X31.6489 Y40.8411 
G01 X31.6029 Y40.8221 
G01 X31.5678 Y40.7870 
G01 X31.5488 Y40.7410 
G01 X31.5488 Y39.2689 
G01 X31.5678 Y39.2229 
G01 X31.6029 Y39.1878 
G01 X31.6489 Y39.1688 
G01 X33.1210 Y39.1688 
G01 X33.1670 Y39.1878 
G01 X33.2021 Y39.2229 
G01 X33.2211 Y39.2689 
G00 Z1.0000 
G00 X30.6811 Y39.9226 
G01 Z-0.1000 F150.00 
G01 X30.6811 Y40.0873 
G01 X30.6490 Y40.2489 
G01 X30.5859 Y40.4010 
G01 X30.4944 Y40.5380 
G01 X30.3780 Y40.6544 
G01 X30.2410 Y40.7459 
G01 X30.0889 Y40.8090 
G01 X29.9273 Y40.8411 
G01 X29.7626 Y40.8411 
G01 X29.6010 Y40.8090 
G01 X29.4489 Y40.7459 
G01 X29.3119 Y40.6544 
G01 X29.1955 Y40.5380 
G01 X29.1040 Y40.4010 
G01 X29.0409 Y40.2489 
G01 X29.0088 Y40.0873 
G01 X29.0088 Y39.9226 
G01 X29.0409 Y39.7610 
G01 X29.1040 Y39.6089 
G01 X29.1955 Y39.4719 
G01 X29.3119 Y39.3555 
G01 X29.4489 Y39.2640 
G01 X29.6010 Y39.2009 
G01 X29.7626 Y39.1688 
G01 X29.9273 Y39.1688 
G01 X30.0889 Y39.2009 
G01 X30.2410 Y39.2640 
G01 X30.3780 Y39.3555 
G01 X30.4944 Y39.4719 
G01 X30.5859 Y39.6089 
G01 X30.6490 Y39.7610 
G01 X30.6811 Y39.9226 
G00 Z1.0000 
G00 X28.1411 Y39.9226 
G01 Z-0.1000 F150.00 
G01 X28.1411 Y40.0873 
G01 X28.1090 Y40.2489 
G01 X28.0459 Y40.4010 
G01 X27.9544 Y40.5380 
G01 X27.8380 Y40.6544 
G01 X27.7010 Y40.7459 
G01 X27.5489 Y40.8090 
G01 X27.3873 Y40.8411 
G01 X27.2226 Y40.8411 
G01 X27.0610 Y40.8090 
G01 X26.9089 Y40.7459 
G01 X26.7719 Y40.6544 
G01 X26.6555 Y40.5380 
G01 X26.5640 Y40.4010 
G01 X26.5009 Y40.2489 
G01 X26.4688 Y40.0873 
G01 X26.4688 Y39.9226 
G01 X26.5009 Y39.7610 
G01 X26.5640 Y39.6089 
G01 X26.6555 Y39.4719 
G01 X26.7719 Y39.3555 
G01 X26.9089 Y39.2640 
G01 X27.0610 Y39.2009 
G01 X27.2226 Y39.1688 
G01 X27.3873 Y39.1688 
G01 X27.5489 Y39.2009 
G01 X27.7010 Y39.2640 
G01 X27.8380 Y39.3555 
G01 X27.9544 Y39.4719 
G01 X28.0459 Y39.6089 
G01 X28.1090 Y39.7610 
G01 X28.1411 Y39.9226 
G00 Z1.0000 
G00 X25.6011 Y39.9226 
G01 Z-0.1000 F150.00 
G01 X25.6011 Y40.0873 
G01 X25.5690 Y40.2489 
G01 X25.5059 Y40.4010 
G01 X25.4144 Y40.5380 
G01 X25.2980 Y40.6544 
G01 X25.1610 Y40.7459 
G01 X25.0089 Y40.8090 
G01 X24.8473 Y40.8411 
G01 X24.6826 Y40.8411 
G01 X24.5210 Y40.8090 
G01 X24.3689 Y40.7459 
G01 X24.2319 Y40.6544 
G01 X24.1155 Y40.5380 
G01 X24.0240 Y40.4010 
G01 X23.9609 Y40.2489 
G01 X23.9288 Y40.0873 
G01 X23.9288 Y39.9226 
G01 X23.9609 Y39.7610 
G01 X24.0240 Y39.6089 
G01 X24.1155 Y39.4719 
G01 X24.2319 Y39.3555 
G01 X24.3689 Y39.2640 
G01 X24.5210 Y39.2009 
G01 X24.6826 Y39.1688 
G01 X24.8473 Y39.1688 
G01 X25.0089 Y39.2009 
G01 X25.1610 Y39.2640 
G01 X25.2980 Y39.3555 
G01 X25.4144 Y39.4719 
G01 X25.5059 Y39.6089 
G01 X25.5690 Y39.7610 
G01 X25.6011 Y39.9226 
G00 Z1.0000 
G00 X23.0611 Y39.9226 
G01 Z-0.1000 F150.00 
G01 X23.0611 Y40.0873 
G01 X23.0290 Y40.2489 
G01 X22.9659 Y40.4010 
G01 X22.8744 Y40.5380 
G01 X22.7580 Y40.6544 
G01 X22.6210 Y40.7459 
G01 X22.4689 Y40.8090 
G01 X22.3073 Y40.8411 
G01 X22.1426 Y40.8411 
G01 X21.9810 Y40.8090 
G01 X21.8289 Y40.7459 
G01 X21.6919 Y40.6544 
G01 X21.5755 Y40.5380 
G01 X21.4840 Y40.4010 
G01 X21.4209 Y40.2489 
G01 X21.3888 Y40.0873 
G01 X21.3888 Y39.9226 
G01 X21.4209 Y39.7610 
G01 X21.4840 Y39.6089 
G01 X21.5755 Y39.4719 
G01 X21.6919 Y39.3555 
G01 X21.8289 Y39.2640 
G01 X21.9810 Y39.2009 
G01 X22.1426 Y39.1688 
G01 X22.3073 Y39.1688 
G01 X22.4689 Y39.2009 
G01 X22.6210 Y39.2640 
G01 X22.7580 Y39.3555 
G01 X22.8744 Y39.4719 
G01 X22.9659 Y39.6089 
G01 X23.0290 Y39.7610 
G01 X23.0611 Y39.9226 
G00 Z1.0000 
G00 X20.5211 Y39.9226 
G01 Z-0.1000 F150.00 
G01 X20.5211 Y40.0873 
G01 X20.4890 Y40.2489 
G01 X20.4259 Y40.4010 
G01 X20.3344 Y40.5380 
G01 X20.2180 Y40.6544 
G01 X20.0810 Y40.7459 
G01 X19.9289 Y40.8090 
G01 X19.7673 Y40.8411 
G01 X19.6026 Y40.8411 
G01 X19.4410 Y40.8090 
G01 X19.2889 Y40.7459 
G01 X19.1519 Y40.6544 
G01 X19.0355 Y40.5380 
G01 X18.9440 Y40.4010 
G01 X18.8809 Y40.2489 
G01 X18.8488 Y40.0873 
G01 X18.8488 Y39.9226 
G01 X18.8809 Y39.7610 
G01 X18.9440 Y39.6089 
G01 X19.0355 Y39.4719 
G01 X19.1519 Y39.3555 
G01 X19.2889 Y39.2640 
G01 X19.4410 Y39.2009 
G01 X19.6026 Y39.1688 
G01 X19.7673 Y39.1688 
G01 X19.9289 Y39.2009 
G01 X20.0810 Y39.2640 
G01 X20.2180 Y39.3555 
G01 X20.3344 Y39.4719 
G01 X20.4259 Y39.6089 
G01 X20.4890 Y39.7610 
G01 X20.5211 Y39.9226 
G00 Z1.0000 
G00 X17.9811 Y39.9226 
G01 Z-0.1000 F150.00 
G01 X17.9811 Y40.0873 
G01 X17.9490 Y40.2489 
G01 X17.8859 Y40.4010 
G01 X17.7944 Y40.5380 
G01 X17.6780 Y40.6544 
G01 X17.5410 Y40.7459 
G01 X17.3889 Y40.8090 
G01 X17.2273 Y40.8411 
G01 X17.0626 Y40.8411 
G01 X16.9010 Y40.8090 
G01 X16.7489 Y40.7459 
G01 X16.6119 Y40.6544 
G01 X16.4955 Y40.5380 
G01 X16.4040 Y40.4010 
G01 X16.3409 Y40.2489 
G01 X16.3088 Y40.0873 
G01 X16.3088 Y39.9226 
G01 X16.3409 Y39.7610 
G01 X16.4040 Y39.6089 
G01 X16.4955 Y39.4719 
G01 X16.6119 Y39.3555 
G01 X16.7489 Y39.2640 
G01 X16.9010 Y39.2009 
G01 X17.0626 Y39.1688 
G01 X17.2273 Y39.1688 
G01 X17.3889 Y39.2009 
G01 X17.5410 Y39.2640 
G01 X17.6780 Y39.3555 
G01 X17.7944 Y39.4719 
G01 X17.8859 Y39.6089 
G01 X17.9490 Y39.7610 
G01 X17.9811 Y39.9226 
G00 Z1.0000 
G00 X15.4411 Y39.9226 
G01 Z-0.1000 F150.00 
G01 X15.4411 Y40.0873 
G01 X15.4090 Y40.2489 
G01 X15.3459 Y40.4010 
G01 X15.2544 Y40.5380 
G01 X15.1380 Y40.6544 
G01 X15.0010 Y40.7459 
G01 X14.8489 Y40.8090 
G01 X14.6873 Y40.8411 
G01 X14.5226 Y40.8411 
G01 X14.3610 Y40.8090 
G01 X14.2089 Y40.7459 
G01 X14.0719 Y40.6544 
G01 X13.9555 Y40.5380 
G01 X13.8640 Y40.4010 
G01 X13.8009 Y40.2489 
G01 X13.7688 Y40.0873 
G01 X13.7688 Y39.9226 
G01 X13.8009 Y39.7610 
G01 X13.8640 Y39.6089 
G01 X13.9555 Y39.4719 
G01 X14.0719 Y39.3555 
G01 X14.2089 Y39.2640 
G01 X14.3610 Y39.2009 
G01 X14.5226 Y39.1688 
G01 X14.6873 Y39.1688 
G01 X14.8489 Y39.2009 
G01 X15.0010 Y39.2640 
G01 X15.1380 Y39.3555 
G01 X15.2544 Y39.4719 
G01 X15.3459 Y39.6089 
G01 X15.4090 Y39.7610 
G01 X15.4411 Y39.9226 
G00 Z1.0000 
G00 X12.9011 Y39.9226 
G01 Z-0.1000 F150.00 
G01 X12.9011 Y40.0873 
G01 X12.8690 Y40.2489 
G01 X12.8059 Y40.4010 
G01 X12.7144 Y40.5380 
G01 X12.5980 Y40.6544 
G01 X12.4610 Y40.7459 
G01 X12.3089 Y40.8090 
G01 X12.1473 Y40.8411 
G01 X11.9826 Y40.8411 
G01 X11.8210 Y40.8090 
G01 X11.6689 Y40.7459 
G01 X11.5319 Y40.6544 
G01 X11.4155 Y40.5380 
G01 X11.3240 Y40.4010 
G01 X11.2609 Y40.2489 
G01 X11.2288 Y40.0873 
G01 X11.2288 Y39.9226 
G01 X11.2609 Y39.7610 
G01 X11.3240 Y39.6089 
G01 X11.4155 Y39.4719 
G01 X11.5319 Y39.3555 
G01 X11.6689 Y39.2640 
G01 X11.8210 Y39.2009 
G01 X11.9826 Y39.1688 
G01 X12.1473 Y39.1688 
G01 X12.3089 Y39.2009 
G01 X12.4610 Y39.2640 
G01 X12.5980 Y39.3555 
G01 X12.7144 Y39.4719 
G01 X12.8059 Y39.6089 
G01 X12.8690 Y39.7610 
G01 X12.9011 Y39.9226 
G00 Z1.0000 
G00 X10.3611 Y39.9226 
G01 Z-0.1000 F150.00 
G01 X10.3611 Y40.0873 
G01 X10.3290 Y40.2489 
G01 X10.2659 Y40.4010 
G01 X10.1744 Y40.5380 
G01 X10.0580 Y40.6544 
G01 X9.9210 Y40.7459 
G01 X9.7689 Y40.8090 
G01 X9.6073 Y40.8411 
G01 X9.4426 Y40.8411 
G01 X9.2810 Y40.8090 
G01 X9.1289 Y40.7459 
G01 X8.9919 Y40.6544 
G01 X8.8755 Y40.5380 
G01 X8.7840 Y40.4010 
G01 X8.7209 Y40.2489 
G01 X8.6888 Y40.0873 
G01 X8.6888 Y39.9226 
G01 X8.7209 Y39.7610 
G01 X8.7840 Y39.6089 
G01 X8.8755 Y39.4719 
G01 X8.9919 Y39.3555 
G01 X9.1289 Y39.2640 
G01 X9.2810 Y39.2009 
G01 X9.4426 Y39.1688 
G01 X9.6073 Y39.1688 
G01 X9.7689 Y39.2009 
G01 X9.9210 Y39.2640 
G01 X10.0580 Y39.3555 
G01 X10.1744 Y39.4719 
G01 X10.2659 Y39.6089 
G01 X10.3290 Y39.7610 
G01 X10.3611 Y39.9226 
G00 Z1.0000 
G00 X7.8211 Y39.9226 
G01 Z-0.1000 F150.00 
G01 X7.8211 Y40.0873 
G01 X7.7890 Y40.2489 
G01 X7.7259 Y40.4010 
G01 X7.6344 Y40.5380 
G01 X7.5180 Y40.6544 
G01 X7.3810 Y40.7459 
G01 X7.2289 Y40.8090 
G01 X7.0673 Y40.8411 
G01 X6.9026 Y40.8411 
G01 X6.7410 Y40.8090 
G01 X6.5889 Y40.7459 
G01 X6.4519 Y40.6544 
G01 X6.3355 Y40.5380 
G01 X6.2440 Y40.4010 
G01 X6.1809 Y40.2489 
G01 X6.1488 Y40.0873 
G01 X6.1488 Y39.9226 
G01 X6.1809 Y39.7610 
G01 X6.2440 Y39.6089 
G01 X6.3355 Y39.4719 
G01 X6.4519 Y39.3555 
G01 X6.5889 Y39.2640 
G01 X6.7410 Y39.2009 
G01 X6.9026 Y39.1688 
G01 X7.0673 Y39.1688 
G01 X7.2289 Y39.2009 
G01 X7.3810 Y39.2640 
G01 X7.5180 Y39.3555 
G01 X7.6344 Y39.4719 
G01 X7.7259 Y39.6089 
G01 X7.7890 Y39.7610 
G01 X7.8211 Y39.9226 
G00 Z1.0000 
G00 X5.2811 Y39.9226 
G01 Z-0.1000 F150.00 
G01 X5.2811 Y40.0873 
G01 X5.2490 Y40.2489 
G01 X5.1859 Y40.4010 
G01 X5.0944 Y40.5380 
G01 X4.9780 Y40.6544 
G01 X4.8410 Y40.7459 
G01 X4.6889 Y40.8090 
G01 X4.5273 Y40.8411 
G01 X4.3626 Y40.8411 
G01 X4.2010 Y40.8090 
G01 X4.0489 Y40.7459 
G01 X3.9119 Y40.6544 
G01 X3.7955 Y40.5380 
G01 X3.7040 Y40.4010 
G01 X3.6409 Y40.2489 
G01 X3.6088 Y40.0873 
G01 X3.6088 Y39.9226 
G01 X3.6409 Y39.7610 
G01 X3.7040 Y39.6089 
G01 X3.7955 Y39.4719 
G01 X3.9119 Y39.3555 
G01 X4.0489 Y39.2640 
G01 X4.2010 Y39.2009 
G01 X4.3626 Y39.1688 
G01 X4.5273 Y39.1688 
G01 X4.6889 Y39.2009 
G01 X4.8410 Y39.2640 
G01 X4.9780 Y39.3555 
G01 X5.0944 Y39.4719 
G01 X5.1859 Y39.6089 
G01 X5.2490 Y39.7610 
G01 X5.2811 Y39.9226 
G00 Z1.0000 
G00 X5.2811 Y32.0386 
G01 Z-0.1000 F150.00 
G01 X5.2811 Y32.7313 
G01 X4.7913 Y33.2211 
G01 X4.0986 Y33.2211 
G01 X3.6088 Y32.7313 
G01 X3.6088 Y32.0386 
G01 X4.0986 Y31.5488 
G01 X4.7913 Y31.5488 
G01 X5.2811 Y32.0386 
G00 Z1.0000 
G00 X7.8211 Y32.0386 
G01 Z-0.1000 F150.00 
G01 X7.8211 Y32.7313 
G01 X7.3313 Y33.2211 
G01 X6.6386 Y33.2211 
G01 X6.1488 Y32.7313 
G01 X6.1488 Y32.0386 
G01 X6.6386 Y31.5488 
G01 X7.3313 Y31.5488 
G01 X7.8211 Y32.0386 
G00 Z1.0000 
G00 X5.2811 Y29.4986 
G01 Z-0.1000 F150.00 
G01 X5.2811 Y30.1913 
G01 X4.7913 Y30.6811 
G01 X4.0986 Y30.6811 
G01 X3.6088 Y30.1913 
G01 X3.6088 Y29.4986 
G01 X4.0986 Y29.0088 
G01 X4.7913 Y29.0088 
G01 X5.2811 Y29.4986 
G00 Z1.0000 
G00 X7.8211 Y29.4986 
G01 Z-0.1000 F150.00 
G01 X7.8211 Y30.1913 
G01 X7.3313 Y30.6811 
G01 X6.6386 Y30.6811 
G01 X6.1488 Y30.1913 
G01 X6.1488 Y29.4986 
G01 X6.6386 Y29.0088 
G01 X7.3313 Y29.0088 
G01 X7.8211 Y29.4986 
G00 Z1.0000 
G00 X5.2811 Y26.9586 
G01 Z-0.1000 F150.00 
G01 X5.2811 Y27.6513 
G01 X4.7913 Y28.1411 
G01 X4.0986 Y28.1411 
G01 X3.6088 Y27.6513 
G01 X3.6088 Y26.9586 
G01 X4.0986 Y26.4688 
G01 X4.7913 Y26.4688 
G01 X5.2811 Y26.9586 
G00 Z1.0000 
G00 X7.8211 Y26.9586 
G01 Z-0.1000 F150.00 
G01 X7.8211 Y27.6513 
G01 X7.3313 Y28.1411 
G01 X6.6386 Y28.1411 
G01 X6.1488 Y27.6513 
G01 X6.1488 Y26.9586 
G01 X6.6386 Y26.4688 
G01 X7.3313 Y26.4688 
G01 X7.8211 Y26.9586 
G00 Z1.0000 
G00 X5.2811 Y24.4186 
G01 Z-0.1000 F150.00 
G01 X5.2811 Y25.1113 
G01 X4.7913 Y25.6011 
G01 X4.0986 Y25.6011 
G01 X3.6088 Y25.1113 
G01 X3.6088 Y24.4186 
G01 X4.0986 Y23.9288 
G01 X4.7913 Y23.9288 
G01 X5.2811 Y24.4186 
G00 Z1.0000 
G00 X7.8211 Y24.4186 
G01 Z-0.1000 F150.00 
G01 X7.8211 Y25.1113 
G01 X7.3313 Y25.6011 
G01 X6.6386 Y25.6011 
G01 X6.1488 Y25.1113 
G01 X6.1488 Y24.4186 
G01 X6.6386 Y23.9288 
G01 X7.3313 Y23.9288 
G01 X7.8211 Y24.4186 
G00 Z1.0000 
G00 X5.2811 Y17.0626 
G01 Z-0.1000 F150.00 
G01 X5.2811 Y17.2273 
G01 X5.2490 Y17.3889 
G01 X5.1859 Y17.5410 
G01 X5.0944 Y17.6780 
G01 X4.9780 Y17.7944 
G01 X4.8410 Y17.8859 
G01 X4.6889 Y17.9490 
G01 X4.5273 Y17.9811 
G01 X4.3626 Y17.9811 
G01 X4.2010 Y17.9490 
G01 X4.0489 Y17.8859 
G01 X3.9119 Y17.7944 
G01 X3.7955 Y17.6780 
G01 X3.7040 Y17.5410 
G01 X3.6409 Y17.3889 
G01 X3.6088 Y17.2273 
G01 X3.6088 Y17.0626 
G01 X3.6409 Y16.9010 
G01 X3.7040 Y16.7489 
G01 X3.7955 Y16.6119 
G01 X3.9119 Y16.4955 
G01 X4.0489 Y16.4040 
G01 X4.2010 Y16.3409 
G01 X4.3626 Y16.3088 
G01 X4.5273 Y16.3088 
G01 X4.6889 Y16.3409 
G01 X4.8410 Y16.4040 
G01 X4.9780 Y16.4955 
G01 X5.0944 Y16.6119 
G01 X5.1859 Y16.7489 
G01 X5.2490 Y16.9010 
G01 X5.2811 Y17.0626 
G00 Z1.0000 
G00 X5.2811 Y19.6026 
G01 Z-0.1000 F150.00 
G01 X5.2811 Y19.7673 
G01 X5.2490 Y19.9289 
G01 X5.1859 Y20.0810 
G01 X5.0944 Y20.2180 
G01 X4.9780 Y20.3344 
G01 X4.8410 Y20.4259 
G01 X4.6889 Y20.4890 
G01 X4.5273 Y20.5211 
G01 X4.3626 Y20.5211 
G01 X4.2010 Y20.4890 
G01 X4.0489 Y20.4259 
G01 X3.9119 Y20.3344 
G01 X3.7955 Y20.2180 
G01 X3.7040 Y20.0810 
G01 X3.6409 Y19.9289 
G01 X3.6088 Y19.7673 
G01 X3.6088 Y19.6026 
G01 X3.6409 Y19.4410 
G01 X3.7040 Y19.2889 
G01 X3.7955 Y19.1519 
G01 X3.9119 Y19.0355 
G01 X4.0489 Y18.9440 
G01 X4.2010 Y18.8809 
G01 X4.3626 Y18.8488 
G01 X4.5273 Y18.8488 
G01 X4.6889 Y18.8809 
G01 X4.8410 Y18.9440 
G01 X4.9780 Y19.0355 
G01 X5.0944 Y19.1519 
G01 X5.1859 Y19.2889 
G01 X5.2490 Y19.4410 
G01 X5.2811 Y19.6026 
G00 Z1.0000 
G00 X7.8211 Y17.0626 
G01 Z-0.1000 F150.00 
G01 X7.8211 Y17.2273 
G01 X7.7890 Y17.3889 
G01 X7.7259 Y17.5410 
G01 X7.6344 Y17.6780 
G01 X7.5180 Y17.7944 
G01 X7.3810 Y17.8859 
G01 X7.2289 Y17.9490 
G01 X7.0673 Y17.9811 
G01 X6.9026 Y17.9811 
G01 X6.7410 Y17.9490 
G01 X6.5889 Y17.8859 
G01 X6.4519 Y17.7944 
G01 X6.3355 Y17.6780 
G01 X6.2440 Y17.5410 
G01 X6.1809 Y17.3889 
G01 X6.1488 Y17.2273 
G01 X6.1488 Y17.0626 
G01 X6.1809 Y16.9010 
G01 X6.2440 Y16.7489 
G01 X6.3355 Y16.6119 
G01 X6.4519 Y16.4955 
G01 X6.5889 Y16.4040 
G01 X6.7410 Y16.3409 
G01 X6.9026 Y16.3088 
G01 X7.0673 Y16.3088 
G01 X7.2289 Y16.3409 
G01 X7.3810 Y16.4040 
G01 X7.5180 Y16.4955 
G01 X7.6344 Y16.6119 
G01 X7.7259 Y16.7489 
G01 X7.7890 Y16.9010 
G01 X7.8211 Y17.0626 
G00 Z1.0000 
G00 X7.8211 Y19.6026 
G01 Z-0.1000 F150.00 
G01 X7.8211 Y19.7673 
G01 X7.7890 Y19.9289 
G01 X7.7259 Y20.0810 
G01 X7.6344 Y20.2180 
G01 X7.5180 Y20.3344 
G01 X7.3810 Y20.4259 
G01 X7.2289 Y20.4890 
G01 X7.0673 Y20.5211 
G01 X6.9026 Y20.5211 
G01 X6.7410 Y20.4890 
G01 X6.5889 Y20.4259 
G01 X6.4519 Y20.3344 
G01 X6.3355 Y20.2180 
G01 X6.2440 Y20.0810 
G01 X6.1809 Y19.9289 
G01 X6.1488 Y19.7673 
G01 X6.1488 Y19.6026 
G01 X6.1809 Y19.4410 
G01 X6.2440 Y19.2889 
G01 X6.3355 Y19.1519 
G01 X6.4519 Y19.0355 
G01 X6.5889 Y18.9440 
G01 X6.7410 Y18.8809 
G01 X6.9026 Y18.8488 
G01 X7.0673 Y18.8488 
G01 X7.2289 Y18.8809 
G01 X7.3810 Y18.9440 
G01 X7.5180 Y19.0355 
G01 X7.6344 Y19.1519 
G01 X7.7259 Y19.2889 
G01 X7.7890 Y19.4410 
G01 X7.8211 Y19.6026 
G00 Z1.0000 
G00 X10.3611 Y17.0626 
G01 Z-0.1000 F150.00 
G01 X10.3611 Y17.2273 
G01 X10.3290 Y17.3889 
G01 X10.2659 Y17.5410 
G01 X10.1744 Y17.6780 
G01 X10.0580 Y17.7944 
G01 X9.9210 Y17.8859 
G01 X9.7689 Y17.9490 
G01 X9.6073 Y17.9811 
G01 X9.4426 Y17.9811 
G01 X9.2810 Y17.9490 
G01 X9.1289 Y17.8859 
G01 X8.9919 Y17.7944 
G01 X8.8755 Y17.6780 
G01 X8.7840 Y17.5410 
G01 X8.7209 Y17.3889 
G01 X8.6888 Y17.2273 
G01 X8.6888 Y17.0626 
G01 X8.7209 Y16.9010 
G01 X8.7840 Y16.7489 
G01 X8.8755 Y16.6119 
G01 X8.9919 Y16.4955 
G01 X9.1289 Y16.4040 
G01 X9.2810 Y16.3409 
G01 X9.4426 Y16.3088 
G01 X9.6073 Y16.3088 
G01 X9.7689 Y16.3409 
G01 X9.9210 Y16.4040 
G01 X10.0580 Y16.4955 
G01 X10.1744 Y16.6119 
G01 X10.2659 Y16.7489 
G01 X10.3290 Y16.9010 
G01 X10.3611 Y17.0626 
G00 Z1.0000 
G00 X10.3611 Y19.6026 
G01 Z-0.1000 F150.00 
G01 X10.3611 Y19.7673 
G01 X10.3290 Y19.9289 
G01 X10.2659 Y20.0810 
G01 X10.1744 Y20.2180 
G01 X10.0580 Y20.3344 
G01 X9.9210 Y20.4259 
G01 X9.7689 Y20.4890 
G01 X9.6073 Y20.5211 
G01 X9.4426 Y20.5211 
G01 X9.2810 Y20.4890 
G01 X9.1289 Y20.4259 
G01 X8.9919 Y20.3344 
G01 X8.8755 Y20.2180 
G01 X8.7840 Y20.0810 
G01 X8.7209 Y19.9289 
G01 X8.6888 Y19.7673 
G01 X8.6888 Y19.6026 
G01 X8.7209 Y19.4410 
G01 X8.7840 Y19.2889 
G01 X8.8755 Y19.1519 
G01 X8.9919 Y19.0355 
G01 X9.1289 Y18.9440 
G01 X9.2810 Y18.8809 
G01 X9.4426 Y18.8488 
G01 X9.6073 Y18.8488 
G01 X9.7689 Y18.8809 
G01 X9.9210 Y18.9440 
G01 X10.0580 Y19.0355 
G01 X10.1744 Y19.1519 
G01 X10.2659 Y19.2889 
G01 X10.3290 Y19.4410 
G01 X10.3611 Y19.6026 
G00 Z1.0000 
G00 X12.9011 Y17.0626 
G01 Z-0.1000 F150.00 
G01 X12.9011 Y17.2273 
G01 X12.8690 Y17.3889 
G01 X12.8059 Y17.5410 
G01 X12.7144 Y17.6780 
G01 X12.5980 Y17.7944 
G01 X12.4610 Y17.8859 
G01 X12.3089 Y17.9490 
G01 X12.1473 Y17.9811 
G01 X11.9826 Y17.9811 
G01 X11.8210 Y17.9490 
G01 X11.6689 Y17.8859 
G01 X11.5319 Y17.7944 
G01 X11.4155 Y17.6780 
G01 X11.3240 Y17.5410 
G01 X11.2609 Y17.3889 
G01 X11.2288 Y17.2273 
G01 X11.2288 Y17.0626 
G01 X11.2609 Y16.9010 
G01 X11.3240 Y16.7489 
G01 X11.4155 Y16.6119 
G01 X11.5319 Y16.4955 
G01 X11.6689 Y16.4040 
G01 X11.8210 Y16.3409 
G01 X11.9826 Y16.3088 
G01 X12.1473 Y16.3088 
G01 X12.3089 Y16.3409 
G01 X12.4610 Y16.4040 
G01 X12.5980 Y16.4955 
G01 X12.7144 Y16.6119 
G01 X12.8059 Y16.7489 
G01 X12.8690 Y16.9010 
G01 X12.9011 Y17.0626 
G00 Z1.0000 
G00 X12.9011 Y19.6026 
G01 Z-0.1000 F150.00 
G01 X12.9011 Y19.7673 
G01 X12.8690 Y19.9289 
G01 X12.8059 Y20.0810 
G01 X12.7144 Y20.2180 
G01 X12.5980 Y20.3344 
G01 X12.4610 Y20.4259 
G01 X12.3089 Y20.4890 
G01 X12.1473 Y20.5211 
G01 X11.9826 Y20.5211 
G01 X11.8210 Y20.4890 
G01 X11.6689 Y20.4259 
G01 X11.5319 Y20.3344 
G01 X11.4155 Y20.2180 
G01 X11.3240 Y20.0810 
G01 X11.2609 Y19.9289 
G01 X11.2288 Y19.7673 
G01 X11.2288 Y19.6026 
G01 X11.2609 Y19.4410 
G01 X11.3240 Y19.2889 
G01 X11.4155 Y19.1519 
G01 X11.5319 Y19.0355 
G01 X11.6689 Y18.9440 
G01 X11.8210 Y18.8809 
G01 X11.9826 Y18.8488 
G01 X12.1473 Y18.8488 
G01 X12.3089 Y18.8809 
G01 X12.4610 Y18.9440 
G01 X12.5980 Y19.0355 
G01 X12.7144 Y19.1519 
G01 X12.8059 Y19.2889 
G01 X12.8690 Y19.4410 
G01 X12.9011 Y19.6026 
G00 Z1.0000 
G00 X15.4411 Y17.0626 
G01 Z-0.1000 F150.00 
G01 X15.4411 Y17.2273 
G01 X15.4090 Y17.3889 
G01 X15.3459 Y17.5410 
G01 X15.2544 Y17.6780 
G01 X15.1380 Y17.7944 
G01 X15.0010 Y17.8859 
G01 X14.8489 Y17.9490 
G01 X14.6873 Y17.9811 
G01 X14.5226 Y17.9811 
G01 X14.3610 Y17.9490 
G01 X14.2089 Y17.8859 
G01 X14.0719 Y17.7944 
G01 X13.9555 Y17.6780 
G01 X13.8640 Y17.5410 
G01 X13.8009 Y17.3889 
G01 X13.7688 Y17.2273 
G01 X13.7688 Y17.0626 
G01 X13.8009 Y16.9010 
G01 X13.8640 Y16.7489 
G01 X13.9555 Y16.6119 
G01 X14.0719 Y16.4955 
G01 X14.2089 Y16.4040 
G01 X14.3610 Y16.3409 
G01 X14.5226 Y16.3088 
G01 X14.6873 Y16.3088 
G01 X14.8489 Y16.3409 
G01 X15.0010 Y16.4040 
G01 X15.1380 Y16.4955 
G01 X15.2544 Y16.6119 
G01 X15.3459 Y16.7489 
G01 X15.4090 Y16.9010 
G01 X15.4411 Y17.0626 
G00 Z1.0000 
G00 X15.4411 Y19.6026 
G01 Z-0.1000 F150.00 
G01 X15.4411 Y19.7673 
G01 X15.4090 Y19.9289 
G01 X15.3459 Y20.0810 
G01 X15.2544 Y20.2180 
G01 X15.1380 Y20.3344 
G01 X15.0010 Y20.4259 
G01 X14.8489 Y20.4890 
G01 X14.6873 Y20.5211 
G01 X14.5226 Y20.5211 
G01 X14.3610 Y20.4890 
G01 X14.2089 Y20.4259 
G01 X14.0719 Y20.3344 
G01 X13.9555 Y20.2180 
G01 X13.8640 Y20.0810 
G01 X13.8009 Y19.9289 
G01 X13.7688 Y19.7673 
G01 X13.7688 Y19.6026 
G01 X13.8009 Y19.4410 
G01 X13.8640 Y19.2889 
G01 X13.9555 Y19.1519 
G01 X14.0719 Y19.0355 
G01 X14.2089 Y18.9440 
G01 X14.3610 Y18.8809 
G01 X14.5226 Y18.8488 
G01 X14.6873 Y18.8488 
G01 X14.8489 Y18.8809 
G01 X15.0010 Y18.9440 
G01 X15.1380 Y19.0355 
G01 X15.2544 Y19.1519 
G01 X15.3459 Y19.2889 
G01 X15.4090 Y19.4410 
G01 X15.4411 Y19.6026 
G00 Z1.0000 
G00 X17.9811 Y17.0626 
G01 Z-0.1000 F150.00 
G01 X17.9811 Y17.2273 
G01 X17.9490 Y17.3889 
G01 X17.8859 Y17.5410 
G01 X17.7944 Y17.6780 
G01 X17.6780 Y17.7944 
G01 X17.5410 Y17.8859 
G01 X17.3889 Y17.9490 
G01 X17.2273 Y17.9811 
G01 X17.0626 Y17.9811 
G01 X16.9010 Y17.9490 
G01 X16.7489 Y17.8859 
G01 X16.6119 Y17.7944 
G01 X16.4955 Y17.6780 
G01 X16.4040 Y17.5410 
G01 X16.3409 Y17.3889 
G01 X16.3088 Y17.2273 
G01 X16.3088 Y17.0626 
G01 X16.3409 Y16.9010 
G01 X16.4040 Y16.7489 
G01 X16.4955 Y16.6119 
G01 X16.6119 Y16.4955 
G01 X16.7489 Y16.4040 
G01 X16.9010 Y16.3409 
G01 X17.0626 Y16.3088 
G01 X17.2273 Y16.3088 
G01 X17.3889 Y16.3409 
G01 X17.5410 Y16.4040 
G01 X17.6780 Y16.4955 
G01 X17.7944 Y16.6119 
G01 X17.8859 Y16.7489 
G01 X17.9490 Y16.9010 
G01 X17.9811 Y17.0626 
G00 Z1.0000 
G00 X17.9811 Y19.6026 
G01 Z-0.1000 F150.00 
G01 X17.9811 Y19.7673 
G01 X17.9490 Y19.9289 
G01 X17.8859 Y20.0810 
G01 X17.7944 Y20.2180 
G01 X17.6780 Y20.3344 
G01 X17.5410 Y20.4259 
G01 X17.3889 Y20.4890 
G01 X17.2273 Y20.5211 
G01 X17.0626 Y20.5211 
G01 X16.9010 Y20.4890 
G01 X16.7489 Y20.4259 
G01 X16.6119 Y20.3344 
G01 X16.4955 Y20.2180 
G01 X16.4040 Y20.0810 
G01 X16.3409 Y19.9289 
G01 X16.3088 Y19.7673 
G01 X16.3088 Y19.6026 
G01 X16.3409 Y19.4410 
G01 X16.4040 Y19.2889 
G01 X16.4955 Y19.1519 
G01 X16.6119 Y19.0355 
G01 X16.7489 Y18.9440 
G01 X16.9010 Y18.8809 
G01 X17.0626 Y18.8488 
G01 X17.2273 Y18.8488 
G01 X17.3889 Y18.8809 
G01 X17.5410 Y18.9440 
G01 X17.6780 Y19.0355 
G01 X17.7944 Y19.1519 
G01 X17.8859 Y19.2889 
G01 X17.9490 Y19.4410 
G01 X17.9811 Y19.6026 
G00 Z1.0000 
G00 X20.5211 Y17.0626 
G01 Z-0.1000 F150.00 
G01 X20.5211 Y17.2273 
G01 X20.4890 Y17.3889 
G01 X20.4259 Y17.5410 
G01 X20.3344 Y17.6780 
G01 X20.2180 Y17.7944 
G01 X20.0810 Y17.8859 
G01 X19.9289 Y17.9490 
G01 X19.7673 Y17.9811 
G01 X19.6026 Y17.9811 
G01 X19.4410 Y17.9490 
G01 X19.2889 Y17.8859 
G01 X19.1519 Y17.7944 
G01 X19.0355 Y17.6780 
G01 X18.9440 Y17.5410 
G01 X18.8809 Y17.3889 
G01 X18.8488 Y17.2273 
G01 X18.8488 Y17.0626 
G01 X18.8809 Y16.9010 
G01 X18.9440 Y16.7489 
G01 X19.0355 Y16.6119 
G01 X19.1519 Y16.4955 
G01 X19.2889 Y16.4040 
G01 X19.4410 Y16.3409 
G01 X19.6026 Y16.3088 
G01 X19.7673 Y16.3088 
G01 X19.9289 Y16.3409 
G01 X20.0810 Y16.4040 
G01 X20.2180 Y16.4955 
G01 X20.3344 Y16.6119 
G01 X20.4259 Y16.7489 
G01 X20.4890 Y16.9010 
G01 X20.5211 Y17.0626 
G00 Z1.0000 
G00 X20.5211 Y19.6026 
G01 Z-0.1000 F150.00 
G01 X20.5211 Y19.7673 
G01 X20.4890 Y19.9289 
G01 X20.4259 Y20.0810 
G01 X20.3344 Y20.2180 
G01 X20.2180 Y20.3344 
G01 X20.0810 Y20.4259 
G01 X19.9289 Y20.4890 
G01 X19.7673 Y20.5211 
G01 X19.6026 Y20.5211 
G01 X19.4410 Y20.4890 
G01 X19.2889 Y20.4259 
G01 X19.1519 Y20.3344 
G01 X19.0355 Y20.2180 
G01 X18.9440 Y20.0810 
G01 X18.8809 Y19.9289 
G01 X18.8488 Y19.7673 
G01 X18.8488 Y19.6026 
G01 X18.8809 Y19.4410 
G01 X18.9440 Y19.2889 
G01 X19.0355 Y19.1519 
G01 X19.1519 Y19.0355 
G01 X19.2889 Y18.9440 
G01 X19.4410 Y18.8809 
G01 X19.6026 Y18.8488 
G01 X19.7673 Y18.8488 
G01 X19.9289 Y18.8809 
G01 X20.0810 Y18.9440 
G01 X20.2180 Y19.0355 
G01 X20.3344 Y19.1519 
G01 X20.4259 Y19.2889 
G01 X20.4890 Y19.4410 
G01 X20.5211 Y19.6026 
G00 Z1.0000 
G00 X23.0611 Y17.0626 
G01 Z-0.1000 F150.00 
G01 X23.0611 Y17.2273 
G01 X23.0290 Y17.3889 
G01 X22.9659 Y17.5410 
G01 X22.8744 Y17.6780 
G01 X22.7580 Y17.7944 
G01 X22.6210 Y17.8859 
G01 X22.4689 Y17.9490 
G01 X22.3073 Y17.9811 
G01 X22.1426 Y17.9811 
G01 X21.9810 Y17.9490 
G01 X21.8289 Y17.8859 
G01 X21.6919 Y17.7944 
G01 X21.5755 Y17.6780 
G01 X21.4840 Y17.5410 
G01 X21.4209 Y17.3889 
G01 X21.3888 Y17.2273 
G01 X21.3888 Y17.0626 
G01 X21.4209 Y16.9010 
G01 X21.4840 Y16.7489 
G01 X21.5755 Y16.6119 
G01 X21.6919 Y16.4955 
G01 X21.8289 Y16.4040 
G01 X21.9810 Y16.3409 
G01 X22.1426 Y16.3088 
G01 X22.3073 Y16.3088 
G01 X22.4689 Y16.3409 
G01 X22.6210 Y16.4040 
G01 X22.7580 Y16.4955 
G01 X22.8744 Y16.6119 
G01 X22.9659 Y16.7489 
G01 X23.0290 Y16.9010 
G01 X23.0611 Y17.0626 
G00 Z1.0000 
G00 X23.0611 Y19.6026 
G01 Z-0.1000 F150.00 
G01 X23.0611 Y19.7673 
G01 X23.0290 Y19.9289 
G01 X22.9659 Y20.0810 
G01 X22.8744 Y20.2180 
G01 X22.7580 Y20.3344 
G01 X22.6210 Y20.4259 
G01 X22.4689 Y20.4890 
G01 X22.3073 Y20.5211 
G01 X22.1426 Y20.5211 
G01 X21.9810 Y20.4890 
G01 X21.8289 Y20.4259 
G01 X21.6919 Y20.3344 
G01 X21.5755 Y20.2180 
G01 X21.4840 Y20.0810 
G01 X21.4209 Y19.9289 
G01 X21.3888 Y19.7673 
G01 X21.3888 Y19.6026 
G01 X21.4209 Y19.4410 
G01 X21.4840 Y19.2889 
G01 X21.5755 Y19.1519 
G01 X21.6919 Y19.0355 
G01 X21.8289 Y18.9440 
G01 X21.9810 Y18.8809 
G01 X22.1426 Y18.8488 
G01 X22.3073 Y18.8488 
G01 X22.4689 Y18.8809 
G01 X22.6210 Y18.9440 
G01 X22.7580 Y19.0355 
G01 X22.8744 Y19.1519 
G01 X22.9659 Y19.2889 
G01 X23.0290 Y19.4410 
G01 X23.0611 Y19.6026 
G00 Z1.0000 
G00 X25.6011 Y17.0626 
G01 Z-0.1000 F150.00 
G01 X25.6011 Y17.2273 
G01 X25.5690 Y17.3889 
G01 X25.5059 Y17.5410 
G01 X25.4144 Y17.6780 
G01 X25.2980 Y17.7944 
G01 X25.1610 Y17.8859 
G01 X25.0089 Y17.9490 
G01 X24.8473 Y17.9811 
G01 X24.6826 Y17.9811 
G01 X24.5210 Y17.9490 
G01 X24.3689 Y17.8859 
G01 X24.2319 Y17.7944 
G01 X24.1155 Y17.6780 
G01 X24.0240 Y17.5410 
G01 X23.9609 Y17.3889 
G01 X23.9288 Y17.2273 
G01 X23.9288 Y17.0626 
G01 X23.9609 Y16.9010 
G01 X24.0240 Y16.7489 
G01 X24.1155 Y16.6119 
G01 X24.2319 Y16.4955 
G01 X24.3689 Y16.4040 
G01 X24.5210 Y16.3409 
G01 X24.6826 Y16.3088 
G01 X24.8473 Y16.3088 
G01 X25.0089 Y16.3409 
G01 X25.1610 Y16.4040 
G01 X25.2980 Y16.4955 
G01 X25.4144 Y16.6119 
G01 X25.5059 Y16.7489 
G01 X25.5690 Y16.9010 
G01 X25.6011 Y17.0626 
G00 Z1.0000 
G00 X25.6011 Y19.6026 
G01 Z-0.1000 F150.00 
G01 X25.6011 Y19.7673 
G01 X25.5690 Y19.9289 
G01 X25.5059 Y20.0810 
G01 X25.4144 Y20.2180 
G01 X25.2980 Y20.3344 
G01 X25.1610 Y20.4259 
G01 X25.0089 Y20.4890 
G01 X24.8473 Y20.5211 
G01 X24.6826 Y20.5211 
G01 X24.5210 Y20.4890 
G01 X24.3689 Y20.4259 
G01 X24.2319 Y20.3344 
G01 X24.1155 Y20.2180 
G01 X24.0240 Y20.0810 
G01 X23.9609 Y19.9289 
G01 X23.9288 Y19.7673 
G01 X23.9288 Y19.6026 
G01 X23.9609 Y19.4410 
G01 X24.0240 Y19.2889 
G01 X24.1155 Y19.1519 
G01 X24.2319 Y19.0355 
G01 X24.3689 Y18.9440 
G01 X24.5210 Y18.8809 
G01 X24.6826 Y18.8488 
G01 X24.8473 Y18.8488 
G01 X25.0089 Y18.8809 
G01 X25.1610 Y18.9440 
G01 X25.2980 Y19.0355 
G01 X25.4144 Y19.1519 
G01 X25.5059 Y19.2889 
G01 X25.5690 Y19.4410 
G01 X25.6011 Y19.6026 
G00 Z1.0000 
G00 X28.1411 Y17.0626 
G01 Z-0.1000 F150.00 
G01 X28.1411 Y17.2273 
G01 X28.1090 Y17.3889 
G01 X28.0459 Y17.5410 
G01 X27.9544 Y17.6780 
G01 X27.8380 Y17.7944 
G01 X27.7010 Y17.8859 
G01 X27.5489 Y17.9490 
G01 X27.3873 Y17.9811 
G01 X27.2226 Y17.9811 
G01 X27.0610 Y17.9490 
G01 X26.9089 Y17.8859 
G01 X26.7719 Y17.7944 
G01 X26.6555 Y17.6780 
G01 X26.5640 Y17.5410 
G01 X26.5009 Y17.3889 
G01 X26.4688 Y17.2273 
G01 X26.4688 Y17.0626 
G01 X26.5009 Y16.9010 
G01 X26.5640 Y16.7489 
G01 X26.6555 Y16.6119 
G01 X26.7719 Y16.4955 
G01 X26.9089 Y16.4040 
G01 X27.0610 Y16.3409 
G01 X27.2226 Y16.3088 
G01 X27.3873 Y16.3088 
G01 X27.5489 Y16.3409 
G01 X27.7010 Y16.4040 
G01 X27.8380 Y16.4955 
G01 X27.9544 Y16.6119 
G01 X28.0459 Y16.7489 
G01 X28.1090 Y16.9010 
G01 X28.1411 Y17.0626 
G00 Z1.0000 
G00 X28.1411 Y19.6026 
G01 Z-0.1000 F150.00 
G01 X28.1411 Y19.7673 
G01 X28.1090 Y19.9289 
G01 X28.0459 Y20.0810 
G01 X27.9544 Y20.2180 
G01 X27.8380 Y20.3344 
G01 X27.7010 Y20.4259 
G01 X27.5489 Y20.4890 
G01 X27.3873 Y20.5211 
G01 X27.2226 Y20.5211 
G01 X27.0610 Y20.4890 
G01 X26.9089 Y20.4259 
G01 X26.7719 Y20.3344 
G01 X26.6555 Y20.2180 
G01 X26.5640 Y20.0810 
G01 X26.5009 Y19.9289 
G01 X26.4688 Y19.7673 
G01 X26.4688 Y19.6026 
G01 X26.5009 Y19.4410 
G01 X26.5640 Y19.2889 
G01 X26.6555 Y19.1519 
G01 X26.7719 Y19.0355 
G01 X26.9089 Y18.9440 
G01 X27.0610 Y18.8809 
G01 X27.2226 Y18.8488 
G01 X27.3873 Y18.8488 
G01 X27.5489 Y18.8809 
G01 X27.7010 Y18.9440 
G01 X27.8380 Y19.0355 
G01 X27.9544 Y19.1519 
G01 X28.0459 Y19.2889 
G01 X28.1090 Y19.4410 
G01 X28.1411 Y19.6026 
G00 Z1.0000 
G00 X30.6811 Y17.0626 
G01 Z-0.1000 F150.00 
G01 X30.6811 Y17.2273 
G01 X30.6490 Y17.3889 
G01 X30.5859 Y17.5410 
G01 X30.4944 Y17.6780 
G01 X30.3780 Y17.7944 
G01 X30.2410 Y17.8859 
G01 X30.0889 Y17.9490 
G01 X29.9273 Y17.9811 
G01 X29.7626 Y17.9811 
G01 X29.6010 Y17.9490 
G01 X29.4489 Y17.8859 
G01 X29.3119 Y17.7944 
G01 X29.1955 Y17.6780 
G01 X29.1040 Y17.5410 
G01 X29.0409 Y17.3889 
G01 X29.0088 Y17.2273 
G01 X29.0088 Y17.0626 
G01 X29.0409 Y16.9010 
G01 X29.1040 Y16.7489 
G01 X29.1955 Y16.6119 
G01 X29.3119 Y16.4955 
G01 X29.4489 Y16.4040 
G01 X29.6010 Y16.3409 
G01 X29.7626 Y16.3088 
G01 X29.9273 Y16.3088 
G01 X30.0889 Y16.3409 
G01 X30.2410 Y16.4040 
G01 X30.3780 Y16.4955 
G01 X30.4944 Y16.6119 
G01 X30.5859 Y16.7489 
G01 X30.6490 Y16.9010 
G01 X30.6811 Y17.0626 
G00 Z1.0000 
G00 X30.6811 Y19.6026 
G01 Z-0.1000 F150.00 
G01 X30.6811 Y19.7673 
G01 X30.6490 Y19.9289 
G01 X30.5859 Y20.0810 
G01 X30.4944 Y20.2180 
G01 X30.3780 Y20.3344 
G01 X30.2410 Y20.4259 
G01 X30.0889 Y20.4890 
G01 X29.9273 Y20.5211 
G01 X29.7626 Y20.5211 
G01 X29.6010 Y20.4890 
G01 X29.4489 Y20.4259 
G01 X29.3119 Y20.3344 
G01 X29.1955 Y20.2180 
G01 X29.1040 Y20.0810 
G01 X29.0409 Y19.9289 
G01 X29.0088 Y19.7673 
G01 X29.0088 Y19.6026 
G01 X29.0409 Y19.4410 
G01 X29.1040 Y19.2889 
G01 X29.1955 Y19.1519 
G01 X29.3119 Y19.0355 
G01 X29.4489 Y18.9440 
G01 X29.6010 Y18.8809 
G01 X29.7626 Y18.8488 
G01 X29.9273 Y18.8488 
G01 X30.0889 Y18.8809 
G01 X30.2410 Y18.9440 
G01 X30.3780 Y19.0355 
G01 X30.4944 Y19.1519 
G01 X30.5859 Y19.2889 
G01 X30.6490 Y19.4410 
G01 X30.6811 Y19.6026 
G00 Z1.0000 
G00 X33.2211 Y17.0626 
G01 Z-0.1000 F150.00 
G01 X33.2211 Y17.2273 
G01 X33.1890 Y17.3889 
G01 X33.1259 Y17.5410 
G01 X33.0344 Y17.6780 
G01 X32.9180 Y17.7944 
G01 X32.7810 Y17.8859 
G01 X32.6289 Y17.9490 
G01 X32.4673 Y17.9811 
G01 X32.3026 Y17.9811 
G01 X32.1410 Y17.9490 
G01 X31.9889 Y17.8859 
G01 X31.8519 Y17.7944 
G01 X31.7355 Y17.6780 
G01 X31.6440 Y17.5410 
G01 X31.5809 Y17.3889 
G01 X31.5488 Y17.2273 
G01 X31.5488 Y17.0626 
G01 X31.5809 Y16.9010 
G01 X31.6440 Y16.7489 
G01 X31.7355 Y16.6119 
G01 X31.8519 Y16.4955 
G01 X31.9889 Y16.4040 
G01 X32.1410 Y16.3409 
G01 X32.3026 Y16.3088 
G01 X32.4673 Y16.3088 
G01 X32.6289 Y16.3409 
G01 X32.7810 Y16.4040 
G01 X32.9180 Y16.4955 
G01 X33.0344 Y16.6119 
G01 X33.1259 Y16.7489 
G01 X33.1890 Y16.9010 
G01 X33.2211 Y17.0626 
G00 Z1.0000 
G00 X33.2211 Y19.6026 
G01 Z-0.1000 F150.00 
G01 X33.2211 Y19.7673 
G01 X33.1890 Y19.9289 
G01 X33.1259 Y20.0810 
G01 X33.0344 Y20.2180 
G01 X32.9180 Y20.3344 
G01 X32.7810 Y20.4259 
G01 X32.6289 Y20.4890 
G01 X32.4673 Y20.5211 
G01 X32.3026 Y20.5211 
G01 X32.1410 Y20.4890 
G01 X31.9889 Y20.4259 
G01 X31.8519 Y20.3344 
G01 X31.7355 Y20.2180 
G01 X31.6440 Y20.0810 
G01 X31.5809 Y19.9289 
G01 X31.5488 Y19.7673 
G01 X31.5488 Y19.6026 
G01 X31.5809 Y19.4410 
G01 X31.6440 Y19.2889 
G01 X31.7355 Y19.1519 
G01 X31.8519 Y19.0355 
G01 X31.9889 Y18.9440 
G01 X32.1410 Y18.8809 
G01 X32.3026 Y18.8488 
G01 X32.4673 Y18.8488 
G01 X32.6289 Y18.8809 
G01 X32.7810 Y18.9440 
G01 X32.9180 Y19.0355 
G01 X33.0344 Y19.1519 
G01 X33.1259 Y19.2889 
G01 X33.1890 Y19.4410 
G01 X33.2211 Y19.6026 
G00 Z1.0000 
G00 X35.7611 Y17.0626 
G01 Z-0.1000 F150.00 
G01 X35.7611 Y17.2273 
G01 X35.7290 Y17.3889 
G01 X35.6659 Y17.5410 
G01 X35.5744 Y17.6780 
G01 X35.4580 Y17.7944 
G01 X35.3210 Y17.8859 
G01 X35.1689 Y17.9490 
G01 X35.0073 Y17.9811 
G01 X34.8426 Y17.9811 
G01 X34.6810 Y17.9490 
G01 X34.5289 Y17.8859 
G01 X34.3919 Y17.7944 
G01 X34.2755 Y17.6780 
G01 X34.1840 Y17.5410 
G01 X34.1209 Y17.3889 
G01 X34.0888 Y17.2273 
G01 X34.0888 Y17.0626 
G01 X34.1209 Y16.9010 
G01 X34.1840 Y16.7489 
G01 X34.2755 Y16.6119 
G01 X34.3919 Y16.4955 
G01 X34.5289 Y16.4040 
G01 X34.6810 Y16.3409 
G01 X34.8426 Y16.3088 
G01 X35.0073 Y16.3088 
G01 X35.1689 Y16.3409 
G01 X35.3210 Y16.4040 
G01 X35.4580 Y16.4955 
G01 X35.5744 Y16.6119 
G01 X35.6659 Y16.7489 
G01 X35.7290 Y16.9010 
G01 X35.7611 Y17.0626 
G00 Z1.0000 
G00 X35.7611 Y19.6026 
G01 Z-0.1000 F150.00 
G01 X35.7611 Y19.7673 
G01 X35.7290 Y19.9289 
G01 X35.6659 Y20.0810 
G01 X35.5744 Y20.2180 
G01 X35.4580 Y20.3344 
G01 X35.3210 Y20.4259 
G01 X35.1689 Y20.4890 
G01 X35.0073 Y20.5211 
G01 X34.8426 Y20.5211 
G01 X34.6810 Y20.4890 
G01 X34.5289 Y20.4259 
G01 X34.3919 Y20.3344 
G01 X34.2755 Y20.2180 
G01 X34.1840 Y20.0810 
G01 X34.1209 Y19.9289 
G01 X34.0888 Y19.7673 
G01 X34.0888 Y19.6026 
G01 X34.1209 Y19.4410 
G01 X34.1840 Y19.2889 
G01 X34.2755 Y19.1519 
G01 X34.3919 Y19.0355 
G01 X34.5289 Y18.9440 
G01 X34.6810 Y18.8809 
G01 X34.8426 Y18.8488 
G01 X35.0073 Y18.8488 
G01 X35.1689 Y18.8809 
G01 X35.3210 Y18.9440 
G01 X35.4580 Y19.0355 
G01 X35.5744 Y19.1519 
G01 X35.6659 Y19.2889 
G01 X35.7290 Y19.4410 
G01 X35.7611 Y19.6026 
G00 Z1.0000 
G00 X38.3011 Y17.0626 
G01 Z-0.1000 F150.00 
G01 X38.3011 Y17.2273 
G01 X38.2690 Y17.3889 
G01 X38.2059 Y17.5410 
G01 X38.1144 Y17.6780 
G01 X37.9980 Y17.7944 
G01 X37.8610 Y17.8859 
G01 X37.7089 Y17.9490 
G01 X37.5473 Y17.9811 
G01 X37.3826 Y17.9811 
G01 X37.2210 Y17.9490 
G01 X37.0689 Y17.8859 
G01 X36.9319 Y17.7944 
G01 X36.8155 Y17.6780 
G01 X36.7240 Y17.5410 
G01 X36.6609 Y17.3889 
G01 X36.6288 Y17.2273 
G01 X36.6288 Y17.0626 
G01 X36.6609 Y16.9010 
G01 X36.7240 Y16.7489 
G01 X36.8155 Y16.6119 
G01 X36.9319 Y16.4955 
G01 X37.0689 Y16.4040 
G01 X37.2210 Y16.3409 
G01 X37.3826 Y16.3088 
G01 X37.5473 Y16.3088 
G01 X37.7089 Y16.3409 
G01 X37.8610 Y16.4040 
G01 X37.9980 Y16.4955 
G01 X38.1144 Y16.6119 
G01 X38.2059 Y16.7489 
G01 X38.2690 Y16.9010 
G01 X38.3011 Y17.0626 
G00 Z1.0000 
G00 X38.3011 Y19.6026 
G01 Z-0.1000 F150.00 
G01 X38.3011 Y19.7673 
G01 X38.2690 Y19.9289 
G01 X38.2059 Y20.0810 
G01 X38.1144 Y20.2180 
G01 X37.9980 Y20.3344 
G01 X37.8610 Y20.4259 
G01 X37.7089 Y20.4890 
G01 X37.5473 Y20.5211 
G01 X37.3826 Y20.5211 
G01 X37.2210 Y20.4890 
G01 X37.0689 Y20.4259 
G01 X36.9319 Y20.3344 
G01 X36.8155 Y20.2180 
G01 X36.7240 Y20.0810 
G01 X36.6609 Y19.9289 
G01 X36.6288 Y19.7673 
G01 X36.6288 Y19.6026 
G01 X36.6609 Y19.4410 
G01 X36.7240 Y19.2889 
G01 X36.8155 Y19.1519 
G01 X36.9319 Y19.0355 
G01 X37.0689 Y18.9440 
G01 X37.2210 Y18.8809 
G01 X37.3826 Y18.8488 
G01 X37.5473 Y18.8488 
G01 X37.7089 Y18.8809 
G01 X37.8610 Y18.9440 
G01 X37.9980 Y19.0355 
G01 X38.1144 Y19.1519 
G01 X38.2059 Y19.2889 
G01 X38.2690 Y19.4410 
G01 X38.3011 Y19.6026 
G00 Z1.0000 
G00 X40.8411 Y17.0626 
G01 Z-0.1000 F150.00 
G01 X40.8411 Y17.2273 
G01 X40.8090 Y17.3889 
G01 X40.7459 Y17.5410 
G01 X40.6544 Y17.6780 
G01 X40.5380 Y17.7944 
G01 X40.4010 Y17.8859 
G01 X40.2489 Y17.9490 
G01 X40.0873 Y17.9811 
G01 X39.9226 Y17.9811 
G01 X39.7610 Y17.9490 
G01 X39.6089 Y17.8859 
G01 X39.4719 Y17.7944 
G01 X39.3555 Y17.6780 
G01 X39.2640 Y17.5410 
G01 X39.2009 Y17.3889 
G01 X39.1688 Y17.2273 
G01 X39.1688 Y17.0626 
G01 X39.2009 Y16.9010 
G01 X39.2640 Y16.7489 
G01 X39.3555 Y16.6119 
G01 X39.4719 Y16.4955 
G01 X39.6089 Y16.4040 
G01 X39.7610 Y16.3409 
G01 X39.9226 Y16.3088 
G01 X40.0873 Y16.3088 
G01 X40.2489 Y16.3409 
G01 X40.4010 Y16.4040 
G01 X40.5380 Y16.4955 
G01 X40.6544 Y16.6119 
G01 X40.7459 Y16.7489 
G01 X40.8090 Y16.9010 
G01 X40.8411 Y17.0626 
G00 Z1.0000 
G00 X40.8411 Y19.6026 
G01 Z-0.1000 F150.00 
G01 X40.8411 Y19.7673 
G01 X40.8090 Y19.9289 
G01 X40.7459 Y20.0810 
G01 X40.6544 Y20.2180 
G01 X40.5380 Y20.3344 
G01 X40.4010 Y20.4259 
G01 X40.2489 Y20.4890 
G01 X40.0873 Y20.5211 
G01 X39.9226 Y20.5211 
G01 X39.7610 Y20.4890 
G01 X39.6089 Y20.4259 
G01 X39.4719 Y20.3344 
G01 X39.3555 Y20.2180 
G01 X39.2640 Y20.0810 
G01 X39.2009 Y19.9289 
G01 X39.1688 Y19.7673 
G01 X39.1688 Y19.6026 
G01 X39.2009 Y19.4410 
G01 X39.2640 Y19.2889 
G01 X39.3555 Y19.1519 
G01 X39.4719 Y19.0355 
G01 X39.6089 Y18.9440 
G01 X39.7610 Y18.8809 
G01 X39.9226 Y18.8488 
G01 X40.0873 Y18.8488 
G01 X40.2489 Y18.8809 
G01 X40.4010 Y18.9440 
G01 X40.5380 Y19.0355 
G01 X40.6544 Y19.1519 
G01 X40.7459 Y19.2889 
G01 X40.8090 Y19.4410 
G01 X40.8411 Y19.6026 
G00 Z1.0000 
G00 X66.1903 Y47.9347 
G01 Z-0.1000 F150.00 
G01 X66.1903 Y48.5852 
G01 X65.7302 Y49.0453 
G01 X65.0797 Y49.0453 
G01 X64.6196 Y48.5852 
G01 X64.6196 Y47.9347 
G01 X65.0797 Y47.4746 
G01 X65.7302 Y47.4746 
G01 X66.1903 Y47.9347 
G00 Z1.0000 
G00 X68.0953 Y49.2047 
G01 Z-0.1000 F150.00 
G01 X68.0953 Y49.8552 
G01 X67.6352 Y50.3153 
G01 X66.9847 Y50.3153 
G01 X66.5246 Y49.8552 
G01 X66.5246 Y49.2047 
G01 X66.9847 Y48.7446 
G01 X67.6352 Y48.7446 
G01 X68.0953 Y49.2047 
G00 Z1.0000 
G00 X66.1903 Y50.4747 
G01 Z-0.1000 F150.00 
G01 X66.1903 Y51.1252 
G01 X65.7302 Y51.5853 
G01 X65.0797 Y51.5853 
G01 X64.6196 Y51.1252 
G01 X64.6196 Y50.4747 
G01 X65.0797 Y50.0146 
G01 X65.7302 Y50.0146 
G01 X66.1903 Y50.4747 
G00 Z1.0000 
G00 X17.9944 Y60.5769 
G01 Z-0.1000 F150.00 
G01 X16.2955 Y60.5769 
G01 X16.1242 Y60.5428 
G01 X15.9628 Y60.4760 
G01 X15.8175 Y60.3789 
G01 X15.6940 Y60.2554 
G01 X15.5969 Y60.1101 
G01 X15.5301 Y59.9487 
G01 X15.4960 Y59.7774 
G01 X15.4960 Y59.6025 
G01 X15.5301 Y59.4312 
G01 X15.5969 Y59.2698 
G01 X15.6940 Y59.1245 
G01 X15.8175 Y59.0010 
G01 X15.9628 Y58.9039 
G01 X16.1242 Y58.8371 
G01 X16.2955 Y58.8030 
G01 X17.9944 Y58.8030 
G01 X18.1657 Y58.8371 
G01 X18.3271 Y58.9039 
G01 X18.4724 Y59.0010 
G01 X18.5959 Y59.1245 
G01 X18.6930 Y59.2698 
G01 X18.7598 Y59.4312 
G01 X18.7939 Y59.6025 
G01 X18.7939 Y59.7774 
G01 X18.7598 Y59.9487 
G01 X18.6930 Y60.1101 
G01 X18.5959 Y60.2554 
G01 X18.4724 Y60.3789 
G01 X18.3271 Y60.4760 
G01 X18.1657 Y60.5428 
G01 X17.9944 Y60.5769 
G00 Z1.0000 
G00 X17.9944 Y58.0369 
G01 Z-0.1000 F150.00 
G01 X16.2955 Y58.0369 
G01 X16.1242 Y58.0028 
G01 X15.9628 Y57.9360 
G01 X15.8175 Y57.8389 
G01 X15.6940 Y57.7154 
G01 X15.5969 Y57.5701 
G01 X15.5301 Y57.4087 
G01 X15.4960 Y57.2374 
G01 X15.4960 Y57.0625 
G01 X15.5301 Y56.8912 
G01 X15.5969 Y56.7298 
G01 X15.6940 Y56.5845 
G01 X15.8175 Y56.4610 
G01 X15.9628 Y56.3639 
G01 X16.1242 Y56.2971 
G01 X16.2955 Y56.2630 
G01 X17.9944 Y56.2630 
G01 X18.1657 Y56.2971 
G01 X18.3271 Y56.3639 
G01 X18.4724 Y56.4610 
G01 X18.5959 Y56.5845 
G01 X18.6930 Y56.7298 
G01 X18.7598 Y56.8912 
G01 X18.7939 Y57.0625 
G01 X18.7939 Y57.2374 
G01 X18.7598 Y57.4087 
G01 X18.6930 Y57.5701 
G01 X18.5959 Y57.7154 
G01 X18.4724 Y57.8389 
G01 X18.3271 Y57.9360 
G01 X18.1657 Y58.0028 
G01 X17.9944 Y58.0369 
G00 Z1.0000 
G00 X17.9944 Y55.4969 
G01 Z-0.1000 F150.00 
G01 X16.2955 Y55.4969 
G01 X16.1242 Y55.4628 
G01 X15.9628 Y55.3960 
G01 X15.8175 Y55.2989 
G01 X15.6940 Y55.1754 
G01 X15.5969 Y55.0301 
G01 X15.5301 Y54.8687 
G01 X15.4960 Y54.6974 
G01 X15.4960 Y54.5225 
G01 X15.5301 Y54.3512 
G01 X15.5969 Y54.1898 
G01 X15.6940 Y54.0445 
G01 X15.8175 Y53.9210 
G01 X15.9628 Y53.8239 
G01 X16.1242 Y53.7571 
G01 X16.2955 Y53.7230 
G01 X17.9944 Y53.7230 
G01 X18.1657 Y53.7571 
G01 X18.3271 Y53.8239 
G01 X18.4724 Y53.9210 
G01 X18.5959 Y54.0445 
G01 X18.6930 Y54.1898 
G01 X18.7598 Y54.3512 
G01 X18.7939 Y54.5225 
G01 X18.7939 Y54.6974 
G01 X18.7598 Y54.8687 
G01 X18.6930 Y55.0301 
G01 X18.5959 Y55.1754 
G01 X18.4724 Y55.2989 
G01 X18.3271 Y55.3960 
G01 X18.1657 Y55.4628 
G01 X17.9944 Y55.4969 
G00 Z1.0000 
G00 X11.6239 Y53.8933 
G01 Z-0.1000 F150.00 
G01 X11.6239 Y54.0566 
G01 X11.5920 Y54.2168 
G01 X11.5296 Y54.3676 
G01 X11.4388 Y54.5034 
G01 X11.3234 Y54.6188 
G01 X11.1876 Y54.7096 
G01 X11.0368 Y54.7720 
G01 X10.8766 Y54.8039 
G01 X10.7133 Y54.8039 
G01 X10.5531 Y54.7720 
G01 X10.4023 Y54.7096 
G01 X10.2665 Y54.6188 
G01 X10.1511 Y54.5034 
G01 X10.0603 Y54.3676 
G01 X9.9979 Y54.2168 
G01 X9.9660 Y54.0566 
G01 X9.9660 Y53.8933 
G01 X9.9979 Y53.7331 
G01 X10.0603 Y53.5823 
G01 X10.1511 Y53.4465 
G01 X10.2665 Y53.3311 
G01 X10.4023 Y53.2403 
G01 X10.5531 Y53.1779 
G01 X10.7133 Y53.1460 
G01 X10.8766 Y53.1460 
G01 X11.0368 Y53.1779 
G01 X11.1876 Y53.2403 
G01 X11.3234 Y53.3311 
G01 X11.4388 Y53.4465 
G01 X11.5296 Y53.5823 
G01 X11.5920 Y53.7331 
G01 X11.6239 Y53.8933 
G00 Z1.0000 
G00 X11.6239 Y61.5133 
G01 Z-0.1000 F150.00 
G01 X11.6239 Y61.6766 
G01 X11.5920 Y61.8368 
G01 X11.5296 Y61.9876 
G01 X11.4388 Y62.1234 
G01 X11.3234 Y62.2388 
G01 X11.1876 Y62.3296 
G01 X11.0368 Y62.3920 
G01 X10.8766 Y62.4239 
G01 X10.7133 Y62.4239 
G01 X10.5531 Y62.3920 
G01 X10.4023 Y62.3296 
G01 X10.2665 Y62.2388 
G01 X10.1511 Y62.1234 
G01 X10.0603 Y61.9876 
G01 X9.9979 Y61.8368 
G01 X9.9660 Y61.6766 
G01 X9.9660 Y61.5133 
G01 X9.9979 Y61.3531 
G01 X10.0603 Y61.2023 
G01 X10.1511 Y61.0665 
G01 X10.2665 Y60.9511 
G01 X10.4023 Y60.8603 
G01 X10.5531 Y60.7979 
G01 X10.7133 Y60.7660 
G01 X10.8766 Y60.7660 
G01 X11.0368 Y60.7979 
G01 X11.1876 Y60.8603 
G01 X11.3234 Y60.9511 
G01 X11.4388 Y61.0665 
G01 X11.5296 Y61.2023 
G01 X11.5920 Y61.3531 
G01 X11.6239 Y61.5133 
G00 Z1.0000 
G00 X77.8151 Y56.1250 
G01 Z-0.1000 F150.00 
G01 X79.6648 Y56.1250 
G01 X79.7108 Y56.1440 
G01 X79.7459 Y56.1791 
G01 X79.7649 Y56.2251 
G01 X79.7649 Y58.0748 
G01 X79.7459 Y58.1208 
G01 X79.7108 Y58.1559 
G01 X79.6648 Y58.1749 
G01 X77.8151 Y58.1749 
G01 X77.7691 Y58.1559 
G01 X77.7340 Y58.1208 
G01 X77.7150 Y58.0748 
G01 X77.7150 Y56.2251 
G01 X77.7340 Y56.1791 
G01 X77.7691 Y56.1440 
G01 X77.8151 Y56.1250 
G00 Z1.0000 
G00 X79.7649 Y53.5490 
G01 Z-0.1000 F150.00 
G01 X79.7649 Y53.7509 
G01 X79.7255 Y53.9490 
G01 X79.6483 Y54.1355 
G01 X79.5361 Y54.3033 
G01 X79.3933 Y54.4461 
G01 X79.2255 Y54.5583 
G01 X79.0390 Y54.6355 
G01 X78.8409 Y54.6749 
G01 X78.6390 Y54.6749 
G01 X78.4409 Y54.6355 
G01 X78.2544 Y54.5583 
G01 X78.0866 Y54.4461 
G01 X77.9438 Y54.3033 
G01 X77.8316 Y54.1355 
G01 X77.7544 Y53.9490 
G01 X77.7150 Y53.7509 
G01 X77.7150 Y53.5490 
G01 X77.7544 Y53.3509 
G01 X77.8316 Y53.1644 
G01 X77.9438 Y52.9966 
G01 X78.0866 Y52.8538 
G01 X78.2544 Y52.7416 
G01 X78.4409 Y52.6644 
G01 X78.6390 Y52.6250 
G01 X78.8409 Y52.6250 
G01 X79.0390 Y52.6644 
G01 X79.2255 Y52.7416 
G01 X79.3933 Y52.8538 
G01 X79.5361 Y52.9966 
G01 X79.6483 Y53.1644 
G01 X79.7255 Y53.3509 
G01 X79.7649 Y53.5490 
G00 Z1.0000 
G00 X4.7901 Y58.6650 
G01 Z-0.1000 F150.00 
G01 X6.6398 Y58.6650 
G01 X6.6858 Y58.6840 
G01 X6.7209 Y58.7191 
G01 X6.7399 Y58.7651 
G01 X6.7399 Y60.6148 
G01 X6.7209 Y60.6608 
G01 X6.6858 Y60.6959 
G01 X6.6398 Y60.7149 
G01 X4.7901 Y60.7149 
G01 X4.7441 Y60.6959 
G01 X4.7090 Y60.6608 
G01 X4.6900 Y60.6148 
G01 X4.6900 Y58.7651 
G01 X4.7090 Y58.7191 
G01 X4.7441 Y58.6840 
G01 X4.7901 Y58.6650 
G00 Z1.0000 
G00 X6.7399 Y56.0890 
G01 Z-0.1000 F150.00 
G01 X6.7399 Y56.2909 
G01 X6.7005 Y56.4890 
G01 X6.6233 Y56.6755 
G01 X6.5111 Y56.8433 
G01 X6.3683 Y56.9861 
G01 X6.2005 Y57.0983 
G01 X6.0140 Y57.1755 
G01 X5.8159 Y57.2149 
G01 X5.6140 Y57.2149 
G01 X5.4159 Y57.1755 
G01 X5.2294 Y57.0983 
G01 X5.0616 Y56.9861 
G01 X4.9188 Y56.8433 
G01 X4.8066 Y56.6755 
G01 X4.7294 Y56.4890 
G01 X4.6900 Y56.2909 
G01 X4.6900 Y56.0890 
G01 X4.7294 Y55.8909 
G01 X4.8066 Y55.7044 
G01 X4.9188 Y55.5366 
G01 X5.0616 Y55.3938 
G01 X5.2294 Y55.2816 
G01 X5.4159 Y55.2044 
G01 X5.6140 Y55.1650 
G01 X5.8159 Y55.1650 
G01 X6.0140 Y55.2044 
G01 X6.2005 Y55.2816 
G01 X6.3683 Y55.3938 
G01 X6.5111 Y55.5366 
G01 X6.6233 Y55.7044 
G01 X6.7005 Y55.8909 
G01 X6.7399 Y56.0890 
G00 Z1.0000 
G00 X47.1839 Y57.7033 
G01 Z-0.1000 F150.00 
G01 X47.1839 Y57.8666 
G01 X47.1520 Y58.0268 
G01 X47.0896 Y58.1776 
G01 X46.9988 Y58.3134 
G01 X46.8834 Y58.4288 
G01 X46.7476 Y58.5196 
G01 X46.5968 Y58.5820 
G01 X46.4366 Y58.6139 
G01 X46.2733 Y58.6139 
G01 X46.1131 Y58.5820 
G01 X45.9623 Y58.5196 
G01 X45.8265 Y58.4288 
G01 X45.7111 Y58.3134 
G01 X45.6203 Y58.1776 
G01 X45.5579 Y58.0268 
G01 X45.5260 Y57.8666 
G01 X45.5260 Y57.7033 
G01 X45.5579 Y57.5431 
G01 X45.6203 Y57.3923 
G01 X45.7111 Y57.2565 
G01 X45.8265 Y57.1411 
G01 X45.9623 Y57.0503 
G01 X46.1131 Y56.9879 
G01 X46.2733 Y56.9560 
G01 X46.4366 Y56.9560 
G01 X46.5968 Y56.9879 
G01 X46.7476 Y57.0503 
G01 X46.8834 Y57.1411 
G01 X46.9988 Y57.2565 
G01 X47.0896 Y57.3923 
G01 X47.1520 Y57.5431 
G01 X47.1839 Y57.7033 
G00 Z1.0000 
G00 X54.8039 Y57.7033 
G01 Z-0.1000 F150.00 
G01 X54.8039 Y57.8666 
G01 X54.7720 Y58.0268 
G01 X54.7096 Y58.1776 
G01 X54.6188 Y58.3134 
G01 X54.5034 Y58.4288 
G01 X54.3676 Y58.5196 
G01 X54.2168 Y58.5820 
G01 X54.0566 Y58.6139 
G01 X53.8933 Y58.6139 
G01 X53.7331 Y58.5820 
G01 X53.5823 Y58.5196 
G01 X53.4465 Y58.4288 
G01 X53.3311 Y58.3134 
G01 X53.2403 Y58.1776 
G01 X53.1779 Y58.0268 
G01 X53.1460 Y57.8666 
G01 X53.1460 Y57.7033 
G01 X53.1779 Y57.5431 
G01 X53.2403 Y57.3923 
G01 X53.3311 Y57.2565 
G01 X53.4465 Y57.1411 
G01 X53.5823 Y57.0503 
G01 X53.7331 Y56.9879 
G01 X53.8933 Y56.9560 
G01 X54.0566 Y56.9560 
G01 X54.2168 Y56.9879 
G01 X54.3676 Y57.0503 
G01 X54.5034 Y57.1411 
G01 X54.6188 Y57.2565 
G01 X54.7096 Y57.3923 
G01 X54.7720 Y57.5431 
G01 X54.8039 Y57.7033 
G00 Z1.0000 
G00 X61.0881 Y50.3153 
G01 Z-0.1000 F150.00 
G01 X59.6126 Y50.3153 
G01 X59.4608 Y50.2851 
G01 X59.3179 Y50.2259 
G01 X59.1893 Y50.1400 
G01 X59.0799 Y50.0306 
G01 X58.9940 Y49.9020 
G01 X58.9348 Y49.7591 
G01 X58.9046 Y49.6073 
G01 X58.9046 Y49.4526 
G01 X58.9348 Y49.3008 
G01 X58.9940 Y49.1579 
G01 X59.0799 Y49.0293 
G01 X59.1893 Y48.9199 
G01 X59.3179 Y48.8340 
G01 X59.4608 Y48.7748 
G01 X59.6126 Y48.7446 
G01 X61.0881 Y48.7446 
G01 X61.2399 Y48.7748 
G01 X61.3828 Y48.8340 
G01 X61.5114 Y48.9199 
G01 X61.6208 Y49.0293 
G01 X61.7067 Y49.1579 
G01 X61.7659 Y49.3008 
G01 X61.7961 Y49.4526 
G01 X61.7961 Y49.6073 
G01 X61.7659 Y49.7591 
G01 X61.7067 Y49.9020 
G01 X61.6208 Y50.0306 
G01 X61.5114 Y50.1400 
G01 X61.3828 Y50.2259 
G01 X61.2399 Y50.2851 
G01 X61.0881 Y50.3153 
G00 Z1.0000 
G00 X61.0881 Y52.8553 
G01 Z-0.1000 F150.00 
G01 X59.6126 Y52.8553 
G01 X59.4608 Y52.8251 
G01 X59.3179 Y52.7659 
G01 X59.1893 Y52.6800 
G01 X59.0799 Y52.5706 
G01 X58.9940 Y52.4420 
G01 X58.9348 Y52.2991 
G01 X58.9046 Y52.1473 
G01 X58.9046 Y51.9926 
G01 X58.9348 Y51.8408 
G01 X58.9940 Y51.6979 
G01 X59.0799 Y51.5693 
G01 X59.1893 Y51.4599 
G01 X59.3179 Y51.3740 
G01 X59.4608 Y51.3148 
G01 X59.6126 Y51.2846 
G01 X61.0881 Y51.2846 
G01 X61.2399 Y51.3148 
G01 X61.3828 Y51.3740 
G01 X61.5114 Y51.4599 
G01 X61.6208 Y51.5693 
G01 X61.7067 Y51.6979 
G01 X61.7659 Y51.8408 
G01 X61.7961 Y51.9926 
G01 X61.7961 Y52.1473 
G01 X61.7659 Y52.2991 
G01 X61.7067 Y52.4420 
G01 X61.6208 Y52.5706 
G01 X61.5114 Y52.6800 
G01 X61.3828 Y52.7659 
G01 X61.2399 Y52.8251 
G01 X61.0881 Y52.8553 
G00 Z1.0000 
G00 X50.6718 Y51.2846 
G01 Z-0.1000 F150.00 
G01 X52.1473 Y51.2846 
G01 X52.2991 Y51.3148 
G01 X52.4420 Y51.3740 
G01 X52.5706 Y51.4599 
G01 X52.6800 Y51.5693 
G01 X52.7659 Y51.6979 
G01 X52.8251 Y51.8408 
G01 X52.8553 Y51.9926 
G01 X52.8553 Y52.1473 
G01 X52.8251 Y52.2991 
G01 X52.7659 Y52.4420 
G01 X52.6800 Y52.5706 
G01 X52.5706 Y52.6800 
G01 X52.4420 Y52.7659 
G01 X52.2991 Y52.8251 
G01 X52.1473 Y52.8553 
G01 X50.6718 Y52.8553 
G01 X50.5200 Y52.8251 
G01 X50.3771 Y52.7659 
G01 X50.2485 Y52.6800 
G01 X50.1391 Y52.5706 
G01 X50.0532 Y52.4420 
G01 X49.9940 Y52.2991 
G01 X49.9638 Y52.1473 
G01 X49.9638 Y51.9926 
G01 X49.9940 Y51.8408 
G01 X50.0532 Y51.6979 
G01 X50.1391 Y51.5693 
G01 X50.2485 Y51.4599 
G01 X50.3771 Y51.3740 
G01 X50.5200 Y51.3148 
G01 X50.6718 Y51.2846 
G00 Z1.0000 
G00 X50.6718 Y48.7446 
G01 Z-0.1000 F150.00 
G01 X52.1473 Y48.7446 
G01 X52.2991 Y48.7748 
G01 X52.4420 Y48.8340 
G01 X52.5706 Y48.9199 
G01 X52.6800 Y49.0293 
G01 X52.7659 Y49.1579 
G01 X52.8251 Y49.3008 
G01 X52.8553 Y49.4526 
G01 X52.8553 Y49.6073 
G01 X52.8251 Y49.7591 
G01 X52.7659 Y49.9020 
G01 X52.6800 Y50.0306 
G01 X52.5706 Y50.1400 
G01 X52.4420 Y50.2259 
G01 X52.2991 Y50.2851 
G01 X52.1473 Y50.3153 
G01 X50.6718 Y50.3153 
G01 X50.5200 Y50.2851 
G01 X50.3771 Y50.2259 
G01 X50.2485 Y50.1400 
G01 X50.1391 Y50.0306 
G01 X50.0532 Y49.9020 
G01 X49.9940 Y49.7591 
G01 X49.9638 Y49.6073 
G01 X49.9638 Y49.4526 
G01 X49.9940 Y49.3008 
G01 X50.0532 Y49.1579 
G01 X50.1391 Y49.0293 
G01 X50.2485 Y48.9199 
G01 X50.3771 Y48.8340 
G01 X50.5200 Y48.7748 
G01 X50.6718 Y48.7446 
G00 Z1.0000 
G00 X61.0881 Y55.3953 
G01 Z-0.1000 F150.00 
G01 X59.6126 Y55.3953 
G01 X59.4608 Y55.3651 
G01 X59.3179 Y55.3059 
G01 X59.1893 Y55.2200 
G01 X59.0799 Y55.1106 
G01 X58.9940 Y54.9820 
G01 X58.9348 Y54.8391 
G01 X58.9046 Y54.6873 
G01 X58.9046 Y54.5326 
G01 X58.9348 Y54.3808 
G01 X58.9940 Y54.2379 
G01 X59.0799 Y54.1093 
G01 X59.1893 Y53.9999 
G01 X59.3179 Y53.9140 
G01 X59.4608 Y53.8548 
G01 X59.6126 Y53.8246 
G01 X61.0881 Y53.8246 
G01 X61.2399 Y53.8548 
G01 X61.3828 Y53.9140 
G01 X61.5114 Y53.9999 
G01 X61.6208 Y54.1093 
G01 X61.7067 Y54.2379 
G01 X61.7659 Y54.3808 
G01 X61.7961 Y54.5326 
G01 X61.7961 Y54.6873 
G01 X61.7659 Y54.8391 
G01 X61.7067 Y54.9820 
G01 X61.6208 Y55.1106 
G01 X61.5114 Y55.2200 
G01 X61.3828 Y55.3059 
G01 X61.2399 Y55.3651 
G01 X61.0881 Y55.3953 
G00 Z1.0000 
G00 X50.6718 Y53.8246 
G01 Z-0.1000 F150.00 
G01 X52.1473 Y53.8246 
G01 X52.2991 Y53.8548 
G01 X52.4420 Y53.9140 
G01 X52.5706 Y53.9999 
G01 X52.6800 Y54.1093 
G01 X52.7659 Y54.2379 
G01 X52.8251 Y54.3808 
G01 X52.8553 Y54.5326 
G01 X52.8553 Y54.6873 
G01 X52.8251 Y54.8391 
G01 X52.7659 Y54.9820 
G01 X52.6800 Y55.1106 
G01 X52.5706 Y55.2200 
G01 X52.4420 Y55.3059 
G01 X52.2991 Y55.3651 
G01 X52.1473 Y55.3953 
G01 X50.6718 Y55.3953 
G01 X50.5200 Y55.3651 
G01 X50.3771 Y55.3059 
G01 X50.2485 Y55.2200 
G01 X50.1391 Y55.1106 
G01 X50.0532 Y54.9820 
G01 X49.9940 Y54.8391 
G01 X49.9638 Y54.6873 
G01 X49.9638 Y54.5326 
G01 X49.9940 Y54.3808 
G01 X50.0532 Y54.2379 
G01 X50.1391 Y54.1093 
G01 X50.2485 Y53.9999 
G01 X50.3771 Y53.9140 
G01 X50.5200 Y53.8548 
G01 X50.6718 Y53.8246 
G00 Z1.0000 
G00 X47.1839 Y59.6083 
G01 Z-0.1000 F150.00 
G01 X47.1839 Y59.7716 
G01 X47.1520 Y59.9318 
G01 X47.0896 Y60.0826 
G01 X46.9988 Y60.2184 
G01 X46.8834 Y60.3338 
G01 X46.7476 Y60.4246 
G01 X46.5968 Y60.4870 
G01 X46.4366 Y60.5189 
G01 X46.2733 Y60.5189 
G01 X46.1131 Y60.4870 
G01 X45.9623 Y60.4246 
G01 X45.8265 Y60.3338 
G01 X45.7111 Y60.2184 
G01 X45.6203 Y60.0826 
G01 X45.5579 Y59.9318 
G01 X45.5260 Y59.7716 
G01 X45.5260 Y59.6083 
G01 X45.5579 Y59.4481 
G01 X45.6203 Y59.2973 
G01 X45.7111 Y59.1615 
G01 X45.8265 Y59.0461 
G01 X45.9623 Y58.9553 
G01 X46.1131 Y58.8929 
G01 X46.2733 Y58.8610 
G01 X46.4366 Y58.8610 
G01 X46.5968 Y58.8929 
G01 X46.7476 Y58.9553 
G01 X46.8834 Y59.0461 
G01 X46.9988 Y59.1615 
G01 X47.0896 Y59.2973 
G01 X47.1520 Y59.4481 
G01 X47.1839 Y59.6083 
G00 Z1.0000 
G00 X54.8039 Y59.6083 
G01 Z-0.1000 F150.00 
G01 X54.8039 Y59.7716 
G01 X54.7720 Y59.9318 
G01 X54.7096 Y60.0826 
G01 X54.6188 Y60.2184 
G01 X54.5034 Y60.3338 
G01 X54.3676 Y60.4246 
G01 X54.2168 Y60.4870 
G01 X54.0566 Y60.5189 
G01 X53.8933 Y60.5189 
G01 X53.7331 Y60.4870 
G01 X53.5823 Y60.4246 
G01 X53.4465 Y60.3338 
G01 X53.3311 Y60.2184 
G01 X53.2403 Y60.0826 
G01 X53.1779 Y59.9318 
G01 X53.1460 Y59.7716 
G01 X53.1460 Y59.6083 
G01 X53.1779 Y59.4481 
G01 X53.2403 Y59.2973 
G01 X53.3311 Y59.1615 
G01 X53.4465 Y59.0461 
G01 X53.5823 Y58.9553 
G01 X53.7331 Y58.8929 
G01 X53.8933 Y58.8610 
G01 X54.0566 Y58.8610 
G01 X54.2168 Y58.8929 
G01 X54.3676 Y58.9553 
G01 X54.5034 Y59.0461 
G01 X54.6188 Y59.1615 
G01 X54.7096 Y59.2973 
G01 X54.7720 Y59.4481 
G01 X54.8039 Y59.6083 
G00 Z1.0000 
G00 X80.2619 Y16.1426 
G01 Z-0.1000 F150.00 
G01 X80.2619 Y16.8773 
G01 X79.7423 Y17.3969 
G01 X79.0076 Y17.3969 
G01 X78.4880 Y16.8773 
G01 X78.4880 Y16.1426 
G01 X79.0076 Y15.6230 
G01 X79.7423 Y15.6230 
G01 X80.2619 Y16.1426 
G00 Z1.0000 
G00 X77.7219 Y16.1426 
G01 Z-0.1000 F150.00 
G01 X77.7219 Y16.8773 
G01 X77.2023 Y17.3969 
G01 X76.4676 Y17.3969 
G01 X75.9480 Y16.8773 
G01 X75.9480 Y16.1426 
G01 X76.4676 Y15.6230 
G01 X77.2023 Y15.6230 
G01 X77.7219 Y16.1426 
G00 Z1.0000 
G00 X80.2619 Y18.6826 
G01 Z-0.1000 F150.00 
G01 X80.2619 Y19.4173 
G01 X79.7423 Y19.9369 
G01 X79.0076 Y19.9369 
G01 X78.4880 Y19.4173 
G01 X78.4880 Y18.6826 
G01 X79.0076 Y18.1630 
G01 X79.7423 Y18.1630 
G01 X80.2619 Y18.6826 
G00 Z1.0000 
G00 X77.7219 Y18.6826 
G01 Z-0.1000 F150.00 
G01 X77.7219 Y19.4173 
G01 X77.2023 Y19.9369 
G01 X76.4676 Y19.9369 
G01 X75.9480 Y19.4173 
G01 X75.9480 Y18.6826 
G01 X76.4676 Y18.1630 
G01 X77.2023 Y18.1630 
G01 X77.7219 Y18.6826 
G00 Z1.0000 
G00 X80.2619 Y21.2226 
G01 Z-0.1000 F150.00 
G01 X80.2619 Y21.9573 
G01 X79.7423 Y22.4769 
G01 X79.0076 Y22.4769 
G01 X78.4880 Y21.9573 
G01 X78.4880 Y21.2226 
G01 X79.0076 Y20.7030 
G01 X79.7423 Y20.7030 
G01 X80.2619 Y21.2226 
G00 Z1.0000 
G00 X77.7219 Y21.2226 
G01 Z-0.1000 F150.00 
G01 X77.7219 Y21.9573 
G01 X77.2023 Y22.4769 
G01 X76.4676 Y22.4769 
G01 X75.9480 Y21.9573 
G01 X75.9480 Y21.2226 
G01 X76.4676 Y20.7030 
G01 X77.2023 Y20.7030 
G01 X77.7219 Y21.2226 
G00 Z1.0000 
G00 X80.2619 Y23.7626 
G01 Z-0.1000 F150.00 
G01 X80.2619 Y24.4973 
G01 X79.7423 Y25.0169 
G01 X79.0076 Y25.0169 
G01 X78.4880 Y24.4973 
G01 X78.4880 Y23.7626 
G01 X79.0076 Y23.2430 
G01 X79.7423 Y23.2430 
G01 X80.2619 Y23.7626 
G00 Z1.0000 
G00 X77.7219 Y23.7626 
G01 Z-0.1000 F150.00 
G01 X77.7219 Y24.4973 
G01 X77.2023 Y25.0169 
G01 X76.4676 Y25.0169 
G01 X75.9480 Y24.4973 
G01 X75.9480 Y23.7626 
G01 X76.4676 Y23.2430 
G01 X77.2023 Y23.2430 
G01 X77.7219 Y23.7626 
G00 Z1.0000 
G00 X80.2619 Y26.3026 
G01 Z-0.1000 F150.00 
G01 X80.2619 Y27.0373 
G01 X79.7423 Y27.5569 
G01 X79.0076 Y27.5569 
G01 X78.4880 Y27.0373 
G01 X78.4880 Y26.3026 
G01 X79.0076 Y25.7830 
G01 X79.7423 Y25.7830 
G01 X80.2619 Y26.3026 
G00 Z1.0000 
G00 X77.7219 Y26.3026 
G01 Z-0.1000 F150.00 
G01 X77.7219 Y27.0373 
G01 X77.2023 Y27.5569 
G01 X76.4676 Y27.5569 
G01 X75.9480 Y27.0373 
G01 X75.9480 Y26.3026 
G01 X76.4676 Y25.7830 
G01 X77.2023 Y25.7830 
G01 X77.7219 Y26.3026 
G00 Z1.0000 
G00 X80.2619 Y28.8426 
G01 Z-0.1000 F150.00 
G01 X80.2619 Y29.5773 
G01 X79.7423 Y30.0969 
G01 X79.0076 Y30.0969 
G01 X78.4880 Y29.5773 
G01 X78.4880 Y28.8426 
G01 X79.0076 Y28.3230 
G01 X79.7423 Y28.3230 
G01 X80.2619 Y28.8426 
G00 Z1.0000 
G00 X77.7219 Y28.8426 
G01 Z-0.1000 F150.00 
G01 X77.7219 Y29.5773 
G01 X77.2023 Y30.0969 
G01 X76.4676 Y30.0969 
G01 X75.9480 Y29.5773 
G01 X75.9480 Y28.8426 
G01 X76.4676 Y28.3230 
G01 X77.2023 Y28.3230 
G01 X77.7219 Y28.8426 
G00 Z1.0000 
G00 X80.2619 Y31.3826 
G01 Z-0.1000 F150.00 
G01 X80.2619 Y32.1173 
G01 X79.7423 Y32.6369 
G01 X79.0076 Y32.6369 
G01 X78.4880 Y32.1173 
G01 X78.4880 Y31.3826 
G01 X79.0076 Y30.8630 
G01 X79.7423 Y30.8630 
G01 X80.2619 Y31.3826 
G00 Z1.0000 
G00 X77.7219 Y31.3826 
G01 Z-0.1000 F150.00 
G01 X77.7219 Y32.1173 
G01 X77.2023 Y32.6369 
G01 X76.4676 Y32.6369 
G01 X75.9480 Y32.1173 
G01 X75.9480 Y31.3826 
G01 X76.4676 Y30.8630 
G01 X77.2023 Y30.8630 
G01 X77.7219 Y31.3826 
G00 Z1.0000 
G00 X80.2619 Y33.9226 
G01 Z-0.1000 F150.00 
G01 X80.2619 Y34.6573 
G01 X79.7423 Y35.1769 
G01 X79.0076 Y35.1769 
G01 X78.4880 Y34.6573 
G01 X78.4880 Y33.9226 
G01 X79.0076 Y33.4030 
G01 X79.7423 Y33.4030 
G01 X80.2619 Y33.9226 
G00 Z1.0000 
G00 X77.7219 Y33.9226 
G01 Z-0.1000 F150.00 
G01 X77.7219 Y34.6573 
G01 X77.2023 Y35.1769 
G01 X76.4676 Y35.1769 
G01 X75.9480 Y34.6573 
G01 X75.9480 Y33.9226 
G01 X76.4676 Y33.4030 
G01 X77.2023 Y33.4030 
G01 X77.7219 Y33.9226 
G00 Z1.0000 
G00 X80.2619 Y36.4626 
G01 Z-0.1000 F150.00 
G01 X80.2619 Y37.1973 
G01 X79.7423 Y37.7169 
G01 X79.0076 Y37.7169 
G01 X78.4880 Y37.1973 
G01 X78.4880 Y36.4626 
G01 X79.0076 Y35.9430 
G01 X79.7423 Y35.9430 
G01 X80.2619 Y36.4626 
G00 Z1.0000 
G00 X77.7219 Y36.4626 
G01 Z-0.1000 F150.00 
G01 X77.7219 Y37.1973 
G01 X77.2023 Y37.7169 
G01 X76.4676 Y37.7169 
G01 X75.9480 Y37.1973 
G01 X75.9480 Y36.4626 
G01 X76.4676 Y35.9430 
G01 X77.2023 Y35.9430 
G01 X77.7219 Y36.4626 
G00 Z1.0000 
G00 X80.2619 Y39.0026 
G01 Z-0.1000 F150.00 
G01 X80.2619 Y39.7373 
G01 X79.7423 Y40.2569 
G01 X79.0076 Y40.2569 
G01 X78.4880 Y39.7373 
G01 X78.4880 Y39.0026 
G01 X79.0076 Y38.4830 
G01 X79.7423 Y38.4830 
G01 X80.2619 Y39.0026 
G00 Z1.0000 
G00 X77.7219 Y39.0026 
G01 Z-0.1000 F150.00 
G01 X77.7219 Y39.7373 
G01 X77.2023 Y40.2569 
G01 X76.4676 Y40.2569 
G01 X75.9480 Y39.7373 
G01 X75.9480 Y39.0026 
G01 X76.4676 Y38.4830 
G01 X77.2023 Y38.4830 
G01 X77.7219 Y39.0026 
G00 Z1.0000 
G00 X3.4269 Y44.3625 
G01 Z-0.1000 F150.00 
G01 X3.4269 Y44.5374 
G01 X3.3928 Y44.7087 
G01 X3.3260 Y44.8701 
G01 X3.2289 Y45.0154 
G01 X3.1054 Y45.1389 
G01 X2.9601 Y45.2360 
G01 X2.7987 Y45.3028 
G01 X2.6274 Y45.3369 
G01 X2.4525 Y45.3369 
G01 X2.2812 Y45.3028 
G01 X2.1198 Y45.2360 
G01 X1.9745 Y45.1389 
G01 X1.8510 Y45.0154 
G01 X1.7539 Y44.8701 
G01 X1.6871 Y44.7087 
G01 X1.6530 Y44.5374 
G01 X1.6530 Y44.3625 
G01 X1.6871 Y44.1912 
G01 X1.7539 Y44.0298 
G01 X1.8510 Y43.8845 
G01 X1.9745 Y43.7610 
G01 X2.1198 Y43.6639 
G01 X2.2812 Y43.5971 
G01 X2.4525 Y43.5630 
G01 X2.6274 Y43.5630 
G01 X2.7987 Y43.5971 
G01 X2.9601 Y43.6639 
G01 X3.1054 Y43.7610 
G01 X3.2289 Y43.8845 
G01 X3.3260 Y44.0298 
G01 X3.3928 Y44.1912 
G01 X3.4269 Y44.3625 
G00 Z1.0000 
G00 X5.9669 Y44.3625 
G01 Z-0.1000 F150.00 
G01 X5.9669 Y44.5374 
G01 X5.9328 Y44.7087 
G01 X5.8660 Y44.8701 
G01 X5.7689 Y45.0154 
G01 X5.6454 Y45.1389 
G01 X5.5001 Y45.2360 
G01 X5.3387 Y45.3028 
G01 X5.1674 Y45.3369 
G01 X4.9925 Y45.3369 
G01 X4.8212 Y45.3028 
G01 X4.6598 Y45.2360 
G01 X4.5145 Y45.1389 
G01 X4.3910 Y45.0154 
G01 X4.2939 Y44.8701 
G01 X4.2271 Y44.7087 
G01 X4.1930 Y44.5374 
G01 X4.1930 Y44.3625 
G01 X4.2271 Y44.1912 
G01 X4.2939 Y44.0298 
G01 X4.3910 Y43.8845 
G01 X4.5145 Y43.7610 
G01 X4.6598 Y43.6639 
G01 X4.8212 Y43.5971 
G01 X4.9925 Y43.5630 
G01 X5.1674 Y43.5630 
G01 X5.3387 Y43.5971 
G01 X5.5001 Y43.6639 
G01 X5.6454 Y43.7610 
G01 X5.7689 Y43.8845 
G01 X5.8660 Y44.0298 
G01 X5.9328 Y44.1912 
G01 X5.9669 Y44.3625 
G00 Z1.0000 
G00 X8.5069 Y44.3625 
G01 Z-0.1000 F150.00 
G01 X8.5069 Y44.5374 
G01 X8.4728 Y44.7087 
G01 X8.4060 Y44.8701 
G01 X8.3089 Y45.0154 
G01 X8.1854 Y45.1389 
G01 X8.0401 Y45.2360 
G01 X7.8787 Y45.3028 
G01 X7.7074 Y45.3369 
G01 X7.5325 Y45.3369 
G01 X7.3612 Y45.3028 
G01 X7.1998 Y45.2360 
G01 X7.0545 Y45.1389 
G01 X6.9310 Y45.0154 
G01 X6.8339 Y44.8701 
G01 X6.7671 Y44.7087 
G01 X6.7330 Y44.5374 
G01 X6.7330 Y44.3625 
G01 X6.7671 Y44.1912 
G01 X6.8339 Y44.0298 
G01 X6.9310 Y43.8845 
G01 X7.0545 Y43.7610 
G01 X7.1998 Y43.6639 
G01 X7.3612 Y43.5971 
G01 X7.5325 Y43.5630 
G01 X7.7074 Y43.5630 
G01 X7.8787 Y43.5971 
G01 X8.0401 Y43.6639 
G01 X8.1854 Y43.7610 
G01 X8.3089 Y43.8845 
G01 X8.4060 Y44.0298 
G01 X8.4728 Y44.1912 
G01 X8.5069 Y44.3625 
G00 Z1.0000 
G00 X3.4269 Y46.9025 
G01 Z-0.1000 F150.00 
G01 X3.4269 Y47.0774 
G01 X3.3928 Y47.2487 
G01 X3.3260 Y47.4101 
G01 X3.2289 Y47.5554 
G01 X3.1054 Y47.6789 
G01 X2.9601 Y47.7760 
G01 X2.7987 Y47.8428 
G01 X2.6274 Y47.8769 
G01 X2.4525 Y47.8769 
G01 X2.2812 Y47.8428 
G01 X2.1198 Y47.7760 
G01 X1.9745 Y47.6789 
G01 X1.8510 Y47.5554 
G01 X1.7539 Y47.4101 
G01 X1.6871 Y47.2487 
G01 X1.6530 Y47.0774 
G01 X1.6530 Y46.9025 
G01 X1.6871 Y46.7312 
G01 X1.7539 Y46.5698 
G01 X1.8510 Y46.4245 
G01 X1.9745 Y46.3010 
G01 X2.1198 Y46.2039 
G01 X2.2812 Y46.1371 
G01 X2.4525 Y46.1030 
G01 X2.6274 Y46.1030 
G01 X2.7987 Y46.1371 
G01 X2.9601 Y46.2039 
G01 X3.1054 Y46.3010 
G01 X3.2289 Y46.4245 
G01 X3.3260 Y46.5698 
G01 X3.3928 Y46.7312 
G01 X3.4269 Y46.9025 
G00 Z1.0000 
G00 X5.9669 Y46.9025 
G01 Z-0.1000 F150.00 
G01 X5.9669 Y47.0774 
G01 X5.9328 Y47.2487 
G01 X5.8660 Y47.4101 
G01 X5.7689 Y47.5554 
G01 X5.6454 Y47.6789 
G01 X5.5001 Y47.7760 
G01 X5.3387 Y47.8428 
G01 X5.1674 Y47.8769 
G01 X4.9925 Y47.8769 
G01 X4.8212 Y47.8428 
G01 X4.6598 Y47.7760 
G01 X4.5145 Y47.6789 
G01 X4.3910 Y47.5554 
G01 X4.2939 Y47.4101 
G01 X4.2271 Y47.2487 
G01 X4.1930 Y47.0774 
G01 X4.1930 Y46.9025 
G01 X4.2271 Y46.7312 
G01 X4.2939 Y46.5698 
G01 X4.3910 Y46.4245 
G01 X4.5145 Y46.3010 
G01 X4.6598 Y46.2039 
G01 X4.8212 Y46.1371 
G01 X4.9925 Y46.1030 
G01 X5.1674 Y46.1030 
G01 X5.3387 Y46.1371 
G01 X5.5001 Y46.2039 
G01 X5.6454 Y46.3010 
G01 X5.7689 Y46.4245 
G01 X5.8660 Y46.5698 
G01 X5.9328 Y46.7312 
G01 X5.9669 Y46.9025 
G00 Z1.0000 
G00 X8.5069 Y46.9025 
G01 Z-0.1000 F150.00 
G01 X8.5069 Y47.0774 
G01 X8.4728 Y47.2487 
G01 X8.4060 Y47.4101 
G01 X8.3089 Y47.5554 
G01 X8.1854 Y47.6789 
G01 X8.0401 Y47.7760 
G01 X7.8787 Y47.8428 
G01 X7.7074 Y47.8769 
G01 X7.5325 Y47.8769 
G01 X7.3612 Y47.8428 
G01 X7.1998 Y47.7760 
G01 X7.0545 Y47.6789 
G01 X6.9310 Y47.5554 
G01 X6.8339 Y47.4101 
G01 X6.7671 Y47.2487 
G01 X6.7330 Y47.0774 
G01 X6.7330 Y46.9025 
G01 X6.7671 Y46.7312 
G01 X6.8339 Y46.5698 
G01 X6.9310 Y46.4245 
G01 X7.0545 Y46.3010 
G01 X7.1998 Y46.2039 
G01 X7.3612 Y46.1371 
G01 X7.5325 Y46.1030 
G01 X7.7074 Y46.1030 
G01 X7.8787 Y46.1371 
G01 X8.0401 Y46.2039 
G01 X8.1854 Y46.3010 
G01 X8.3089 Y46.4245 
G01 X8.4060 Y46.5698 
G01 X8.4728 Y46.7312 
G01 X8.5069 Y46.9025 
G00 Z1.0000 
G00 X58.0249 Y31.6101 
G01 Z-0.1000 F150.00 
G01 X58.0249 Y33.1598 
G01 X58.0059 Y33.2058 
G01 X57.9708 Y33.2409 
G01 X57.9248 Y33.2599 
G01 X57.4273 Y33.2599 
G01 X57.4273 Y46.1150 
G01 X57.9248 Y46.1150 
G01 X57.9708 Y46.1340 
G01 X58.0059 Y46.1691 
G01 X58.0249 Y46.2151 
G01 X58.0249 Y47.7648 
G01 X58.0059 Y47.8108 
G01 X57.9708 Y47.8459 
G01 X57.9248 Y47.8649 
G01 X56.3751 Y47.8649 
G01 X56.3291 Y47.8459 
G01 X56.2940 Y47.8108 
G01 X56.2750 Y47.7648 
G01 X56.2750 Y46.2151 
G01 X56.2940 Y46.1691 
G01 X56.3291 Y46.1340 
G01 X56.3751 Y46.1150 
G01 X56.8726 Y46.1150 
G01 X56.8726 Y33.2599 
G01 X56.3751 Y33.2599 
G01 X56.3291 Y33.2409 
G01 X56.2940 Y33.2058 
G01 X56.2750 Y33.1598 
G01 X56.2750 Y31.6101 
G01 X56.2940 Y31.5641 
G01 X56.3291 Y31.5290 
G01 X56.3751 Y31.5100 
G01 X57.9248 Y31.5100 
G01 X57.9708 Y31.5290 
G01 X58.0059 Y31.5641 
G01 X58.0249 Y31.6101 
G00 Z1.0000 
G00 X58.0249 Y13.8301 
G01 Z-0.1000 F150.00 
G01 X58.0249 Y15.3798 
G01 X58.0059 Y15.4258 
G01 X57.9708 Y15.4609 
G01 X57.9248 Y15.4799 
G01 X57.4273 Y15.4799 
G01 X57.4273 Y27.7000 
G01 X57.9248 Y27.7000 
G01 X57.9708 Y27.7190 
G01 X58.0059 Y27.7541 
G01 X58.0249 Y27.8001 
G01 X58.0249 Y29.3498 
G01 X58.0059 Y29.3958 
G01 X57.9708 Y29.4309 
G01 X57.9248 Y29.4499 
G01 X56.3751 Y29.4499 
G01 X56.3291 Y29.4309 
G01 X56.2940 Y29.3958 
G01 X56.2750 Y29.3498 
G01 X56.2750 Y27.8001 
G01 X56.2940 Y27.7541 
G01 X56.3291 Y27.7190 
G01 X56.3751 Y27.7000 
G01 X56.8726 Y27.7000 
G01 X56.8726 Y15.4799 
G01 X56.3751 Y15.4799 
G01 X56.3291 Y15.4609 
G01 X56.2940 Y15.4258 
G01 X56.2750 Y15.3798 
G01 X56.2750 Y13.8301 
G01 X56.2940 Y13.7841 
G01 X56.3291 Y13.7490 
G01 X56.3751 Y13.7300 
G01 X57.9248 Y13.7300 
G01 X57.9708 Y13.7490 
G01 X58.0059 Y13.7841 
G01 X58.0249 Y13.8301 
G00 Z1.0000 
G00 X39.6099 Y35.4201 
G01 Z-0.1000 F150.00 
G01 X39.6099 Y36.9698 
G01 X39.5909 Y37.0158 
G01 X39.5558 Y37.0509 
G01 X39.5098 Y37.0699 
G01 X37.9601 Y37.0699 
G01 X37.9141 Y37.0509 
G01 X37.8790 Y37.0158 
G01 X37.8600 Y36.9698 
G01 X37.8600 Y36.4723 
G01 X10.3999 Y36.4723 
G01 X10.3999 Y36.9698 
G01 X10.3809 Y37.0158 
G01 X10.3458 Y37.0509 
G01 X10.2998 Y37.0699 
G01 X8.7501 Y37.0699 
G01 X8.7041 Y37.0509 
G01 X8.6690 Y37.0158 
G01 X8.6500 Y36.9698 
G01 X8.6500 Y35.4201 
G01 X8.6690 Y35.3741 
G01 X8.7041 Y35.3390 
G01 X8.7501 Y35.3200 
G01 X10.2998 Y35.3200 
G01 X10.3458 Y35.3390 
G01 X10.3809 Y35.3741 
G01 X10.3999 Y35.4201 
G01 X10.3999 Y35.9176 
G01 X37.8600 Y35.9176 
G01 X37.8600 Y35.4201 
G01 X37.8790 Y35.3741 
G01 X37.9141 Y35.3390 
G01 X37.9601 Y35.3200 
G01 X39.5098 Y35.3200 
G01 X39.5558 Y35.3390 
G01 X39.5909 Y35.3741 
G01 X39.6099 Y35.4201 
G00 Z1.0000 
G00 X19.9249 Y13.8301 
G01 Z-0.1000 F150.00 
G01 X19.9249 Y14.3276 
G01 X25.1600 Y14.3276 
G01 X25.1600 Y13.8301 
G01 X25.1790 Y13.7841 
G01 X25.2141 Y13.7490 
G01 X25.2601 Y13.7300 
G01 X26.8098 Y13.7300 
G01 X26.8558 Y13.7490 
G01 X26.8909 Y13.7841 
G01 X26.9099 Y13.8301 
G01 X26.9099 Y15.3798 
G01 X26.8909 Y15.4258 
G01 X26.8558 Y15.4609 
G01 X26.8098 Y15.4799 
G01 X25.2601 Y15.4799 
G01 X25.2141 Y15.4609 
G01 X25.1790 Y15.4258 
G01 X25.1600 Y15.3798 
G01 X25.1600 Y14.8823 
G01 X19.9249 Y14.8823 
G01 X19.9249 Y15.3798 
G01 X19.9059 Y15.4258 
G01 X19.8708 Y15.4609 
G01 X19.8248 Y15.4799 
G01 X18.2751 Y15.4799 
G01 X18.2291 Y15.4609 
G01 X18.1940 Y15.4258 
G01 X18.1750 Y15.3798 
G01 X18.1750 Y13.8301 
G01 X18.1940 Y13.7841 
G01 X18.2291 Y13.7490 
G01 X18.2751 Y13.7300 
G01 X19.8248 Y13.7300 
G01 X19.8708 Y13.7490 
G01 X19.9059 Y13.7841 
G01 X19.9249 Y13.8301 
G00 Z1.0000 
G00 X21.1949 Y4.9401 
G01 Z-0.1000 F150.00 
G01 X21.1949 Y6.4898 
G01 X21.1759 Y6.5358 
G01 X21.1408 Y6.5709 
G01 X21.0948 Y6.5899 
G01 X19.5451 Y6.5899 
G01 X19.4991 Y6.5709 
G01 X19.4640 Y6.5358 
G01 X19.4450 Y6.4898 
G01 X19.4450 Y5.9923 
G01 X11.0349 Y5.9923 
G01 X11.0349 Y6.4898 
G01 X11.0159 Y6.5358 
G01 X10.9808 Y6.5709 
G01 X10.9348 Y6.5899 
G01 X9.3851 Y6.5899 
G01 X9.3391 Y6.5709 
G01 X9.3040 Y6.5358 
G01 X9.2850 Y6.4898 
G01 X9.2850 Y4.9401 
G01 X9.3040 Y4.8941 
G01 X9.3391 Y4.8590 
G01 X9.3851 Y4.8400 
G01 X10.9348 Y4.8400 
G01 X10.9808 Y4.8590 
G01 X11.0159 Y4.8941 
G01 X11.0349 Y4.9401 
G01 X11.0349 Y5.4376 
G01 X19.4450 Y5.4376 
G01 X19.4450 Y4.9401 
G01 X19.4640 Y4.8941 
G01 X19.4991 Y4.8590 
G01 X19.5451 Y4.8400 
G01 X21.0948 Y4.8400 
G01 X21.1408 Y4.8590 
G01 X21.1759 Y4.8941 
G01 X21.1949 Y4.9401 
G00 Z1.0000 
G00 X43.4199 Y12.5601 
G01 Z-0.1000 F150.00 
G01 X43.4199 Y14.1098 
G01 X43.4009 Y14.1558 
G01 X43.3658 Y14.1909 
G01 X43.3198 Y14.2099 
G01 X41.7701 Y14.2099 
G01 X41.7241 Y14.1909 
G01 X41.6890 Y14.1558 
G01 X41.6700 Y14.1098 
G01 X41.6700 Y13.6123 
G01 X21.8299 Y13.6123 
G01 X21.8299 Y14.1098 
G01 X21.8109 Y14.1558 
G01 X21.7758 Y14.1909 
G01 X21.7298 Y14.2099 
G01 X20.1801 Y14.2099 
G01 X20.1341 Y14.1909 
G01 X20.0990 Y14.1558 
G01 X20.0800 Y14.1098 
G01 X20.0800 Y12.5601 
G01 X20.0990 Y12.5141 
G01 X20.1341 Y12.4790 
G01 X20.1801 Y12.4600 
G01 X21.7298 Y12.4600 
G01 X21.7758 Y12.4790 
G01 X21.8109 Y12.5141 
G01 X21.8299 Y12.5601 
G01 X21.8299 Y13.0576 
G01 X41.6700 Y13.0576 
G01 X41.6700 Y12.5601 
G01 X41.6890 Y12.5141 
G01 X41.7241 Y12.4790 
G01 X41.7701 Y12.4600 
G01 X43.3198 Y12.4600 
G01 X43.3658 Y12.4790 
G01 X43.4009 Y12.5141 
G01 X43.4199 Y12.5601 
G00 Z1.0000 
G00 X17.3900 Y8.4062 
G01 Z-0.1000 F150.00 
G01 X17.3900 Y8.0473 
G01 X14.3447 Y8.0473 
G01 X14.3599 Y8.1037 
G01 X14.3599 Y8.4626 
G01 X17.4051 Y8.4626 
G01 X17.3900 Y8.4062 
G00 Z1.0000 
G00 X21.9799 Y14.1212 
G01 Z-0.1000 F150.00 
G01 X21.9647 Y14.1776 
G01 X25.0100 Y14.1776 
G01 X25.0100 Y13.8187 
G01 X25.0251 Y13.7623 
G01 X21.9799 Y13.7623 
G01 X21.9799 Y14.1212 
G00 Z1.0000 
G00 X11.1849 Y4.9287 
G01 Z-0.1000 F150.00 
G01 X11.1849 Y5.2876 
G01 X12.3252 Y5.2876 
G01 X12.3100 Y5.2312 
G01 X12.3100 Y4.8723 
G01 X11.1698 Y4.8723 
G01 X11.1849 Y4.9287 
G00 Z1.0000 
G00 X6.1049 Y3.6587 
G01 Z-0.1000 F150.00 
G01 X6.1049 Y4.0176 
G01 X12.3100 Y4.0176 
G01 X12.3100 Y3.6587 
G01 X12.3287 Y3.5888 
G01 X12.3649 Y3.5261 
G01 X12.4161 Y3.4749 
G01 X12.4788 Y3.4387 
G01 X12.5487 Y3.4200 
G01 X14.1212 Y3.4200 
G01 X14.1911 Y3.4387 
G01 X14.2538 Y3.4749 
G01 X14.3050 Y3.5261 
G01 X14.3412 Y3.5888 
G01 X14.3599 Y3.6587 
G01 X14.3599 Y5.2312 
G01 X14.3447 Y5.2876 
G01 X19.2950 Y5.2876 
G01 X19.2950 Y4.9287 
G01 X19.3137 Y4.8588 
G01 X19.3499 Y4.7961 
G01 X19.4011 Y4.7449 
G01 X19.4638 Y4.7087 
G01 X19.5337 Y4.6900 
G01 X21.1062 Y4.6900 
G01 X21.1761 Y4.7087 
G01 X21.2388 Y4.7449 
G01 X21.2900 Y4.7961 
G01 X21.3262 Y4.8588 
G01 X21.3449 Y4.9287 
G01 X21.3449 Y6.5012 
G01 X21.3262 Y6.5711 
G01 X21.2900 Y6.6338 
G01 X21.2388 Y6.6850 
G01 X21.1761 Y6.7212 
G01 X21.1062 Y6.7399 
G01 X19.5337 Y6.7399 
G01 X19.4638 Y6.7212 
G01 X19.4011 Y6.6850 
G01 X19.3499 Y6.6338 
G01 X19.3137 Y6.5711 
G01 X19.2950 Y6.5012 
G01 X19.2950 Y6.1423 
G01 X11.1849 Y6.1423 
G01 X11.1849 Y6.5012 
G01 X11.1662 Y6.5711 
G01 X11.1300 Y6.6338 
G01 X11.0788 Y6.6850 
G01 X11.0161 Y6.7212 
G01 X10.9462 Y6.7399 
G01 X9.3737 Y6.7399 
G01 X9.3038 Y6.7212 
G01 X9.2411 Y6.6850 
G01 X9.1899 Y6.6338 
G01 X9.1537 Y6.5711 
G01 X9.1350 Y6.5012 
G01 X9.1350 Y4.9287 
G01 X9.1501 Y4.8723 
G01 X6.1049 Y4.8723 
G01 X6.1049 Y5.2312 
G01 X6.0862 Y5.3011 
G01 X6.0500 Y5.3638 
G01 X5.9988 Y5.4150 
G01 X5.9361 Y5.4512 
G01 X5.8662 Y5.4699 
G01 X4.2937 Y5.4699 
G01 X4.2238 Y5.4512 
G01 X4.1611 Y5.4150 
G01 X4.1099 Y5.3638 
G01 X4.0737 Y5.3011 
G01 X4.0550 Y5.2312 
G01 X4.0550 Y3.6587 
G01 X4.0737 Y3.5888 
G01 X4.1099 Y3.5261 
G01 X4.1611 Y3.4749 
G01 X4.2238 Y3.4387 
G01 X4.2937 Y3.4200 
G01 X5.8662 Y3.4200 
G01 X5.9361 Y3.4387 
G01 X5.9988 Y3.4749 
G01 X6.0500 Y3.5261 
G01 X6.0862 Y3.5888 
G01 X6.1049 Y3.6587 
G00 Z1.0000 
G00 X52.4599 Y17.6287 
G01 Z-0.1000 F150.00 
G01 X52.4599 Y19.2012 
G01 X52.4412 Y19.2711 
G01 X52.4050 Y19.3338 
G01 X52.3538 Y19.3850 
G01 X52.2911 Y19.4212 
G01 X52.2212 Y19.4399 
G01 X51.8623 Y19.4399 
G01 X51.8623 Y27.5500 
G01 X52.2212 Y27.5500 
G01 X52.2911 Y27.5687 
G01 X52.3538 Y27.6049 
G01 X52.4050 Y27.6561 
G01 X52.4412 Y27.7188 
G01 X52.4599 Y27.7887 
G01 X52.4599 Y29.3612 
G01 X52.4412 Y29.4311 
G01 X52.4050 Y29.4938 
G01 X52.3538 Y29.5450 
G01 X52.2911 Y29.5812 
G01 X52.2212 Y29.5999 
G01 X50.6487 Y29.5999 
G01 X50.5788 Y29.5812 
G01 X50.5161 Y29.5450 
G01 X50.4649 Y29.4938 
G01 X50.4287 Y29.4311 
G01 X50.4100 Y29.3612 
G01 X50.4100 Y27.7887 
G01 X50.4287 Y27.7188 
G01 X50.4649 Y27.6561 
G01 X50.5161 Y27.6049 
G01 X50.5788 Y27.5687 
G01 X50.6487 Y27.5500 
G01 X51.0076 Y27.5500 
G01 X51.0076 Y19.4399 
G01 X50.6487 Y19.4399 
G01 X50.5788 Y19.4212 
G01 X50.5161 Y19.3850 
G01 X50.4649 Y19.3338 
G01 X50.4287 Y19.2711 
G01 X50.4100 Y19.2012 
G01 X50.4100 Y17.6287 
G01 X50.4287 Y17.5588 
G01 X50.4649 Y17.4961 
G01 X50.5161 Y17.4449 
G01 X50.5788 Y17.4087 
G01 X50.6487 Y17.3900 
G01 X52.2212 Y17.3900 
G01 X52.2911 Y17.4087 
G01 X52.3538 Y17.4449 
G01 X52.4050 Y17.4961 
G01 X52.4412 Y17.5588 
G01 X52.4599 Y17.6287 
G00 Z1.0000 
G00 X55.6349 Y39.8537 
G01 Z-0.1000 F150.00 
G01 X55.6349 Y41.4262 
G01 X55.6162 Y41.4961 
G01 X55.5800 Y41.5588 
G01 X55.5288 Y41.6100 
G01 X55.4661 Y41.6462 
G01 X55.3962 Y41.6649 
G01 X55.0373 Y41.6649 
G01 X55.0373 Y45.9650 
G01 X55.3962 Y45.9650 
G01 X55.4661 Y45.9837 
G01 X55.5288 Y46.0199 
G01 X55.5800 Y46.0711 
G01 X55.6162 Y46.1338 
G01 X55.6349 Y46.2037 
G01 X55.6349 Y47.7762 
G01 X55.6162 Y47.8461 
G01 X55.5800 Y47.9088 
G01 X55.5288 Y47.9600 
G01 X55.4661 Y47.9962 
G01 X55.3962 Y48.0149 
G01 X53.8237 Y48.0149 
G01 X53.7538 Y47.9962 
G01 X53.6911 Y47.9600 
G01 X53.6399 Y47.9088 
G01 X53.6037 Y47.8461 
G01 X53.5850 Y47.7762 
G01 X53.5850 Y46.2037 
G01 X53.6037 Y46.1338 
G01 X53.6399 Y46.0711 
G01 X53.6911 Y46.0199 
G01 X53.7538 Y45.9837 
G01 X53.8237 Y45.9650 
G01 X54.1826 Y45.9650 
G01 X54.1826 Y41.6649 
G01 X53.8237 Y41.6649 
G01 X53.7538 Y41.6462 
G01 X53.6911 Y41.6100 
G01 X53.6399 Y41.5588 
G01 X53.6037 Y41.4961 
G01 X53.5850 Y41.4262 
G01 X53.5850 Y39.8537 
G01 X53.6037 Y39.7838 
G01 X53.6399 Y39.7211 
G01 X53.6911 Y39.6699 
G01 X53.7538 Y39.6337 
G01 X53.8237 Y39.6150 
G01 X55.3962 Y39.6150 
G01 X55.4661 Y39.6337 
G01 X55.5288 Y39.6699 
G01 X55.5800 Y39.7211 
G01 X55.6162 Y39.7838 
G01 X55.6349 Y39.8537 
G00 Z1.0000 
G00 X2.9299 Y22.0737 
G01 Z-0.1000 F150.00 
G01 X2.9299 Y22.4326 
G01 X15.4850 Y22.4326 
G01 X15.4850 Y22.0737 
G01 X15.5037 Y22.0038 
G01 X15.5399 Y21.9411 
G01 X15.5911 Y21.8899 
G01 X15.6538 Y21.8537 
G01 X15.7237 Y21.8350 
G01 X17.2962 Y21.8350 
G01 X17.3661 Y21.8537 
G01 X17.4288 Y21.8899 
G01 X17.4800 Y21.9411 
G01 X17.5162 Y22.0038 
G01 X17.5349 Y22.0737 
G01 X17.5349 Y23.6462 
G01 X17.5162 Y23.7161 
G01 X17.4800 Y23.7788 
G01 X17.4288 Y23.8300 
G01 X17.3661 Y23.8662 
G01 X17.2962 Y23.8849 
G01 X15.7237 Y23.8849 
G01 X15.6538 Y23.8662 
G01 X15.5911 Y23.8300 
G01 X15.5399 Y23.7788 
G01 X15.5037 Y23.7161 
G01 X15.4850 Y23.6462 
G01 X15.4850 Y23.2873 
G01 X2.9299 Y23.2873 
G01 X2.9299 Y23.6462 
G01 X2.9112 Y23.7161 
G01 X2.8750 Y23.7788 
G01 X2.8238 Y23.8300 
G01 X2.7611 Y23.8662 
G01 X2.6912 Y23.8849 
G01 X1.1187 Y23.8849 
G01 X1.0488 Y23.8662 
G01 X0.9861 Y23.8300 
G01 X0.9349 Y23.7788 
G01 X0.8987 Y23.7161 
G01 X0.8800 Y23.6462 
G01 X0.8800 Y22.0737 
G01 X0.8987 Y22.0038 
G01 X0.9349 Y21.9411 
G01 X0.9861 Y21.8899 
G01 X1.0488 Y21.8537 
G01 X1.1187 Y21.8350 
G01 X2.6912 Y21.8350 
G01 X2.7611 Y21.8537 
G01 X2.8238 Y21.8899 
G01 X2.8750 Y21.9411 
G01 X2.9112 Y22.0038 
G01 X2.9299 Y22.0737 
G00 Z1.0000 
G00 X10.6294 Y10.5742 
G01 Z-0.1000 F150.00 
G01 X10.6294 Y12.1707 
G01 X10.6107 Y12.2406 
G01 X10.5745 Y12.3033 
G01 X10.5233 Y12.3545 
G01 X10.4606 Y12.3907 
G01 X10.3907 Y12.4094 
G01 X8.7942 Y12.4094 
G01 X8.7243 Y12.3907 
G01 X8.6616 Y12.3545 
G01 X8.6104 Y12.3033 
G01 X8.5742 Y12.2406 
G01 X8.5555 Y12.1707 
G01 X8.5555 Y10.5742 
G01 X8.5742 Y10.5043 
G01 X8.6104 Y10.4416 
G01 X8.6616 Y10.3904 
G01 X8.7243 Y10.3542 
G01 X8.7942 Y10.3355 
G01 X10.3907 Y10.3355 
G01 X10.4606 Y10.3542 
G01 X10.5233 Y10.3904 
G01 X10.5745 Y10.4416 
G01 X10.6107 Y10.5043 
G01 X10.6294 Y10.5742 
G00 Z1.0000 
G00 X13.1694 Y11.2908 
G01 Z-0.1000 F150.00 
G01 X13.1694 Y11.4541 
G01 X13.1439 Y11.6153 
G01 X13.0934 Y11.7705 
G01 X13.0193 Y11.9160 
G01 X12.9234 Y12.0480 
G01 X12.8080 Y12.1634 
G01 X12.6760 Y12.2593 
G01 X12.5305 Y12.3334 
G01 X12.3753 Y12.3839 
G01 X12.2141 Y12.4094 
G01 X12.0508 Y12.4094 
G01 X11.8896 Y12.3839 
G01 X11.7344 Y12.3334 
G01 X11.5889 Y12.2593 
G01 X11.4569 Y12.1634 
G01 X11.3415 Y12.0480 
G01 X11.2456 Y11.9160 
G01 X11.1715 Y11.7705 
G01 X11.1210 Y11.6153 
G01 X11.0955 Y11.4541 
G01 X11.0955 Y11.2908 
G01 X11.1210 Y11.1296 
G01 X11.1715 Y10.9744 
G01 X11.2456 Y10.8289 
G01 X11.3415 Y10.6969 
G01 X11.4569 Y10.5815 
G01 X11.5889 Y10.4856 
G01 X11.7344 Y10.4115 
G01 X11.8896 Y10.3610 
G01 X12.0508 Y10.3355 
G01 X12.2141 Y10.3355 
G01 X12.3753 Y10.3610 
G01 X12.5305 Y10.4115 
G01 X12.6760 Y10.4856 
G01 X12.8080 Y10.5815 
G01 X12.9234 Y10.6969 
G01 X13.0193 Y10.8289 
G01 X13.0934 Y10.9744 
G01 X13.1439 Y11.1296 
G01 X13.1694 Y11.2908 
G00 Z1.0000 
G00 X15.7094 Y11.2908 
G01 Z-0.1000 F150.00 
G01 X15.7094 Y11.4541 
G01 X15.6839 Y11.6153 
G01 X15.6334 Y11.7705 
G01 X15.5593 Y11.9160 
G01 X15.4634 Y12.0480 
G01 X15.3480 Y12.1634 
G01 X15.2160 Y12.2593 
G01 X15.0705 Y12.3334 
G01 X14.9153 Y12.3839 
G01 X14.7541 Y12.4094 
G01 X14.5908 Y12.4094 
G01 X14.4296 Y12.3839 
G01 X14.2744 Y12.3334 
G01 X14.1289 Y12.2593 
G01 X13.9969 Y12.1634 
G01 X13.8815 Y12.0480 
G01 X13.7856 Y11.9160 
G01 X13.7115 Y11.7705 
G01 X13.6610 Y11.6153 
G01 X13.6355 Y11.4541 
G01 X13.6355 Y11.2908 
G01 X13.6610 Y11.1296 
G01 X13.7115 Y10.9744 
G01 X13.7856 Y10.8289 
G01 X13.8815 Y10.6969 
G01 X13.9969 Y10.5815 
G01 X14.1289 Y10.4856 
G01 X14.2744 Y10.4115 
G01 X14.4296 Y10.3610 
G01 X14.5908 Y10.3355 
G01 X14.7541 Y10.3355 
G01 X14.9153 Y10.3610 
G01 X15.0705 Y10.4115 
G01 X15.2160 Y10.4856 
G01 X15.3480 Y10.5815 
G01 X15.4634 Y10.6969 
G01 X15.5593 Y10.8289 
G01 X15.6334 Y10.9744 
G01 X15.6839 Y11.1296 
G01 X15.7094 Y11.2908 
G00 Z1.0000 
G00 X18.2494 Y11.2908 
G01 Z-0.1000 F150.00 
G01 X18.2494 Y11.4541 
G01 X18.2239 Y11.6153 
G01 X18.1734 Y11.7705 
G01 X18.0993 Y11.9160 
G01 X18.0034 Y12.0480 
G01 X17.8880 Y12.1634 
G01 X17.7560 Y12.2593 
G01 X17.6105 Y12.3334 
G01 X17.4553 Y12.3839 
G01 X17.2941 Y12.4094 
G01 X17.1308 Y12.4094 
G01 X16.9696 Y12.3839 
G01 X16.8144 Y12.3334 
G01 X16.6689 Y12.2593 
G01 X16.5369 Y12.1634 
G01 X16.4215 Y12.0480 
G01 X16.3256 Y11.9160 
G01 X16.2515 Y11.7705 
G01 X16.2010 Y11.6153 
G01 X16.1755 Y11.4541 
G01 X16.1755 Y11.2908 
G01 X16.2010 Y11.1296 
G01 X16.2515 Y10.9744 
G01 X16.3256 Y10.8289 
G01 X16.4215 Y10.6969 
G01 X16.5369 Y10.5815 
G01 X16.6689 Y10.4856 
G01 X16.8144 Y10.4115 
G01 X16.9696 Y10.3610 
G01 X17.1308 Y10.3355 
G01 X17.2941 Y10.3355 
G01 X17.4553 Y10.3610 
G01 X17.6105 Y10.4115 
G01 X17.7560 Y10.4856 
G01 X17.8880 Y10.5815 
G01 X18.0034 Y10.6969 
G01 X18.0993 Y10.8289 
G01 X18.1734 Y10.9744 
G01 X18.2239 Y11.1296 
G01 X18.2494 Y11.2908 
G00 Z1.0000 
G00 X20.7894 Y11.2908 
G01 Z-0.1000 F150.00 
G01 X20.7894 Y11.4541 
G01 X20.7639 Y11.6153 
G01 X20.7134 Y11.7705 
G01 X20.6393 Y11.9160 
G01 X20.5434 Y12.0480 
G01 X20.4280 Y12.1634 
G01 X20.2960 Y12.2593 
G01 X20.1962 Y12.3100 
G01 X21.7412 Y12.3100 
G01 X21.8111 Y12.3287 
G01 X21.8738 Y12.3649 
G01 X21.9250 Y12.4161 
