( This gcode generated by C:/Program Files (x86)/EAGLE-5.7.0/ulp/pcb-gcode.ulp )
( Copyright 2005 by John Johnson. See readme.txt for licensing terms. )

( This file generated from the board //maggie/data/micro/design/eagle/projects/realway/cnc/ctrl/spindle_ctrl.brd )
( This file generated 2010-07-04 23:28:02 )

G21

G90
G00 Z1.0000 
G00 X0 Y0
M03
G04 P3.000000
G00 Z1.0000 
G00 X-19.3149 Y6.8401 
G01 Z-0.0800 F150.00
G01 X-19.3149 Y7.3176 
G01 X-27.9001 Y7.3176 
G01 X-27.9798 Y7.3176 
G01 X-28.0567 Y7.3382 
G01 X-28.1256 Y7.3780 
G01 X-30.1544 Y9.4068 
G01 X-30.1942 Y9.4757 
G01 X-30.2148 Y9.5526 
G01 X-30.2148 Y9.6323 
G01 X-30.2148 Y10.5106 
G01 X-30.3444 Y10.5643 
G01 X-30.4938 Y10.6641 
G01 X-30.6208 Y10.7911 
G01 X-30.7206 Y10.9405 
G01 X-30.7894 Y11.1064 
G01 X-30.8244 Y11.2826 
G01 X-30.8244 Y11.4623 
G01 X-30.7894 Y11.6385 
G01 X-30.7206 Y11.8044 
G01 X-30.6208 Y11.9538 
G01 X-30.4938 Y12.0808 
G01 X-30.3444 Y12.1806 
G01 X-30.1785 Y12.2494 
G01 X-30.0023 Y12.2844 
G01 X-29.8226 Y12.2844 
G01 X-29.6464 Y12.2494 
G01 X-29.4805 Y12.1806 
G01 X-29.3311 Y12.0808 
G01 X-29.2041 Y11.9538 
G01 X-29.1043 Y11.8044 
G01 X-29.0355 Y11.6385 
G01 X-29.0005 Y11.4623 
G01 X-29.0005 Y11.2826 
G01 X-29.0355 Y11.1064 
G01 X-29.1043 Y10.9405 
G01 X-29.2041 Y10.7911 
G01 X-29.3311 Y10.6641 
G01 X-29.4805 Y10.5643 
G01 X-29.6101 Y10.5106 
G01 X-29.6101 Y9.7177 
G01 X-27.8147 Y7.9223 
G01 X-19.3149 Y7.9223 
G01 X-19.3149 Y8.3998 
G01 X-19.2921 Y8.4549 
G01 X-19.2499 Y8.4971 
G01 X-19.1948 Y8.5199 
G01 X-17.6351 Y8.5199 
G01 X-17.5800 Y8.4971 
G01 X-17.5378 Y8.4549 
G01 X-17.5150 Y8.3998 
G01 X-17.5150 Y6.8401 
G01 X-17.5378 Y6.7850 
G01 X-17.5800 Y6.7428 
G01 X-17.6351 Y6.7200 
G01 X-19.1948 Y6.7200 
G01 X-19.2499 Y6.7428 
G01 X-19.2921 Y6.7850 
G01 X-19.3149 Y6.8401 
G00 Z1.0000 
G00 X-26.9349 Y13.8251 
G01 Z-0.0800 F150.00 
G01 X-26.9349 Y15.3848 
G01 X-26.9121 Y15.4399 
G01 X-26.8699 Y15.4821 
G01 X-26.8148 Y15.5049 
G01 X-26.3373 Y15.5049 
G01 X-26.3373 Y18.2897 
G01 X-26.9482 Y18.9006 
G01 X-27.0537 Y18.8569 
G01 X-27.2201 Y18.8238 
G01 X-27.3898 Y18.8238 
G01 X-27.5562 Y18.8569 
G01 X-27.7129 Y18.9218 
G01 X-27.8539 Y19.0160 
G01 X-27.9739 Y19.1360 
G01 X-28.0681 Y19.2770 
G01 X-28.1330 Y19.4337 
G01 X-28.1661 Y19.6001 
G01 X-28.1661 Y19.7698 
G01 X-28.1330 Y19.9362 
G01 X-28.0681 Y20.0929 
G01 X-27.9739 Y20.2339 
G01 X-27.8539 Y20.3539 
G01 X-27.7129 Y20.4481 
G01 X-27.5562 Y20.5130 
G01 X-27.3898 Y20.5461 
G01 X-27.2201 Y20.5461 
G01 X-27.0537 Y20.5130 
G01 X-26.8970 Y20.4481 
G01 X-26.7560 Y20.3539 
G01 X-26.6360 Y20.2339 
G01 X-26.5418 Y20.0929 
G01 X-26.4769 Y19.9362 
G01 X-26.4438 Y19.7698 
G01 X-26.4438 Y19.6001 
G01 X-26.4769 Y19.4337 
G01 X-26.5206 Y19.3282 
G01 X-25.8493 Y18.6569 
G01 X-25.7930 Y18.6006 
G01 X-25.7532 Y18.5317 
G01 X-25.7326 Y18.4548 
G01 X-25.7326 Y15.5049 
G01 X-25.2551 Y15.5049 
G01 X-25.2000 Y15.4821 
G01 X-25.1578 Y15.4399 
G01 X-25.1350 Y15.3848 
G01 X-25.1350 Y13.8251 
G01 X-25.1578 Y13.7700 
G01 X-25.2000 Y13.7278 
G01 X-25.2551 Y13.7050 
G01 X-26.8148 Y13.7050 
G01 X-26.8699 Y13.7278 
G01 X-26.9121 Y13.7700 
G01 X-26.9349 Y13.8251 
G00 Z1.0000 
G00 X-58.0499 Y13.8251 
G01 Z-0.0800 F150.00 
G01 X-58.0499 Y14.2518 
G01 X-62.2088 Y14.2518 
G01 X-62.3019 Y14.2518 
G01 X-62.3917 Y14.2759 
G01 X-62.4722 Y14.3223 
G01 X-65.6395 Y17.4896 
G01 X-66.8198 Y17.4896 
G01 X-66.8749 Y17.5124 
G01 X-66.9171 Y17.5546 
G01 X-66.9399 Y17.6097 
G01 X-66.9399 Y19.1694 
G01 X-66.9171 Y19.2245 
G01 X-66.8749 Y19.2667 
G01 X-66.8198 Y19.2895 
G01 X-65.2601 Y19.2895 
G01 X-65.2050 Y19.2667 
G01 X-65.1628 Y19.2245 
G01 X-65.1400 Y19.1694 
G01 X-65.1400 Y17.9891 
G01 X-62.1090 Y14.9581 
G01 X-58.0499 Y14.9581 
G01 X-58.0499 Y15.3848 
G01 X-58.0271 Y15.4399 
G01 X-57.9849 Y15.4821 
G01 X-57.9298 Y15.5049 
G01 X-56.7495 Y15.5049 
G01 X-56.7318 Y15.5226 
G01 X-56.6513 Y15.5690 
G01 X-56.5615 Y15.5931 
G01 X-52.8849 Y15.5931 
G01 X-52.8849 Y15.8698 
G01 X-52.8621 Y15.9249 
G01 X-52.8199 Y15.9671 
G01 X-52.7648 Y15.9899 
G01 X-51.9051 Y15.9899 
G01 X-51.8500 Y15.9671 
G01 X-51.8078 Y15.9249 
G01 X-51.7850 Y15.8698 
G01 X-51.7850 Y14.6101 
G01 X-51.8078 Y14.5550 
G01 X-51.8500 Y14.5128 
G01 X-51.9051 Y14.4900 
G01 X-52.7648 Y14.4900 
G01 X-52.8199 Y14.5128 
G01 X-52.8621 Y14.5550 
G01 X-52.8849 Y14.6101 
G01 X-52.8849 Y14.8868 
G01 X-56.2500 Y14.8868 
G01 X-56.2500 Y13.8251 
G01 X-56.2728 Y13.7700 
G01 X-56.3150 Y13.7278 
G01 X-56.3701 Y13.7050 
G01 X-57.9298 Y13.7050 
G01 X-57.9849 Y13.7278 
G01 X-58.0271 Y13.7700 
G01 X-58.0499 Y13.8251 
G00 Z1.0000 
G00 X-61.7749 Y40.0101 
G01 Z-0.0800 F150.00 
G01 X-61.7749 Y40.1852 
G01 X-63.8100 Y40.1852 
G01 X-63.9299 Y40.1852 
G01 X-64.0455 Y40.2162 
G01 X-64.1492 Y40.2760 
G01 X-64.2282 Y40.3550 
G01 X-64.7648 Y40.3550 
G01 X-64.8199 Y40.3778 
G01 X-64.8621 Y40.4200 
G01 X-64.8746 Y40.4502 
G01 X-66.2215 Y40.4502 
G01 X-66.7790 Y39.8927 
G01 X-66.7790 Y37.9959 
G01 X-66.0863 Y37.9959 
G01 X-66.0312 Y37.9731 
G01 X-65.9890 Y37.9309 
G01 X-65.9662 Y37.8758 
G01 X-65.9662 Y36.5969 
G01 X-65.9890 Y36.5418 
G01 X-66.0312 Y36.4996 
G01 X-66.0863 Y36.4768 
G01 X-68.3812 Y36.4768 
G01 X-68.4363 Y36.4996 
G01 X-68.4785 Y36.5418 
G01 X-68.5013 Y36.5969 
G01 X-68.5013 Y37.8758 
G01 X-68.4785 Y37.9309 
G01 X-68.4363 Y37.9731 
G01 X-68.3812 Y37.9959 
G01 X-67.6885 Y37.9959 
G01 X-67.6885 Y40.0212 
G01 X-67.6885 Y40.1411 
G01 X-67.6575 Y40.2567 
G01 X-67.5977 Y40.3604 
G01 X-66.6892 Y41.2689 
G01 X-66.5855 Y41.3287 
G01 X-66.4699 Y41.3597 
G01 X-66.3500 Y41.3597 
G01 X-64.8746 Y41.3597 
G01 X-64.8621 Y41.3899 
G01 X-64.8199 Y41.4321 
G01 X-64.7648 Y41.4549 
G01 X-63.5051 Y41.4549 
G01 X-63.4500 Y41.4321 
G01 X-63.4078 Y41.3899 
G01 X-63.3850 Y41.3348 
G01 X-63.3850 Y41.0947 
G01 X-61.7749 Y41.0947 
G01 X-61.7749 Y41.2698 
G01 X-61.7521 Y41.3249 
G01 X-61.7099 Y41.3671 
G01 X-61.6548 Y41.3899 
G01 X-60.7951 Y41.3899 
G01 X-60.7400 Y41.3671 
G01 X-60.6978 Y41.3249 
G01 X-60.6750 Y41.2698 
G01 X-60.6750 Y40.0101 
G01 X-60.6978 Y39.9550 
G01 X-60.7400 Y39.9128 
G01 X-60.7951 Y39.8900 
G01 X-61.6548 Y39.8900 
G01 X-61.7099 Y39.9128 
G01 X-61.7521 Y39.9550 
G01 X-61.7749 Y40.0101 
G00 Z1.0000 
G00 X-55.7500 Y35.8098 
G01 Z-0.0800 F150.00 
G01 X-55.7500 Y34.5501 
G01 X-55.7728 Y34.4950 
G01 X-55.8150 Y34.4528 
G01 X-55.8701 Y34.4300 
G01 X-58.4298 Y34.4300 
G01 X-58.4849 Y34.4528 
G01 X-58.5271 Y34.4950 
G01 X-58.5382 Y34.5220 
G01 X-59.7860 Y34.5220 
G01 X-59.7860 Y33.0951 
G01 X-59.8088 Y33.0400 
G01 X-59.8510 Y32.9978 
G01 X-59.9061 Y32.9750 
G01 X-60.3780 Y32.9750 
G01 X-60.3780 Y31.7810 
G01 X-59.7996 Y31.2025 
G01 X-59.7282 Y31.1614 
G01 X-59.7047 Y31.1379 
G01 X-59.6251 Y31.1379 
G01 X-57.8079 Y31.1379 
G01 X-57.8079 Y31.4850 
G01 X-57.9298 Y31.4850 
G01 X-57.9849 Y31.5078 
G01 X-58.0271 Y31.5500 
G01 X-58.0499 Y31.6051 
G01 X-58.0499 Y33.1648 
G01 X-58.0271 Y33.2199 
G01 X-57.9849 Y33.2621 
G01 X-57.9298 Y33.2849 
G01 X-56.3701 Y33.2849 
G01 X-56.3150 Y33.2621 
G01 X-56.2728 Y33.2199 
G01 X-56.2500 Y33.1648 
G01 X-56.2500 Y31.6051 
G01 X-56.2728 Y31.5500 
G01 X-56.3150 Y31.5078 
G01 X-56.3701 Y31.4850 
G01 X-56.4920 Y31.4850 
G01 X-56.4920 Y31.1379 
G01 X-50.8229 Y31.1379 
G01 X-50.8229 Y31.5238 
G01 X-50.9060 Y31.5238 
G01 X-50.9611 Y31.5466 
G01 X-51.0033 Y31.5888 
G01 X-51.0261 Y31.6439 
G01 X-51.0261 Y33.1260 
G01 X-51.0033 Y33.1811 
G01 X-50.9611 Y33.2233 
G01 X-50.9060 Y33.2461 
G01 X-49.4239 Y33.2461 
G01 X-49.3688 Y33.2233 
G01 X-49.3266 Y33.1811 
G01 X-49.3038 Y33.1260 
G01 X-49.3038 Y31.6439 
G01 X-49.3266 Y31.5888 
G01 X-49.3688 Y31.5466 
G01 X-49.4239 Y31.5238 
G01 X-49.5070 Y31.5238 
G01 X-49.5070 Y31.1379 
G01 X-18.3501 Y31.1379 
G01 X-16.4451 Y31.1379 
G01 X-16.3180 Y31.1126 
G01 X-16.1983 Y31.0630 
G01 X-16.0905 Y30.9910 
G01 X-15.9989 Y30.8994 
G01 X-15.9269 Y30.7916 
G01 X-15.8773 Y30.6719 
G01 X-15.8520 Y30.5448 
G01 X-15.8520 Y30.4151 
G01 X-15.8773 Y30.2880 
G01 X-15.9269 Y30.1683 
G01 X-15.9989 Y30.0605 
G01 X-16.0552 Y30.0042 
G01 X-16.0552 Y23.7599 
G01 X-15.7301 Y23.7599 
G01 X-15.6750 Y23.7371 
G01 X-15.6328 Y23.6949 
G01 X-15.6100 Y23.6398 
G01 X-15.6100 Y22.0801 
G01 X-15.6328 Y22.0250 
G01 X-15.6750 Y21.9828 
G01 X-15.7301 Y21.9600 
G01 X-17.2898 Y21.9600 
G01 X-17.3449 Y21.9828 
G01 X-17.3871 Y22.0250 
G01 X-17.4099 Y22.0801 
G01 X-17.4099 Y23.6398 
G01 X-17.3871 Y23.6949 
G01 X-17.3449 Y23.7371 
G01 X-17.2898 Y23.7599 
G01 X-16.9647 Y23.7599 
G01 X-16.9647 Y29.8220 
G01 X-18.0618 Y29.8220 
G01 X-18.0618 Y21.6256 
G01 X-15.8284 Y21.6256 
G01 X-15.7386 Y21.6015 
G01 X-15.6581 Y21.5551 
G01 X-15.5923 Y21.4893 
G01 X-15.5459 Y21.4088 
G01 X-15.5218 Y21.3190 
G01 X-15.5218 Y21.2259 
G01 X-15.5218 Y16.6563 
G01 X-11.8498 Y12.9843 
G01 X-11.8034 Y12.9038 
G01 X-11.7793 Y12.8140 
G01 X-11.7793 Y12.7209 
G01 X-11.7793 Y12.2132 
G01 X-11.7005 Y12.1806 
G01 X-11.5511 Y12.0808 
G01 X-11.4241 Y11.9538 
G01 X-11.3243 Y11.8044 
G01 X-11.2555 Y11.6385 
G01 X-11.2205 Y11.4623 
G01 X-11.2205 Y11.2826 
G01 X-11.2555 Y11.1064 
G01 X-11.3243 Y10.9405 
G01 X-11.4241 Y10.7911 
G01 X-11.5511 Y10.6641 
G01 X-11.7005 Y10.5643 
G01 X-11.8664 Y10.4955 
G01 X-12.0426 Y10.4605 
G01 X-12.2223 Y10.4605 
G01 X-12.3985 Y10.4955 
G01 X-12.5644 Y10.5643 
G01 X-12.7138 Y10.6641 
G01 X-12.8408 Y10.7911 
G01 X-12.9406 Y10.9405 
G01 X-13.0094 Y11.1064 
G01 X-13.0444 Y11.2826 
G01 X-13.0444 Y11.4623 
G01 X-13.0094 Y11.6385 
G01 X-12.9406 Y11.8044 
G01 X-12.8408 Y11.9538 
G01 X-12.7138 Y12.0808 
G01 X-12.5644 Y12.1806 
G01 X-12.4856 Y12.2132 
G01 X-12.4856 Y12.6211 
G01 X-16.0918 Y16.2273 
G01 X-16.1576 Y16.2931 
G01 X-16.2040 Y16.3736 
G01 X-16.2281 Y16.4634 
G01 X-16.2281 Y20.9193 
G01 X-18.3684 Y20.9193 
G01 X-18.4615 Y20.9193 
G01 X-18.5513 Y20.9434 
G01 X-18.6318 Y20.9898 
G01 X-18.6976 Y21.0556 
G01 X-18.7440 Y21.1361 
G01 X-18.7681 Y21.2259 
G01 X-18.7681 Y29.8220 
G01 X-50.1001 Y29.8220 
G01 X-56.5936 Y29.8220 
G01 X-56.5936 Y29.4749 
G01 X-56.3701 Y29.4749 
G01 X-56.3150 Y29.4521 
G01 X-56.2728 Y29.4099 
G01 X-56.2500 Y29.3548 
G01 X-56.2500 Y27.7951 
G01 X-56.2728 Y27.7400 
G01 X-56.3150 Y27.6978 
G01 X-56.3701 Y27.6750 
G01 X-57.9298 Y27.6750 
G01 X-57.9849 Y27.6978 
G01 X-58.0271 Y27.7400 
G01 X-58.0499 Y27.7951 
G01 X-58.0499 Y29.3548 
G01 X-58.0271 Y29.4099 
G01 X-57.9849 Y29.4521 
G01 X-57.9298 Y29.4749 
G01 X-57.7063 Y29.4749 
G01 X-57.7063 Y29.8220 
G01 X-59.6251 Y29.8220 
G01 X-60.0723 Y29.8220 
G01 X-60.1994 Y29.8473 
G01 X-60.3191 Y29.8969 
G01 X-60.4269 Y29.9689 
G01 X-60.5185 Y30.0605 
G01 X-60.5185 Y30.0606 
G01 X-61.5470 Y31.0890 
G01 X-61.6190 Y31.1968 
G01 X-61.6686 Y31.3165 
G01 X-61.6939 Y31.4436 
G01 X-61.6939 Y31.5733 
G01 X-61.6939 Y32.9750 
G01 X-62.1658 Y32.9750 
G01 X-62.2209 Y32.9978 
G01 X-62.2631 Y33.0400 
G01 X-62.2859 Y33.0951 
G01 X-62.2859 Y34.9727 
G01 X-64.4989 Y37.1857 
G01 X-64.5587 Y37.2894 
G01 X-64.5897 Y37.4050 
G01 X-64.5897 Y37.5249 
G01 X-64.5897 Y38.5550 
G01 X-64.7648 Y38.5550 
G01 X-64.8199 Y38.5778 
G01 X-64.8621 Y38.6200 
G01 X-64.8849 Y38.6751 
G01 X-64.8849 Y39.5348 
G01 X-64.8621 Y39.5899 
G01 X-64.8199 Y39.6321 
G01 X-64.7648 Y39.6549 
G01 X-63.5051 Y39.6549 
G01 X-63.4500 Y39.6321 
G01 X-63.4078 Y39.5899 
G01 X-63.3850 Y39.5348 
G01 X-63.3850 Y38.6751 
G01 X-63.4078 Y38.6200 
G01 X-63.4500 Y38.5778 
G01 X-63.5051 Y38.5550 
G01 X-63.6802 Y38.5550 
G01 X-63.6802 Y37.6534 
G01 X-62.2859 Y36.2590 
G01 X-62.2859 Y36.7548 
G01 X-62.2631 Y36.8099 
G01 X-62.2209 Y36.8521 
G01 X-62.1658 Y36.8749 
G01 X-59.9061 Y36.8749 
G01 X-59.8510 Y36.8521 
G01 X-59.8088 Y36.8099 
G01 X-59.7860 Y36.7548 
G01 X-59.7860 Y35.8379 
G01 X-58.5382 Y35.8379 
G01 X-58.5271 Y35.8649 
G01 X-58.4849 Y35.9071 
G01 X-58.4298 Y35.9299 
G01 X-55.8701 Y35.9299 
G01 X-55.8150 Y35.9071 
G01 X-55.7728 Y35.8649 
G01 X-55.7500 Y35.8098 
G00 Z1.0000 
G00 X-74.4249 Y37.8501 
G01 Z-0.0800 F150.00 
G01 X-74.4249 Y38.7120 
G01 X-76.2033 Y38.7120 
G01 X-76.4137 Y38.5016 
G01 X-76.3755 Y38.5237 
G01 X-76.2599 Y38.5547 
G01 X-75.6249 Y38.5547 
G01 X-75.5050 Y38.5547 
G01 X-75.3894 Y38.5237 
G01 X-75.2857 Y38.4639 
G01 X-74.3098 Y37.4879 
G01 X-74.2301 Y37.4879 
G01 X-74.1030 Y37.4626 
G01 X-73.9833 Y37.4130 
G01 X-73.8755 Y37.3410 
G01 X-72.4645 Y35.9299 
G01 X-71.7451 Y35.9299 
G01 X-71.6900 Y35.9071 
G01 X-71.6478 Y35.8649 
G01 X-71.6250 Y35.8098 
G01 X-71.6250 Y34.5501 
G01 X-71.6478 Y34.4950 
G01 X-71.6900 Y34.4528 
G01 X-71.7451 Y34.4300 
G01 X-74.3048 Y34.4300 
G01 X-74.3599 Y34.4528 
G01 X-74.4021 Y34.4950 
G01 X-74.4249 Y34.5501 
G01 X-74.4249 Y35.8098 
G01 X-74.4021 Y35.8649 
G01 X-74.3599 Y35.9071 
G01 X-74.3193 Y35.9239 
G01 X-74.8060 Y36.4105 
G01 X-74.8780 Y36.5183 
G01 X-74.9276 Y36.6380 
G01 X-74.9529 Y36.7651 
G01 X-74.9529 Y36.8448 
G01 X-75.7534 Y37.6452 
G01 X-76.2599 Y37.6452 
G01 X-76.3755 Y37.6762 
G01 X-76.4137 Y37.6983 
G01 X-75.9230 Y37.2077 
G01 X-75.9230 Y37.1323 
G01 X-75.5251 Y37.1323 
G01 X-75.4482 Y37.1117 
G01 X-75.3793 Y37.0719 
G01 X-75.3230 Y37.0156 
G01 X-75.2832 Y36.9467 
G01 X-75.2626 Y36.8698 
G01 X-75.2626 Y36.7901 
G01 X-75.2626 Y34.4152 
G01 X-69.0897 Y28.2423 
G01 X-59.6501 Y28.2423 
G01 X-59.5732 Y28.2217 
G01 X-59.5043 Y28.1819 
G01 X-59.4480 Y28.1256 
G01 X-59.4480 Y28.1255 
G01 X-57.0247 Y25.7023 
G01 X-27.9001 Y25.7023 
G01 X-27.8232 Y25.6817 
G01 X-27.7543 Y25.6419 
G01 X-27.6980 Y25.5856 
G01 X-27.6980 Y25.5855 
G01 X-23.3095 Y21.1970 
G01 X-23.3093 Y21.1969 
G01 X-23.2530 Y21.1406 
G01 X-23.2132 Y21.0717 
G01 X-23.1926 Y20.9948 
G01 X-23.1926 Y18.5402 
G01 X-22.5817 Y17.9293 
G01 X-22.4762 Y17.9730 
G01 X-22.3098 Y18.0061 
G01 X-22.1401 Y18.0061 
G01 X-21.9737 Y17.9730 
G01 X-21.8170 Y17.9081 
G01 X-21.6760 Y17.8139 
G01 X-21.5560 Y17.6939 
G01 X-21.4618 Y17.5529 
G01 X-21.3969 Y17.3962 
G01 X-21.3638 Y17.2298 
G01 X-21.3638 Y17.0601 
G01 X-21.3969 Y16.8937 
G01 X-21.4618 Y16.7370 
G01 X-21.5560 Y16.5960 
G01 X-21.6760 Y16.4760 
G01 X-21.8170 Y16.3818 
G01 X-21.9737 Y16.3169 
G01 X-22.1401 Y16.2838 
G01 X-22.3098 Y16.2838 
G01 X-22.4762 Y16.3169 
G01 X-22.6329 Y16.3818 
G01 X-22.7739 Y16.4760 
G01 X-22.8939 Y16.5960 
G01 X-22.9881 Y16.7370 
G01 X-23.0530 Y16.8937 
G01 X-23.0861 Y17.0601 
G01 X-23.0861 Y17.2298 
G01 X-23.0530 Y17.3962 
G01 X-23.0093 Y17.5017 
G01 X-23.6806 Y18.1730 
G01 X-23.7369 Y18.2293 
G01 X-23.7767 Y18.2982 
G01 X-23.7973 Y18.3751 
G01 X-23.7973 Y20.8298 
G01 X-28.0651 Y25.0976 
G01 X-57.1101 Y25.0976 
G01 X-57.1898 Y25.0976 
G01 X-57.2667 Y25.1182 
G01 X-57.3356 Y25.1580 
G01 X-59.8152 Y27.6376 
G01 X-69.1751 Y27.6376 
G01 X-69.2548 Y27.6376 
G01 X-69.3317 Y27.6582 
G01 X-69.4006 Y27.6980 
G01 X-75.7506 Y34.0480 
G01 X-75.8069 Y34.1043 
G01 X-75.8467 Y34.1732 
G01 X-75.8673 Y34.2501 
G01 X-75.8673 Y36.5276 
G01 X-75.9230 Y36.5276 
G01 X-75.9230 Y36.4522 
G01 X-76.4572 Y35.9180 
G01 X-77.2127 Y35.9180 
G01 X-77.7469 Y36.4522 
G01 X-77.7469 Y37.2077 
G01 X-77.2127 Y37.7419 
G01 X-76.4850 Y37.7419 
G01 X-76.4900 Y37.7468 
G01 X-77.8149 Y37.7468 
G01 X-77.8257 Y37.7360 
G01 X-77.9294 Y37.6762 
G01 X-78.0450 Y37.6452 
G01 X-78.1649 Y37.6452 
G01 X-78.2805 Y37.6762 
G01 X-78.3842 Y37.7360 
G01 X-78.7170 Y38.0689 
G01 X-78.7170 Y37.4616 
G01 X-78.4630 Y37.2077 
G01 X-78.4630 Y36.4522 
G01 X-78.7170 Y36.1983 
G01 X-78.7170 Y34.9216 
G01 X-78.4630 Y34.6677 
G01 X-78.4630 Y33.9122 
G01 X-78.7170 Y33.6583 
G01 X-78.7170 Y32.3816 
G01 X-78.4630 Y32.1277 
G01 X-78.4630 Y31.3722 
G01 X-78.7170 Y31.1183 
G01 X-78.7170 Y29.8416 
G01 X-78.4630 Y29.5877 
G01 X-78.4630 Y28.8322 
G01 X-78.7170 Y28.5783 
G01 X-78.7170 Y27.3017 
G01 X-78.4630 Y27.0477 
G01 X-78.4630 Y26.2922 
G01 X-78.7170 Y26.0382 
G01 X-78.7170 Y24.7617 
G01 X-78.4630 Y24.5077 
G01 X-78.4630 Y23.7522 
G01 X-78.7170 Y23.4982 
G01 X-78.7170 Y22.2217 
G01 X-78.4630 Y21.9677 
G01 X-78.4630 Y21.2122 
G01 X-78.7170 Y20.9582 
G01 X-78.7170 Y19.6817 
G01 X-78.4630 Y19.4277 
G01 X-78.4630 Y18.6722 
G01 X-78.7170 Y18.4182 
G01 X-78.7170 Y17.1417 
G01 X-78.4630 Y16.8877 
G01 X-78.4630 Y16.1322 
G01 X-78.4804 Y16.1148 
G01 X-74.0911 Y11.7256 
G01 X-71.4731 Y11.7256 
G01 X-71.4731 Y17.4896 
G01 X-71.8998 Y17.4896 
G01 X-71.9549 Y17.5124 
G01 X-71.9971 Y17.5546 
G01 X-72.0199 Y17.6097 
G01 X-72.0199 Y19.1694 
G01 X-71.9971 Y19.2245 
G01 X-71.9549 Y19.2667 
G01 X-71.8998 Y19.2895 
G01 X-70.3401 Y19.2895 
G01 X-70.2850 Y19.2667 
G01 X-70.2428 Y19.2245 
G01 X-70.2200 Y19.1694 
G01 X-70.2200 Y17.6097 
G01 X-70.2428 Y17.5546 
G01 X-70.2850 Y17.5124 
G01 X-70.3401 Y17.4896 
G01 X-70.7668 Y17.4896 
G01 X-70.7668 Y11.7256 
G01 X-48.5332 Y11.7256 
G01 X-48.5006 Y11.8044 
G01 X-48.4008 Y11.9538 
G01 X-48.2738 Y12.0808 
G01 X-48.1244 Y12.1806 
G01 X-47.9585 Y12.2494 
G01 X-47.7823 Y12.2844 
G01 X-47.6026 Y12.2844 
G01 X-47.4264 Y12.2494 
G01 X-47.2605 Y12.1806 
G01 X-47.1111 Y12.0808 
G01 X-46.9841 Y11.9538 
G01 X-46.8843 Y11.8044 
G01 X-46.8155 Y11.6385 
G01 X-46.7805 Y11.4623 
G01 X-46.7805 Y11.2826 
G01 X-46.8155 Y11.1064 
G01 X-46.8843 Y10.9405 
G01 X-46.9841 Y10.7911 
G01 X-47.1111 Y10.6641 
G01 X-47.2605 Y10.5643 
G01 X-47.4264 Y10.4955 
G01 X-47.6026 Y10.4605 
G01 X-47.7823 Y10.4605 
G01 X-47.9585 Y10.4955 
G01 X-48.1244 Y10.5643 
G01 X-48.2738 Y10.6641 
G01 X-48.4008 Y10.7911 
G01 X-48.5006 Y10.9405 
G01 X-48.5332 Y11.0193 
G01 X-71.0734 Y11.0193 
G01 X-71.1665 Y11.0193 
G01 X-74.1909 Y11.0193 
G01 X-74.2840 Y11.0193 
G01 X-74.3738 Y11.0434 
G01 X-74.4543 Y11.0898 
G01 X-78.9798 Y15.6154 
G01 X-78.9972 Y15.5980 
G01 X-79.7527 Y15.5980 
G01 X-80.2869 Y16.1322 
G01 X-80.2869 Y16.8877 
G01 X-80.0329 Y17.1417 
G01 X-80.0329 Y18.4182 
G01 X-80.2869 Y18.6722 
G01 X-80.2869 Y19.4277 
G01 X-80.0329 Y19.6817 
G01 X-80.0329 Y20.9582 
G01 X-80.2869 Y21.2122 
G01 X-80.2869 Y21.9677 
G01 X-80.0329 Y22.2217 
G01 X-80.0329 Y23.4982 
G01 X-80.2869 Y23.7522 
G01 X-80.2869 Y24.5077 
G01 X-80.0329 Y24.7617 
G01 X-80.0329 Y26.0382 
G01 X-80.2869 Y26.2922 
G01 X-80.2869 Y27.0477 
G01 X-80.0329 Y27.3017 
G01 X-80.0329 Y28.5783 
G01 X-80.2869 Y28.8322 
G01 X-80.2869 Y29.5877 
G01 X-80.0329 Y29.8416 
G01 X-80.0329 Y31.1183 
G01 X-80.2869 Y31.3722 
G01 X-80.2869 Y32.1277 
G01 X-80.0329 Y32.3816 
G01 X-80.0329 Y33.6583 
G01 X-80.2869 Y33.9122 
G01 X-80.2869 Y34.6677 
G01 X-80.0329 Y34.9216 
G01 X-80.0329 Y36.1983 
G01 X-80.2869 Y36.4522 
G01 X-80.2869 Y37.2077 
G01 X-80.0329 Y37.4616 
G01 X-80.0329 Y38.7382 
G01 X-80.2869 Y38.9922 
G01 X-80.2869 Y39.7477 
G01 X-79.7527 Y40.2819 
G01 X-79.3934 Y40.2819 
G01 X-75.9844 Y43.6910 
G01 X-75.8766 Y43.7630 
G01 X-75.7569 Y43.8126 
G01 X-75.6298 Y43.8379 
G01 X-75.5001 Y43.8379 
G01 X-73.3273 Y43.8379 
G01 X-73.3273 Y47.0298 
G01 X-73.3067 Y47.1067 
G01 X-73.2669 Y47.1756 
G01 X-73.2106 Y47.2319 
G01 X-71.9406 Y48.5019 
G01 X-71.9349 Y48.5052 
G01 X-71.9349 Y48.8898 
G01 X-71.9121 Y48.9449 
G01 X-71.8699 Y48.9871 
G01 X-71.8148 Y49.0099 
G01 X-70.9551 Y49.0099 
G01 X-70.9000 Y48.9871 
G01 X-70.8578 Y48.9449 
G01 X-70.8350 Y48.8898 
G01 X-70.8350 Y47.6301 
G01 X-70.8578 Y47.5750 
G01 X-70.9000 Y47.5328 
G01 X-70.9551 Y47.5100 
G01 X-71.8148 Y47.5100 
G01 X-71.8699 Y47.5328 
G01 X-71.9121 Y47.5750 
G01 X-71.9349 Y47.6301 
G01 X-71.9349 Y47.6525 
G01 X-72.7226 Y46.8647 
G01 X-72.7226 Y43.8379 
G01 X-59.7548 Y43.8379 
G01 X-57.2148 Y43.8379 
G01 X-54.6748 Y43.8379 
G01 X-54.5451 Y43.8379 
G01 X-53.4048 Y43.8379 
G01 X-50.2298 Y43.8379 
G01 X-50.1001 Y43.8379 
G01 X-49.9730 Y43.8126 
G01 X-49.8533 Y43.7630 
G01 X-49.7455 Y43.6910 
G01 X-39.0974 Y33.0429 
G01 X-37.2847 Y33.0429 
G01 X-37.2847 Y41.9699 
G01 X-37.2537 Y42.0855 
G01 X-37.1939 Y42.1892 
G01 X-37.1092 Y42.2739 
G01 X-37.0055 Y42.3337 
G01 X-36.8899 Y42.3647 
G01 X-36.7700 Y42.3647 
G01 X-12.8884 Y42.3647 
G01 X-8.5022 Y46.7508 
G01 X-8.5319 Y46.9001 
G01 X-8.5319 Y47.0798 
G01 X-8.4969 Y47.2560 
G01 X-8.4281 Y47.4219 
G01 X-8.3283 Y47.5713 
G01 X-8.2013 Y47.6983 
G01 X-8.0519 Y47.7981 
G01 X-7.8860 Y47.8669 
G01 X-7.7098 Y47.9019 
G01 X-7.5301 Y47.9019 
G01 X-7.3539 Y47.8669 
G01 X-7.1880 Y47.7981 
G01 X-7.0386 Y47.6983 
G01 X-6.9882 Y47.6479 
G01 X-5.7117 Y47.6479 
G01 X-5.6613 Y47.6983 
G01 X-5.5119 Y47.7981 
G01 X-5.3460 Y47.8669 
G01 X-5.1698 Y47.9019 
G01 X-4.9901 Y47.9019 
G01 X-4.8139 Y47.8669 
G01 X-4.6480 Y47.7981 
G01 X-4.4986 Y47.6983 
G01 X-4.4482 Y47.6479 
G01 X-3.1717 Y47.6479 
G01 X-3.1213 Y47.6983 
G01 X-2.9719 Y47.7981 
G01 X-2.8060 Y47.8669 
G01 X-2.6298 Y47.9019 
G01 X-2.4501 Y47.9019 
G01 X-2.2739 Y47.8669 
G01 X-2.1080 Y47.7981 
G01 X-1.9586 Y47.6983 
G01 X-1.8316 Y47.5713 
G01 X-1.7318 Y47.4219 
G01 X-1.6630 Y47.2560 
G01 X-1.6280 Y47.0798 
G01 X-1.6280 Y46.9001 
G01 X-1.6630 Y46.7239 
G01 X-1.7318 Y46.5580 
G01 X-1.8316 Y46.4086 
G01 X-1.9586 Y46.2816 
G01 X-2.1080 Y46.1818 
G01 X-2.2739 Y46.1130 
G01 X-2.4501 Y46.0780 
G01 X-2.6298 Y46.0780 
G01 X-2.8060 Y46.1130 
G01 X-2.9719 Y46.1818 
G01 X-3.1213 Y46.2816 
G01 X-3.1717 Y46.3320 
G01 X-4.4482 Y46.3320 
G01 X-4.4986 Y46.2816 
G01 X-4.6480 Y46.1818 
G01 X-4.8139 Y46.1130 
G01 X-4.9901 Y46.0780 
G01 X-5.1698 Y46.0780 
G01 X-5.3460 Y46.1130 
G01 X-5.5119 Y46.1818 
G01 X-5.6613 Y46.2816 
G01 X-5.7117 Y46.3320 
G01 X-6.9882 Y46.3320 
G01 X-7.0386 Y46.2816 
G01 X-7.1880 Y46.1818 
G01 X-7.3539 Y46.1130 
G01 X-7.5301 Y46.0780 
G01 X-7.7098 Y46.0780 
G01 X-7.8591 Y46.1077 
G01 X-12.4207 Y41.5460 
G01 X-12.5244 Y41.4862 
G01 X-12.6400 Y41.4552 
G01 X-12.7599 Y41.4552 
G01 X-36.3752 Y41.4552 
G01 X-36.3752 Y33.0429 
G01 X-14.5401 Y33.0429 
G01 X-14.4130 Y33.0176 
G01 X-14.2933 Y32.9680 
G01 X-14.1855 Y32.8960 
G01 X-14.0939 Y32.8044 
G01 X-14.0219 Y32.6966 
G01 X-13.9723 Y32.5769 
G01 X-13.9470 Y32.4498 
G01 X-13.9470 Y32.3201 
G01 X-13.9723 Y32.1930 
G01 X-14.0219 Y32.0733 
G01 X-14.0939 Y31.9655 
G01 X-14.1855 Y31.8739 
G01 X-14.2518 Y31.8296 
G01 X-14.2518 Y23.6412 
G01 X-13.0523 Y22.4418 
G01 X-13.0059 Y22.3613 
G01 X-12.9818 Y22.2715 
G01 X-12.9818 Y22.1784 
G01 X-12.9818 Y16.6563 
G01 X-9.3098 Y12.9843 
G01 X-9.2634 Y12.9038 
G01 X-9.2393 Y12.8140 
G01 X-9.2393 Y12.7209 
G01 X-9.2393 Y12.2844 
G01 X-8.8006 Y12.2844 
G01 X-8.7455 Y12.2616 
G01 X-8.7033 Y12.2194 
G01 X-8.6805 Y12.1643 
G01 X-8.6805 Y10.5806 
G01 X-8.7033 Y10.5255 
G01 X-8.7455 Y10.4833 
G01 X-8.8006 Y10.4605 
G01 X-10.3843 Y10.4605 
G01 X-10.4394 Y10.4833 
G01 X-10.4816 Y10.5255 
G01 X-10.5044 Y10.5806 
G01 X-10.5044 Y12.1643 
G01 X-10.4816 Y12.2194 
G01 X-10.4394 Y12.2616 
G01 X-10.3843 Y12.2844 
G01 X-9.9456 Y12.2844 
G01 X-9.9456 Y12.6211 
G01 X-13.6176 Y16.2931 
G01 X-13.6640 Y16.3736 
G01 X-13.6881 Y16.4634 
G01 X-13.6881 Y16.5565 
G01 X-13.6881 Y16.5566 
G01 X-13.6881 Y22.0786 
G01 X-14.8217 Y23.2123 
G01 X-14.8218 Y23.2123 
G01 X-14.8876 Y23.2781 
G01 X-14.9340 Y23.3586 
G01 X-14.9581 Y23.4484 
G01 X-14.9581 Y31.7270 
G01 X-36.7651 Y31.7270 
G01 X-39.4348 Y31.7270 
G01 X-39.5619 Y31.7523 
G01 X-39.6816 Y31.8019 
G01 X-39.7894 Y31.8739 
G01 X-39.8810 Y31.9655 
G01 X-50.4375 Y42.5220 
G01 X-51.7516 Y42.5220 
G01 X-50.0956 Y40.8661 
G01 X-50.0801 Y40.8661 
G01 X-49.9137 Y40.8330 
G01 X-49.7570 Y40.7681 
G01 X-49.6160 Y40.6739 
G01 X-49.4960 Y40.5539 
G01 X-49.4018 Y40.4129 
G01 X-49.3369 Y40.2562 
G01 X-49.3038 Y40.0898 
G01 X-49.3038 Y39.9201 
G01 X-49.3369 Y39.7537 
G01 X-49.4018 Y39.5970 
G01 X-49.4960 Y39.4560 
G01 X-49.6160 Y39.3360 
G01 X-49.7570 Y39.2418 
G01 X-49.9137 Y39.1769 
G01 X-50.0801 Y39.1438 
G01 X-50.2498 Y39.1438 
G01 X-50.4162 Y39.1769 
G01 X-50.5729 Y39.2418 
G01 X-50.7139 Y39.3360 
G01 X-50.8339 Y39.4560 
G01 X-50.9281 Y39.5970 
G01 X-50.9930 Y39.7537 
G01 X-51.0261 Y39.9201 
G01 X-51.0261 Y39.9356 
G01 X-53.6125 Y42.5220 
G01 X-53.9520 Y42.5220 
G01 X-53.9520 Y41.5399 
G01 X-53.8301 Y41.5399 
G01 X-53.7750 Y41.5171 
G01 X-53.7328 Y41.4749 
G01 X-53.7100 Y41.4198 
G01 X-53.7100 Y39.8601 
G01 X-53.7328 Y39.8050 
G01 X-53.7750 Y39.7628 
G01 X-53.8301 Y39.7400 
G01 X-55.3898 Y39.7400 
G01 X-55.4449 Y39.7628 
G01 X-55.4871 Y39.8050 
G01 X-55.5099 Y39.8601 
G01 X-55.5099 Y41.4198 
G01 X-55.4871 Y41.4749 
G01 X-55.4449 Y41.5171 
G01 X-55.3898 Y41.5399 
G01 X-55.2679 Y41.5399 
G01 X-55.2679 Y42.5220 
G01 X-56.4920 Y42.5220 
G01 X-56.4920 Y39.2299 
G01 X-55.8701 Y39.2299 
G01 X-55.8150 Y39.2071 
G01 X-55.7728 Y39.1649 
G01 X-55.7500 Y39.1098 
G01 X-55.7500 Y37.8501 
G01 X-55.7728 Y37.7950 
G01 X-55.8150 Y37.7528 
G01 X-55.8701 Y37.7300 
G01 X-58.4298 Y37.7300 
G01 X-58.4849 Y37.7528 
G01 X-58.5271 Y37.7950 
G01 X-58.5499 Y37.8501 
G01 X-58.5499 Y39.1098 
G01 X-58.5271 Y39.1649 
G01 X-58.4849 Y39.2071 
G01 X-58.4298 Y39.2299 
G01 X-57.8079 Y39.2299 
G01 X-57.8079 Y42.5220 
G01 X-58.9702 Y42.5220 
G01 X-58.9702 Y41.3796 
G01 X-58.9400 Y41.3671 
G01 X-58.8978 Y41.3249 
G01 X-58.8750 Y41.2698 
G01 X-58.8750 Y40.0101 
G01 X-58.8978 Y39.9550 
G01 X-58.9400 Y39.9128 
G01 X-58.9951 Y39.8900 
G01 X-59.8548 Y39.8900 
G01 X-59.9099 Y39.9128 
G01 X-59.9521 Y39.9550 
G01 X-59.9749 Y40.0101 
G01 X-59.9749 Y41.2698 
G01 X-59.9521 Y41.3249 
G01 X-59.9099 Y41.3671 
G01 X-59.8797 Y41.3796 
G01 X-59.8797 Y42.5220 
G01 X-73.0898 Y42.5220 
G01 X-75.2924 Y42.5220 
G01 X-78.4630 Y39.3515 
G01 X-78.4630 Y39.1012 
G01 X-77.8149 Y38.4531 
G01 X-76.4900 Y38.4531 
G01 X-76.4850 Y38.4580 
G01 X-77.2127 Y38.4580 
G01 X-77.7469 Y38.9922 
G01 X-77.7469 Y39.7477 
G01 X-77.2127 Y40.2819 
G01 X-76.4572 Y40.2819 
G01 X-76.2033 Y40.0279 
G01 X-73.3072 Y40.0279 
G01 X-73.2697 Y40.0310 
G01 X-73.2426 Y40.0279 
G01 X-73.2151 Y40.0279 
G01 X-73.1783 Y40.0205 
G01 X-73.1409 Y40.0163 
G01 X-73.1147 Y40.0079 
G01 X-73.0880 Y40.0026 
G01 X-73.0538 Y39.9884 
G01 X-73.0175 Y39.9768 
G01 X-72.9933 Y39.9633 
G01 X-72.9683 Y39.9530 
G01 X-72.9372 Y39.9322 
G01 X-72.9042 Y39.9139 
G01 X-72.8834 Y39.8963 
G01 X-72.8605 Y39.8810 
G01 X-72.8340 Y39.8544 
G01 X-72.8053 Y39.8302 
G01 X-72.7883 Y39.8087 
G01 X-72.7689 Y39.7894 
G01 X-72.7481 Y39.7582 
G01 X-72.7246 Y39.7287 
G01 X-72.7120 Y39.7041 
G01 X-72.6969 Y39.6816 
G01 X-72.6827 Y39.6472 
G01 X-72.6653 Y39.6135 
G01 X-72.6577 Y39.5870 
G01 X-72.6473 Y39.5619 
G01 X-72.6400 Y39.5251 
G01 X-72.5554 Y39.2299 
G01 X-71.7451 Y39.2299 
G01 X-71.6900 Y39.2071 
G01 X-71.6478 Y39.1649 
G01 X-71.6367 Y39.1379 
G01 X-71.5648 Y39.1379 
G01 X-71.4351 Y39.1379 
G01 X-71.3080 Y39.1126 
G01 X-71.1883 Y39.0630 
G01 X-71.0805 Y38.9910 
G01 X-69.6564 Y37.5669 
G01 X-69.5844 Y37.4591 
G01 X-69.5348 Y37.3394 
G01 X-69.5095 Y37.2123 
G01 X-69.5095 Y37.0826 
G01 X-69.5095 Y34.2450 
G01 X-68.5360 Y33.2715 
G01 X-68.4936 Y33.2715 
G01 X-68.4785 Y33.3081 
G01 X-68.4363 Y33.3503 
G01 X-68.3812 Y33.3731 
G01 X-66.0863 Y33.3731 
G01 X-66.0312 Y33.3503 
G01 X-65.9890 Y33.3081 
G01 X-65.9662 Y33.2530 
G01 X-65.9662 Y31.9741 
G01 X-65.9890 Y31.9190 
G01 X-66.0312 Y31.8768 
G01 X-66.0863 Y31.8540 
G01 X-68.3812 Y31.8540 
G01 X-68.4363 Y31.8768 
G01 X-68.4785 Y31.9190 
G01 X-68.4936 Y31.9556 
G01 X-68.7437 Y31.9556 
G01 X-68.8734 Y31.9556 
G01 X-69.0005 Y31.9809 
G01 X-69.1202 Y32.0305 
G01 X-69.2280 Y32.1025 
G01 X-70.5869 Y33.4614 
G01 X-70.6785 Y33.5530 
G01 X-70.7505 Y33.6608 
G01 X-70.8001 Y33.7805 
G01 X-70.8254 Y33.9076 
G01 X-70.8254 Y36.8749 
G01 X-71.6994 Y37.7490 
G01 X-71.7451 Y37.7300 
G01 X-74.3048 Y37.7300 
G01 X-74.3599 Y37.7528 
G01 X-74.4021 Y37.7950 
G01 X-74.4249 Y37.8501 
G00 Z1.0000 
G00 X-66.0863 Y34.1654 
G01 Z-0.0800 F150.00 
G01 X-68.3812 Y34.1654 
G01 X-68.4363 Y34.1882 
G01 X-68.4785 Y34.2304 
G01 X-68.5013 Y34.2855 
G01 X-68.5013 Y35.5644 
G01 X-68.4785 Y35.6195 
G01 X-68.4363 Y35.6617 
G01 X-68.3812 Y35.6845 
G01 X-66.0863 Y35.6845 
G01 X-66.0312 Y35.6617 
G01 X-65.9890 Y35.6195 
G01 X-65.9662 Y35.5644 
G01 X-65.9662 Y34.2855 
G01 X-65.9890 Y34.2304 
G01 X-66.0312 Y34.1882 
G01 X-66.0863 Y34.1654 
G00 Z1.0000 
G00 X-51.0849 Y14.6101 
G01 Z-0.0800 F150.00 
G01 X-51.0849 Y15.8698 
G01 X-51.0621 Y15.9249 
G01 X-51.0199 Y15.9671 
G01 X-50.9648 Y15.9899 
G01 X-50.1051 Y15.9899 
G01 X-50.0500 Y15.9671 
G01 X-50.0078 Y15.9249 
G01 X-49.9850 Y15.8698 
G01 X-49.9850 Y15.5931 
G01 X-47.5784 Y15.5931 
G01 X-47.4886 Y15.5690 
G01 X-47.4081 Y15.5226 
G01 X-47.3423 Y15.4568 
G01 X-44.8698 Y12.9843 
G01 X-44.8234 Y12.9038 
G01 X-44.7993 Y12.8140 
G01 X-44.7993 Y12.7209 
G01 X-44.7993 Y12.2132 
G01 X-44.7205 Y12.1806 
G01 X-44.5711 Y12.0808 
G01 X-44.4441 Y11.9538 
G01 X-44.3443 Y11.8044 
G01 X-44.2755 Y11.6385 
G01 X-44.2405 Y11.4623 
G01 X-44.2405 Y11.2826 
G01 X-44.2755 Y11.1064 
G01 X-44.3443 Y10.9405 
G01 X-44.4441 Y10.7911 
G01 X-44.5711 Y10.6641 
G01 X-44.7205 Y10.5643 
G01 X-44.8864 Y10.4955 
G01 X-45.0626 Y10.4605 
G01 X-45.2423 Y10.4605 
G01 X-45.4185 Y10.4955 
G01 X-45.5844 Y10.5643 
G01 X-45.7338 Y10.6641 
G01 X-45.8608 Y10.7911 
G01 X-45.9606 Y10.9405 
G01 X-46.0294 Y11.1064 
G01 X-46.0644 Y11.2826 
G01 X-46.0644 Y11.4623 
G01 X-46.0294 Y11.6385 
G01 X-45.9606 Y11.8044 
G01 X-45.8608 Y11.9538 
G01 X-45.7338 Y12.0808 
G01 X-45.5844 Y12.1806 
G01 X-45.5056 Y12.2132 
G01 X-45.5056 Y12.6211 
G01 X-47.7713 Y14.8868 
G01 X-49.9850 Y14.8868 
G01 X-49.9850 Y14.6101 
G01 X-50.0078 Y14.5550 
G01 X-50.0500 Y14.5128 
G01 X-50.1051 Y14.4900 
G01 X-50.9648 Y14.4900 
G01 X-51.0199 Y14.5128 
G01 X-51.0621 Y14.5550 
G01 X-51.0849 Y14.6101 
G00 Z1.0000 
G00 X-3.4519 Y44.3601 
G01 Z-0.0800 F150.00 
G01 X-3.4519 Y44.5398 
G01 X-3.4169 Y44.7160 
G01 X-3.3481 Y44.8819 
G01 X-3.2483 Y45.0313 
G01 X-3.1213 Y45.1583 
G01 X-2.9719 Y45.2581 
G01 X-2.8060 Y45.3269 
G01 X-2.6298 Y45.3619 
G01 X-2.4501 Y45.3619 
G01 X-2.2739 Y45.3269 
G01 X-2.1080 Y45.2581 
G01 X-1.9586 Y45.1583 
G01 X-1.8316 Y45.0313 
G01 X-1.7318 Y44.8819 
G01 X-1.6630 Y44.7160 
G01 X-1.6280 Y44.5398 
G01 X-1.6280 Y44.3601 
G01 X-1.6630 Y44.1839 
G01 X-1.7318 Y44.0180 
G01 X-1.8316 Y43.8686 
G01 X-1.9586 Y43.7416 
G01 X-2.0852 Y43.6571 
G01 X-2.0852 Y23.7599 
G01 X-1.1251 Y23.7599 
G01 X-1.0700 Y23.7371 
G01 X-1.0278 Y23.6949 
G01 X-1.0050 Y23.6398 
G01 X-1.0050 Y22.0801 
G01 X-1.0278 Y22.0250 
G01 X-1.0700 Y21.9828 
G01 X-1.1251 Y21.9600 
G01 X-2.6848 Y21.9600 
G01 X-2.7399 Y21.9828 
G01 X-2.7821 Y22.0250 
G01 X-2.8049 Y22.0801 
G01 X-2.8049 Y23.1167 
G01 X-2.9039 Y23.2157 
G01 X-2.9637 Y23.3194 
G01 X-2.9947 Y23.4350 
G01 X-2.9947 Y23.5549 
G01 X-2.9947 Y43.6571 
G01 X-3.1213 Y43.7416 
G01 X-3.2483 Y43.8686 
G01 X-3.3481 Y44.0180 
G01 X-3.4169 Y44.1839 
G01 X-3.4519 Y44.3601 
G00 Z1.0000 
G00 X-77.7469 Y31.3722 
G01 Z-0.0800 F150.00 
G01 X-77.7469 Y32.1277 
G01 X-77.2127 Y32.6619 
G01 X-76.4572 Y32.6619 
G01 X-75.9230 Y32.1277 
G01 X-75.9230 Y31.3722 
G01 X-75.9764 Y31.3189 
G01 X-71.6297 Y26.9723 
G01 X-60.9201 Y26.9723 
G01 X-60.8432 Y26.9517 
G01 X-60.7743 Y26.9119 
G01 X-60.7180 Y26.8556 
G01 X-58.2947 Y24.4323 
G01 X-32.3451 Y24.4323 
G01 X-32.2682 Y24.4117 
G01 X-32.1993 Y24.3719 
G01 X-32.1430 Y24.3156 
G01 X-28.3330 Y20.5056 
G01 X-28.2932 Y20.4367 
G01 X-28.2726 Y20.3598 
G01 X-28.2726 Y20.2801 
G01 X-28.2726 Y18.5402 
G01 X-27.6617 Y17.9293 
G01 X-27.5562 Y17.9730 
G01 X-27.3898 Y18.0061 
G01 X-27.2201 Y18.0061 
G01 X-27.0537 Y17.9730 
G01 X-26.8970 Y17.9081 
G01 X-26.7560 Y17.8139 
G01 X-26.6360 Y17.6939 
G01 X-26.5418 Y17.5529 
G01 X-26.4769 Y17.3962 
G01 X-26.4438 Y17.2298 
G01 X-26.4438 Y17.0601 
G01 X-26.4769 Y16.8937 
G01 X-26.5418 Y16.7370 
G01 X-26.6360 Y16.5960 
G01 X-26.7560 Y16.4760 
G01 X-26.8970 Y16.3818 
G01 X-27.0537 Y16.3169 
G01 X-27.2201 Y16.2838 
G01 X-27.3898 Y16.2838 
G01 X-27.5562 Y16.3169 
G01 X-27.7129 Y16.3818 
G01 X-27.8539 Y16.4760 
G01 X-27.9739 Y16.5960 
G01 X-28.0681 Y16.7370 
G01 X-28.1330 Y16.8937 
G01 X-28.1661 Y17.0601 
G01 X-28.1661 Y17.2298 
G01 X-28.1330 Y17.3962 
G01 X-28.0893 Y17.5017 
G01 X-28.7606 Y18.1730 
G01 X-28.8169 Y18.2293 
G01 X-28.8567 Y18.2982 
G01 X-28.8773 Y18.3751 
G01 X-28.8773 Y20.1947 
G01 X-32.5102 Y23.8276 
G01 X-58.3801 Y23.8276 
G01 X-58.4598 Y23.8276 
G01 X-58.5367 Y23.8482 
G01 X-58.6056 Y23.8880 
G01 X-61.0852 Y26.3676 
G01 X-71.7151 Y26.3676 
G01 X-71.7948 Y26.3676 
G01 X-71.8717 Y26.3882 
G01 X-71.9406 Y26.4280 
G01 X-76.4039 Y30.8914 
G01 X-76.4572 Y30.8380 
G01 X-77.2127 Y30.8380 
G01 X-77.7469 Y31.3722 
G00 Z1.0000 
G00 X-77.7469 Y21.2122 
G01 Z-0.0800 F150.00 
G01 X-77.7469 Y21.9677 
G01 X-77.2127 Y22.5019 
G01 X-76.4572 Y22.5019 
G01 X-76.4039 Y22.4485 
G01 X-74.4806 Y24.3719 
G01 X-74.4117 Y24.4117 
G01 X-74.3348 Y24.4323 
G01 X-74.2551 Y24.4323 
G01 X-63.4601 Y24.4323 
G01 X-63.3832 Y24.4117 
G01 X-63.3143 Y24.3719 
G01 X-63.2580 Y24.3156 
G01 X-63.2580 Y24.3155 
G01 X-60.8348 Y21.8923 
G01 X-34.8851 Y21.8923 
G01 X-34.8082 Y21.8717 
G01 X-34.7393 Y21.8319 
G01 X-34.6830 Y21.7756 
G01 X-33.4130 Y20.5056 
G01 X-33.3732 Y20.4367 
G01 X-33.3526 Y20.3598 
G01 X-33.3526 Y20.2801 
G01 X-33.3526 Y18.5402 
G01 X-32.7417 Y17.9293 
G01 X-32.6362 Y17.9730 
G01 X-32.4698 Y18.0061 
G01 X-32.3001 Y18.0061 
G01 X-32.1337 Y17.9730 
G01 X-31.9770 Y17.9081 
G01 X-31.8360 Y17.8139 
G01 X-31.7160 Y17.6939 
G01 X-31.6218 Y17.5529 
G01 X-31.5569 Y17.3962 
G01 X-31.5238 Y17.2298 
G01 X-31.5238 Y17.0601 
G01 X-31.5569 Y16.8937 
G01 X-31.6218 Y16.7370 
G01 X-31.7160 Y16.5960 
G01 X-31.8360 Y16.4760 
G01 X-31.9770 Y16.3818 
G01 X-32.1337 Y16.3169 
G01 X-32.3001 Y16.2838 
G01 X-32.4698 Y16.2838 
G01 X-32.6362 Y16.3169 
G01 X-32.7929 Y16.3818 
G01 X-32.9339 Y16.4760 
G01 X-33.0539 Y16.5960 
G01 X-33.1481 Y16.7370 
G01 X-33.2130 Y16.8937 
G01 X-33.2461 Y17.0601 
G01 X-33.2461 Y17.2298 
G01 X-33.2130 Y17.3962 
G01 X-33.1693 Y17.5017 
G01 X-33.8406 Y18.1730 
G01 X-33.8969 Y18.2293 
G01 X-33.9367 Y18.2982 
G01 X-33.9573 Y18.3751 
G01 X-33.9573 Y20.1947 
G01 X-35.0502 Y21.2876 
G01 X-60.9998 Y21.2876 
G01 X-61.0767 Y21.3082 
G01 X-61.1456 Y21.3480 
G01 X-61.2019 Y21.4043 
G01 X-61.2020 Y21.4045 
G01 X-63.6251 Y23.8276 
G01 X-74.1697 Y23.8276 
G01 X-75.9764 Y22.0210 
G01 X-75.9230 Y21.9677 
G01 X-75.9230 Y21.2122 
G01 X-76.4572 Y20.6780 
G01 X-77.2127 Y20.6780 
G01 X-77.7469 Y21.2122 
G00 Z1.0000 
G00 X-69.0350 Y48.8898 
G01 Z-0.0800 F150.00 
G01 X-69.0350 Y48.5623 
G01 X-68.7052 Y48.5623 
G01 X-68.0967 Y49.1707 
G01 X-68.1203 Y49.1943 
G01 X-68.1203 Y49.8656 
G01 X-67.6456 Y50.3403 
G01 X-66.9743 Y50.3403 
G01 X-66.4996 Y49.8656 
G01 X-66.4996 Y49.1943 
G01 X-66.9743 Y48.7196 
G01 X-67.6456 Y48.7196 
G01 X-67.6692 Y48.7432 
G01 X-68.3380 Y48.0743 
G01 X-68.3943 Y48.0180 
G01 X-68.4632 Y47.9782 
G01 X-68.5401 Y47.9576 
G01 X-69.0350 Y47.9576 
G01 X-69.0350 Y47.6301 
G01 X-69.0578 Y47.5750 
G01 X-69.1000 Y47.5328 
G01 X-69.1551 Y47.5100 
G01 X-69.2826 Y47.5100 
G01 X-69.2826 Y46.4699 
G01 X-69.1551 Y46.4699 
G01 X-69.1000 Y46.4471 
G01 X-69.0578 Y46.4049 
G01 X-69.0350 Y46.3498 
G01 X-69.0350 Y45.0901 
G01 X-69.0578 Y45.0350 
G01 X-69.1000 Y44.9928 
G01 X-69.1551 Y44.9700 
G01 X-70.0148 Y44.9700 
G01 X-70.0699 Y44.9928 
G01 X-70.1121 Y45.0350 
G01 X-70.1349 Y45.0901 
G01 X-70.1349 Y46.3498 
G01 X-70.1121 Y46.4049 
G01 X-70.0699 Y46.4471 
G01 X-70.0148 Y46.4699 
G01 X-69.8873 Y46.4699 
G01 X-69.8873 Y47.5100 
G01 X-70.0148 Y47.5100 
G01 X-70.0699 Y47.5328 
G01 X-70.1121 Y47.5750 
G01 X-70.1349 Y47.6301 
G01 X-70.1349 Y48.8898 
G01 X-70.1121 Y48.9449 
G01 X-70.0699 Y48.9871 
G01 X-70.0148 Y49.0099 
G01 X-69.1551 Y49.0099 
G01 X-69.1000 Y48.9871 
G01 X-69.0578 Y48.9449 
G01 X-69.0350 Y48.8898 
G00 Z1.0000 
G00 X-71.9349 Y45.0901 
G01 Z-0.0800 F150.00 
G01 X-71.9349 Y46.3498 
G01 X-71.9121 Y46.4049 
G01 X-71.8699 Y46.4471 
G01 X-71.8148 Y46.4699 
G01 X-70.9551 Y46.4699 
G01 X-70.9000 Y46.4471 
G01 X-70.8578 Y46.4049 
G01 X-70.8350 Y46.3498 
G01 X-70.8350 Y45.5976 
G01 X-69.9897 Y44.7523 
G01 X-49.4901 Y44.7523 
G01 X-49.4132 Y44.7317 
G01 X-49.3443 Y44.6919 
G01 X-49.2880 Y44.6356 
G01 X-41.1497 Y36.4973 
G01 X-39.6349 Y36.4973 
G01 X-39.6349 Y36.9748 
G01 X-39.6121 Y37.0299 
G01 X-39.5699 Y37.0721 
G01 X-39.5148 Y37.0949 
G01 X-37.9551 Y37.0949 
G01 X-37.9000 Y37.0721 
G01 X-37.8578 Y37.0299 
G01 X-37.8350 Y36.9748 
G01 X-37.8350 Y35.4151 
G01 X-37.8578 Y35.3600 
G01 X-37.9000 Y35.3178 
G01 X-37.9551 Y35.2950 
G01 X-39.5148 Y35.2950 
G01 X-39.5699 Y35.3178 
G01 X-39.6121 Y35.3600 
G01 X-39.6349 Y35.4151 
G01 X-39.6349 Y35.8926 
G01 X-41.2351 Y35.8926 
G01 X-41.3148 Y35.8926 
G01 X-41.3917 Y35.9132 
G01 X-41.4606 Y35.9530 
G01 X-49.6552 Y44.1476 
G01 X-70.0751 Y44.1476 
G01 X-70.1548 Y44.1476 
G01 X-70.2317 Y44.1682 
G01 X-70.3006 Y44.2080 
G01 X-71.0626 Y44.9700 
G01 X-71.8148 Y44.9700 
G01 X-71.8699 Y44.9928 
G01 X-71.9121 Y45.0350 
G01 X-71.9349 Y45.0901 
G00 Z1.0000 
G00 X-47.2089 Y59.6058 
G01 Z-0.0800 F150.00 
G01 X-47.2089 Y59.7741 
G01 X-47.1761 Y59.9391 
G01 X-47.1117 Y60.0945 
G01 X-47.0183 Y60.2343 
G01 X-46.8993 Y60.3533 
G01 X-46.7595 Y60.4467 
G01 X-46.6041 Y60.5111 
G01 X-46.4391 Y60.5439 
G01 X-46.2708 Y60.5439 
G01 X-46.1058 Y60.5111 
G01 X-45.9504 Y60.4467 
G01 X-45.8106 Y60.3533 
G01 X-45.6916 Y60.2343 
G01 X-45.5982 Y60.0945 
G01 X-45.5338 Y59.9391 
G01 X-45.5010 Y59.7741 
G01 X-45.5010 Y59.6058 
G01 X-45.5338 Y59.4408 
G01 X-45.5982 Y59.2854 
G01 X-45.6916 Y59.1456 
G01 X-45.8106 Y59.0266 
G01 X-45.9002 Y58.9668 
G01 X-45.9002 Y58.8747 
G01 X-20.5084 Y58.8747 
G01 X-19.3292 Y60.0539 
G01 X-19.2255 Y60.1137 
G01 X-19.1099 Y60.1447 
G01 X-18.9900 Y60.1447 
G01 X-18.6998 Y60.1447 
G01 X-18.6153 Y60.2713 
G01 X-18.4883 Y60.3983 
G01 X-18.3389 Y60.4981 
G01 X-18.1730 Y60.5669 
G01 X-17.9968 Y60.6019 
G01 X-16.2931 Y60.6019 
G01 X-16.1169 Y60.5669 
G01 X-15.9510 Y60.4981 
G01 X-15.8016 Y60.3983 
G01 X-15.6746 Y60.2713 
G01 X-15.5748 Y60.1219 
G01 X-15.5060 Y59.9560 
G01 X-15.4710 Y59.7798 
G01 X-15.4710 Y59.6001 
G01 X-15.5060 Y59.4239 
G01 X-15.5748 Y59.2580 
G01 X-15.6746 Y59.1086 
G01 X-15.8016 Y58.9816 
G01 X-15.9510 Y58.8818 
G01 X-16.1169 Y58.8130 
G01 X-16.2931 Y58.7780 
G01 X-17.9968 Y58.7780 
G01 X-18.1730 Y58.8130 
G01 X-18.3389 Y58.8818 
G01 X-18.4883 Y58.9816 
G01 X-18.6153 Y59.1086 
G01 X-18.6998 Y59.2352 
G01 X-18.8615 Y59.2352 
G01 X-19.9560 Y58.1407 
G01 X-20.0407 Y58.0560 
G01 X-20.1444 Y57.9962 
G01 X-20.2600 Y57.9652 
G01 X-45.5202 Y57.9652 
G01 X-45.5010 Y57.8691 
G01 X-45.5010 Y57.7008 
G01 X-45.5338 Y57.5358 
G01 X-45.5982 Y57.3804 
G01 X-45.6916 Y57.2406 
G01 X-45.8106 Y57.1216 
G01 X-45.9504 Y57.0282 
G01 X-46.1058 Y56.9638 
G01 X-46.2708 Y56.9310 
G01 X-46.4391 Y56.9310 
G01 X-46.6041 Y56.9638 
G01 X-46.7595 Y57.0282 
G01 X-46.8993 Y57.1216 
G01 X-47.0183 Y57.2406 
G01 X-47.1117 Y57.3804 
G01 X-47.1761 Y57.5358 
G01 X-47.2089 Y57.7008 
G01 X-47.2089 Y57.8691 
G01 X-47.1761 Y58.0341 
G01 X-47.1117 Y58.1895 
G01 X-47.0183 Y58.3293 
G01 X-46.8993 Y58.4483 
G01 X-46.8097 Y58.5081 
G01 X-46.8097 Y58.9668 
G01 X-46.8993 Y59.0266 
G01 X-47.0183 Y59.1456 
G01 X-47.1117 Y59.2854 
G01 X-47.1761 Y59.4408 
G01 X-47.2089 Y59.6058 
G00 Z1.0000 
G00 X-61.0906 Y55.4203 
G01 Z-0.0800 F150.00 
G01 X-59.6101 Y55.4203 
G01 X-59.4535 Y55.3892 
G01 X-59.3061 Y55.3281 
G01 X-59.1734 Y55.2394 
G01 X-59.0605 Y55.1265 
G01 X-58.9718 Y54.9938 
G01 X-58.9107 Y54.8464 
G01 X-58.8796 Y54.6898 
G01 X-58.8796 Y54.5301 
G01 X-58.9107 Y54.3735 
G01 X-58.9718 Y54.2261 
G01 X-59.0605 Y54.0934 
G01 X-59.1734 Y53.9805 
G01 X-59.3061 Y53.8918 
G01 X-59.4535 Y53.8307 
G01 X-59.6101 Y53.7996 
G01 X-61.0906 Y53.7996 
G01 X-61.2472 Y53.8307 
G01 X-61.3946 Y53.8918 
G01 X-61.5273 Y53.9805 
G01 X-61.6402 Y54.0934 
G01 X-61.7289 Y54.2261 
G01 X-61.7900 Y54.3735 
G01 X-61.8211 Y54.5301 
G01 X-61.8211 Y54.6898 
G01 X-61.7900 Y54.8464 
G01 X-61.7289 Y54.9938 
G01 X-61.6402 Y55.1265 
G01 X-61.5273 Y55.2394 
G01 X-61.3946 Y55.3281 
G01 X-61.2472 Y55.3892 
G01 X-61.0906 Y55.4203 
G00 Z1.0000 
G00 X-50.6693 Y48.7196 
G01 Z-0.0800 F150.00 
G01 X-52.1498 Y48.7196 
G01 X-52.3064 Y48.7507 
G01 X-52.4538 Y48.8118 
G01 X-52.5865 Y48.9005 
G01 X-52.6994 Y49.0134 
G01 X-52.7881 Y49.1461 
G01 X-52.8492 Y49.2935 
G01 X-52.8803 Y49.4501 
G01 X-52.8803 Y49.6098 
G01 X-52.8492 Y49.7664 
G01 X-52.7881 Y49.9138 
G01 X-52.6994 Y50.0465 
G01 X-52.5865 Y50.1594 
G01 X-52.4538 Y50.2481 
G01 X-52.3064 Y50.3092 
G01 X-52.1498 Y50.3403 
G01 X-50.6693 Y50.3403 
G01 X-50.5127 Y50.3092 
G01 X-50.3653 Y50.2481 
G01 X-50.2326 Y50.1594 
G01 X-50.1197 Y50.0465 
G01 X-50.0310 Y49.9138 
G01 X-49.9699 Y49.7664 
G01 X-49.9388 Y49.6098 
G01 X-49.9388 Y49.4501 
G01 X-49.9699 Y49.2935 
G01 X-50.0310 Y49.1461 
G01 X-50.1197 Y49.0134 
G01 X-50.2326 Y48.9005 
G01 X-50.3653 Y48.8118 
G01 X-50.5127 Y48.7507 
G01 X-50.6693 Y48.7196 
G00 Z1.0000 
G00 X-61.0906 Y52.8803 
G01 Z-0.0800 F150.00 
G01 X-59.6101 Y52.8803 
G01 X-59.4535 Y52.8492 
G01 X-59.3061 Y52.7881 
G01 X-59.1734 Y52.6994 
G01 X-59.0605 Y52.5865 
G01 X-58.9718 Y52.4538 
G01 X-58.9107 Y52.3064 
G01 X-58.8796 Y52.1498 
G01 X-58.8796 Y51.9901 
G01 X-58.9107 Y51.8335 
G01 X-58.9445 Y51.7521 
G01 X-55.0823 Y47.8899 
G01 X-53.8301 Y47.8899 
G01 X-53.7750 Y47.8671 
G01 X-53.7328 Y47.8249 
G01 X-53.7100 Y47.7698 
G01 X-53.7100 Y46.2101 
G01 X-53.7328 Y46.1550 
G01 X-53.7750 Y46.1128 
G01 X-53.8301 Y46.0900 
G01 X-55.3898 Y46.0900 
G01 X-55.4449 Y46.1128 
G01 X-55.4871 Y46.1550 
G01 X-55.5099 Y46.2101 
G01 X-55.5099 Y47.4623 
G01 X-59.3721 Y51.3245 
G01 X-59.4535 Y51.2907 
G01 X-59.6101 Y51.2596 
G01 X-61.0906 Y51.2596 
G01 X-61.2472 Y51.2907 
G01 X-61.3946 Y51.3518 
G01 X-61.5273 Y51.4405 
G01 X-61.6402 Y51.5534 
G01 X-61.7289 Y51.6861 
G01 X-61.7900 Y51.8335 
G01 X-61.8211 Y51.9901 
G01 X-61.8211 Y52.1498 
G01 X-61.7900 Y52.3064 
G01 X-61.7289 Y52.4538 
G01 X-61.6402 Y52.5865 
G01 X-61.5273 Y52.6994 
G01 X-61.3946 Y52.7881 
G01 X-61.2472 Y52.8492 
G01 X-61.0906 Y52.8803 
G00 Z1.0000 
G00 X-61.0906 Y50.3403 
G01 Z-0.0800 F150.00 
G01 X-59.6101 Y50.3403 
G01 X-59.4535 Y50.3092 
G01 X-59.3061 Y50.2481 
G01 X-59.1734 Y50.1594 
G01 X-59.0605 Y50.0465 
G01 X-58.9718 Y49.9138 
G01 X-58.9107 Y49.7664 
G01 X-58.8796 Y49.6098 
G01 X-58.8796 Y49.4501 
G01 X-58.9107 Y49.2935 
G01 X-58.9718 Y49.1461 
G01 X-59.0605 Y49.0134 
G01 X-59.1734 Y48.9005 
G01 X-59.3061 Y48.8118 
G01 X-59.4535 Y48.7507 
G01 X-59.6101 Y48.7196 
G01 X-61.0906 Y48.7196 
G01 X-61.2472 Y48.7507 
G01 X-61.3946 Y48.8118 
G01 X-61.5273 Y48.9005 
G01 X-61.6402 Y49.0134 
G01 X-61.7289 Y49.1461 
G01 X-61.7900 Y49.2935 
G01 X-61.8211 Y49.4501 
G01 X-61.8211 Y49.6098 
G01 X-61.7900 Y49.7664 
G01 X-61.7413 Y49.8837 
G01 X-63.6252 Y51.7676 
G01 X-70.8176 Y51.7676 
G01 X-70.8176 Y50.4446 
G01 X-70.8152 Y50.4198 
G01 X-70.8176 Y50.4052 
G01 X-70.8176 Y50.3901 
G01 X-70.8241 Y50.3662 
G01 X-70.8281 Y50.3413 
G01 X-70.8344 Y50.3275 
G01 X-70.8350 Y50.3253 
G01 X-70.8350 Y50.1701 
G01 X-70.8578 Y50.1150 
G01 X-70.9000 Y50.0728 
G01 X-70.9551 Y50.0500 
G01 X-71.8148 Y50.0500 
G01 X-71.8699 Y50.0728 
G01 X-71.9121 Y50.1150 
G01 X-71.9349 Y50.1701 
G01 X-71.9349 Y51.4298 
G01 X-71.9121 Y51.4849 
G01 X-71.8699 Y51.5271 
G01 X-71.8148 Y51.5499 
G01 X-71.4223 Y51.5499 
G01 X-71.4223 Y52.1098 
G01 X-71.4017 Y52.1867 
G01 X-71.3619 Y52.2556 
G01 X-71.3056 Y52.3119 
G01 X-71.2367 Y52.3517 
G01 X-71.1598 Y52.3723 
G01 X-71.0801 Y52.3723 
G01 X-63.5399 Y52.3723 
G01 X-63.5398 Y52.3723 
G01 X-63.4601 Y52.3723 
G01 X-63.3832 Y52.3517 
G01 X-63.3143 Y52.3119 
G01 X-61.2927 Y50.2903 
G01 X-61.2472 Y50.3092 
G01 X-61.0906 Y50.3403 
G00 Z1.0000 
G00 X-54.8289 Y57.7008 
G01 Z-0.0800 F150.00 
G01 X-54.8289 Y57.8691 
G01 X-54.7961 Y58.0341 
G01 X-54.7317 Y58.1895 
G01 X-54.6383 Y58.3293 
G01 X-54.5193 Y58.4483 
G01 X-54.3795 Y58.5417 
G01 X-54.2241 Y58.6061 
G01 X-54.0591 Y58.6389 
G01 X-53.8908 Y58.6389 
G01 X-53.7258 Y58.6061 
G01 X-53.5704 Y58.5417 
G01 X-53.4306 Y58.4483 
G01 X-53.3116 Y58.3293 
G01 X-53.2182 Y58.1895 
G01 X-53.1538 Y58.0341 
G01 X-53.1210 Y57.8691 
G01 X-53.1210 Y57.7008 
G01 X-53.1538 Y57.5358 
G01 X-53.2182 Y57.3804 
G01 X-53.3116 Y57.2406 
G01 X-53.4306 Y57.1216 
G01 X-53.5202 Y57.0618 
G01 X-53.5202 Y55.0647 
G01 X-52.7407 Y55.0647 
G01 X-52.6994 Y55.1265 
G01 X-52.5865 Y55.2394 
G01 X-52.4538 Y55.3281 
G01 X-52.3064 Y55.3892 
G01 X-52.1498 Y55.4203 
G01 X-50.6693 Y55.4203 
G01 X-50.5127 Y55.3892 
G01 X-50.3653 Y55.3281 
G01 X-50.2326 Y55.2394 
G01 X-50.1197 Y55.1265 
G01 X-50.0310 Y54.9938 
G01 X-49.9699 Y54.8464 
G01 X-49.9388 Y54.6898 
G01 X-49.9388 Y54.5301 
G01 X-49.9699 Y54.3735 
G01 X-50.0310 Y54.2261 
G01 X-50.1197 Y54.0934 
G01 X-50.2326 Y53.9805 
G01 X-50.3653 Y53.8918 
G01 X-50.5127 Y53.8307 
G01 X-50.6693 Y53.7996 
G01 X-52.1498 Y53.7996 
G01 X-52.3064 Y53.8307 
G01 X-52.4538 Y53.8918 
G01 X-52.5865 Y53.9805 
G01 X-52.6994 Y54.0934 
G01 X-52.7407 Y54.1552 
G01 X-54.0349 Y54.1552 
G01 X-54.1505 Y54.1862 
G01 X-54.2542 Y54.2460 
G01 X-54.3389 Y54.3307 
G01 X-54.3987 Y54.4344 
G01 X-54.4297 Y54.5500 
G01 X-54.4297 Y54.6699 
G01 X-54.4297 Y57.0618 
G01 X-54.5193 Y57.1216 
G01 X-54.6383 Y57.2406 
G01 X-54.7317 Y57.3804 
G01 X-54.7961 Y57.5358 
G01 X-54.8289 Y57.7008 
G00 Z1.0000 
G00 X-77.8101 Y56.1000 
G01 Z-0.0800 F150.00 
G01 X-79.6698 Y56.1000 
G01 X-79.7249 Y56.1228 
G01 X-79.7671 Y56.1650 
G01 X-79.7899 Y56.2201 
G01 X-79.7899 Y56.3135 
G01 X-79.8347 Y56.2357 
G01 X-79.9194 Y56.1510 
G01 X-80.0231 Y56.0912 
G01 X-80.1387 Y56.0602 
G01 X-80.1902 Y56.0602 
G01 X-80.1902 Y51.2547 
G01 X-75.7534 Y51.2547 
G01 X-68.2242 Y58.7839 
G01 X-68.1205 Y58.8437 
G01 X-68.0049 Y58.8747 
G01 X-67.8850 Y58.8747 
G01 X-55.8200 Y58.8747 
G01 X-55.7044 Y58.8437 
G01 X-55.6007 Y58.7839 
G01 X-55.5160 Y58.6992 
G01 X-55.4562 Y58.5955 
G01 X-55.4252 Y58.4799 
G01 X-55.4252 Y58.3600 
G01 X-55.4252 Y52.5247 
G01 X-52.7407 Y52.5247 
G01 X-52.6994 Y52.5865 
G01 X-52.5865 Y52.6994 
G01 X-52.4538 Y52.7881 
G01 X-52.3064 Y52.8492 
G01 X-52.1498 Y52.8803 
G01 X-50.6693 Y52.8803 
G01 X-50.5127 Y52.8492 
G01 X-50.3653 Y52.7881 
G01 X-50.2326 Y52.6994 
G01 X-50.1197 Y52.5865 
G01 X-50.0310 Y52.4538 
G01 X-49.9699 Y52.3064 
G01 X-49.9388 Y52.1498 
G01 X-49.9388 Y51.9901 
G01 X-49.9699 Y51.8335 
G01 X-50.0310 Y51.6861 
G01 X-50.1197 Y51.5534 
G01 X-50.2326 Y51.4405 
G01 X-50.3653 Y51.3518 
G01 X-50.5127 Y51.2907 
G01 X-50.6693 Y51.2596 
G01 X-52.1498 Y51.2596 
G01 X-52.3064 Y51.2907 
G01 X-52.4538 Y51.3518 
G01 X-52.5865 Y51.4405 
G01 X-52.6994 Y51.5534 
G01 X-52.7407 Y51.6152 
G01 X-55.8200 Y51.6152 
G01 X-55.9399 Y51.6152 
G01 X-56.0555 Y51.6462 
G01 X-56.1592 Y51.7060 
G01 X-56.2439 Y51.7907 
G01 X-56.3037 Y51.8944 
G01 X-56.3347 Y52.0100 
G01 X-56.3347 Y57.9652 
G01 X-67.7565 Y57.9652 
G01 X-75.2010 Y50.5207 
G01 X-75.2857 Y50.4360 
G01 X-75.3894 Y50.3762 
G01 X-75.5050 Y50.3452 
G01 X-80.5850 Y50.3452 
G01 X-80.7049 Y50.3452 
G01 X-80.8205 Y50.3762 
G01 X-80.9242 Y50.4360 
G01 X-81.0089 Y50.5207 
G01 X-81.0687 Y50.6244 
G01 X-81.0997 Y50.7400 
G01 X-81.0997 Y56.4550 
G01 X-81.0997 Y56.5749 
G01 X-81.0997 Y67.3091 
G01 X-81.0687 Y67.4247 
G01 X-81.0089 Y67.5284 
G01 X-80.9242 Y67.6131 
G01 X-80.8205 Y67.6729 
G01 X-80.7049 Y67.7039 
G01 X-80.5850 Y67.7039 
G01 X-4.3850 Y67.7039 
G01 X-4.2694 Y67.6729 
G01 X-4.1657 Y67.6131 
G01 X-4.0810 Y67.5284 
G01 X-4.0212 Y67.4247 
G01 X-3.9902 Y67.3091 
G01 X-3.9902 Y67.1892 
G01 X-3.9902 Y61.0694 
G01 X-3.9901 Y61.0691 
G01 X-3.9902 Y61.0099 
G01 X-3.9902 Y60.9501 
G01 X-3.9903 Y60.9498 
G01 X-3.9903 Y60.9493 
G01 X-4.0080 Y60.8838 
G01 X-4.0212 Y60.8345 
G01 X-4.0214 Y60.8343 
G01 X-4.0215 Y60.8337 
G01 X-4.0484 Y60.7874 
G01 X-4.0810 Y60.7308 
G01 X-4.0815 Y60.7304 
G01 X-4.0816 Y60.7301 
G01 X-4.1095 Y60.7024 
G01 X-4.1657 Y60.6461 
G01 X-4.1662 Y60.6459 
G01 X-4.1664 Y60.6456 
G01 X-4.2047 Y60.6236 
G01 X-4.2694 Y60.5863 
G01 X-4.2700 Y60.5862 
G01 X-4.2702 Y60.5860 
G01 X-4.3133 Y60.5746 
G01 X-4.3850 Y60.5553 
G01 X-4.3856 Y60.5553 
G01 X-4.3859 Y60.5552 
G01 X-4.4451 Y60.5553 
G01 X-4.5049 Y60.5553 
G01 X-4.5052 Y60.5554 
G01 X-4.5057 Y60.5554 
G01 X-4.5712 Y60.5731 
G01 X-4.6205 Y60.5863 
G01 X-4.6207 Y60.5865 
G01 X-4.6213 Y60.5866 
G01 X-4.6650 Y60.6120 
G01 X-4.6650 Y58.7601 
G01 X-4.6878 Y58.7050 
G01 X-4.7300 Y58.6628 
G01 X-4.7851 Y58.6400 
G01 X-6.6370 Y58.6400 
G01 X-6.6116 Y58.5963 
G01 X-6.6115 Y58.5957 
G01 X-6.6113 Y58.5955 
G01 X-6.5985 Y58.5475 
G01 X-6.5804 Y58.4807 
G01 X-6.5804 Y58.4802 
G01 X-6.5803 Y58.4799 
G01 X-6.5803 Y58.4215 
G01 X-6.5802 Y58.3609 
G01 X-6.5803 Y58.3606 
G01 X-6.5803 Y58.3600 
G01 X-6.5993 Y58.2894 
G01 X-6.6110 Y58.2452 
G01 X-6.6112 Y58.2450 
G01 X-6.6113 Y58.2444 
G01 X-6.6481 Y58.1808 
G01 X-6.6706 Y58.1414 
G01 X-6.6709 Y58.1412 
G01 X-6.6711 Y58.1407 
G01 X-6.7265 Y58.0853 
G01 X-6.7551 Y58.0566 
G01 X-6.7554 Y58.0565 
G01 X-6.7558 Y58.0560 
G01 X-6.8116 Y58.0239 
G01 X-6.8587 Y57.9965 
G01 X-6.8593 Y57.9964 
G01 X-6.8595 Y57.9962 
G01 X-6.9075 Y57.9834 
G01 X-6.9743 Y57.9653 
G01 X-6.9748 Y57.9653 
G01 X-6.9751 Y57.9652 
G01 X-7.0335 Y57.9652 
G01 X-7.0941 Y57.9651 
G01 X-7.0944 Y57.9652 
G01 X-12.1249 Y57.9652 
G01 X-12.2405 Y57.9962 
G01 X-12.3442 Y58.0560 
G01 X-12.4289 Y58.1407 
G01 X-12.4887 Y58.2444 
G01 X-12.5197 Y58.3600 
G01 X-12.5197 Y58.4799 
G01 X-12.5197 Y63.6802 
G01 X-71.5665 Y63.6802 
G01 X-77.0811 Y58.1657 
G01 X-77.0812 Y58.1654 
G01 X-77.1230 Y58.1238 
G01 X-77.1656 Y58.0811 
G01 X-77.1659 Y58.0810 
G01 X-77.1660 Y58.0808 
G01 X-77.2362 Y58.0404 
G01 X-77.2693 Y58.0212 
G01 X-77.2694 Y58.0212 
G01 X-77.2697 Y58.0210 
G01 X-77.3533 Y57.9987 
G01 X-77.3849 Y57.9902 
G01 X-77.3851 Y57.9902 
G01 X-77.3854 Y57.9901 
G01 X-77.4446 Y57.9902 
G01 X-77.5048 Y57.9902 
G01 X-77.5051 Y57.9903 
G01 X-77.5052 Y57.9903 
G01 X-77.5122 Y57.9922 
G01 X-77.6204 Y58.0212 
G01 X-77.6207 Y58.0214 
G01 X-77.6208 Y58.0214 
G01 X-77.6401 Y58.0326 
G01 X-77.6900 Y58.0614 
G01 X-77.6900 Y56.2201 
G01 X-77.7128 Y56.1650 
G01 X-77.7550 Y56.1228 
G01 X-77.8101 Y56.1000 
G00 Z1.0000 
G00 X-11.6489 Y53.8908 
G01 Z-0.0800 F150.00 
G01 X-11.6489 Y54.0591 
G01 X-11.6161 Y54.2241 
G01 X-11.5517 Y54.3795 
G01 X-11.4583 Y54.5193 
G01 X-11.4271 Y54.5504 
G01 X-11.4327 Y54.5482 
G01 X-11.4569 Y54.5456 
G01 X-11.4804 Y54.5393 
G01 X-11.5161 Y54.5393 
G01 X-11.5518 Y54.5355 
G01 X-11.5759 Y54.5393 
G01 X-11.6003 Y54.5393 
G01 X-11.6347 Y54.5486 
G01 X-11.6701 Y54.5541 
G01 X-11.6923 Y54.5640 
G01 X-11.7159 Y54.5703 
G01 X-11.7472 Y54.5884 
G01 X-11.7795 Y54.6027 
G01 X-11.7980 Y54.6177 
G01 X-11.8196 Y54.6301 
G01 X-11.8452 Y54.6558 
G01 X-11.8727 Y54.6779 
G01 X-11.8869 Y54.6974 
G01 X-11.9043 Y54.7148 
G01 X-11.9222 Y54.7460 
G01 X-11.9432 Y54.7747 
G01 X-11.9519 Y54.7975 
G01 X-11.9641 Y54.8185 
G01 X-11.9733 Y54.8531 
G01 X-11.9862 Y54.8864 
G01 X-11.9888 Y54.9106 
G01 X-11.9951 Y54.9341 
G01 X-11.9951 Y54.9698 
G01 X-11.9989 Y55.0055 
G01 X-11.9951 Y55.0296 
G01 X-11.9951 Y57.2099 
G01 X-11.9641 Y57.3255 
G01 X-11.9043 Y57.4292 
G01 X-11.8196 Y57.5139 
G01 X-11.7159 Y57.5737 
G01 X-11.6003 Y57.6047 
G01 X-11.4804 Y57.6047 
G01 X-6.7579 Y57.6047 
G01 X-6.6423 Y57.5737 
G01 X-6.5386 Y57.5139 
G01 X-6.4539 Y57.4292 
G01 X-6.3941 Y57.3255 
G01 X-6.3631 Y57.2099 
G01 X-6.3631 Y57.0900 
G01 X-6.3875 Y56.9991 
G01 X-6.2653 Y57.0880 
G01 X-6.1180 Y57.1630 
G01 X-5.9609 Y57.2140 
G01 X-5.7976 Y57.2399 
G01 X-5.6323 Y57.2399 
G01 X-5.4690 Y57.2140 
G01 X-5.3119 Y57.1630 
G01 X-5.1646 Y57.0880 
G01 X-5.0309 Y56.9908 
G01 X-4.9141 Y56.8740 
G01 X-4.8169 Y56.7403 
G01 X-4.7419 Y56.5930 
G01 X-4.6909 Y56.4359 
G01 X-4.6650 Y56.2726 
G01 X-4.6650 Y56.1073 
G01 X-4.6909 Y55.9440 
G01 X-4.7282 Y55.8292 
G01 X-4.7242 Y55.8333 
G01 X-4.6824 Y55.8574 
G01 X-4.6433 Y55.8829 
G01 X-4.6314 Y55.8868 
G01 X-4.6205 Y55.8931 
G01 X-4.5747 Y55.9053 
G01 X-4.5295 Y55.9202 
G01 X-4.5168 Y55.9209 
G01 X-4.5049 Y55.9241 
G01 X-4.4578 Y55.9241 
G01 X-4.4099 Y55.9267 
G01 X-4.3976 Y55.9241 
G01 X-4.3850 Y55.9241 
G01 X-4.3389 Y55.9117 
G01 X-4.2927 Y55.9020 
G01 X-4.2816 Y55.8963 
G01 X-4.2694 Y55.8931 
G01 X-4.2281 Y55.8692 
G01 X-4.1859 Y55.8479 
G01 X-4.1767 Y55.8396 
G01 X-4.1657 Y55.8333 
G01 X-4.1317 Y55.7993 
G01 X-4.0968 Y55.7680 
G01 X-4.0901 Y55.7576 
G01 X-4.0810 Y55.7486 
G01 X-4.0569 Y55.7068 
G01 X-4.0314 Y55.6677 
G01 X-4.0275 Y55.6558 
G01 X-4.0212 Y55.6449 
G01 X-4.0090 Y55.5991 
G01 X-3.9941 Y55.5539 
G01 X-3.9934 Y55.5412 
G01 X-3.9902 Y55.5293 
G01 X-3.9902 Y55.4822 
G01 X-3.9876 Y55.4343 
G01 X-3.9902 Y55.4220 
G01 X-3.9902 Y50.1050 
G01 X-4.0212 Y49.9894 
G01 X-4.0810 Y49.8857 
G01 X-4.1657 Y49.8010 
G01 X-4.2694 Y49.7412 
G01 X-4.3850 Y49.7102 
G01 X-4.5049 Y49.7102 
G01 X-25.4599 Y49.7102 
G01 X-25.5755 Y49.7412 
G01 X-25.6792 Y49.8010 
G01 X-25.7639 Y49.8857 
G01 X-25.8237 Y49.9894 
G01 X-25.8547 Y50.1050 
G01 X-25.8547 Y50.2249 
G01 X-25.8547 Y57.2099 
G01 X-25.8237 Y57.3255 
G01 X-25.7639 Y57.4292 
G01 X-25.6792 Y57.5139 
G01 X-25.5755 Y57.5737 
G01 X-25.4599 Y57.6047 
G01 X-25.3400 Y57.6047 
G01 X-18.6998 Y57.6047 
G01 X-18.6153 Y57.7313 
G01 X-18.4883 Y57.8583 
G01 X-18.3389 Y57.9581 
G01 X-18.1730 Y58.0269 
G01 X-17.9968 Y58.0619 
G01 X-16.2931 Y58.0619 
G01 X-16.1169 Y58.0269 
G01 X-15.9510 Y57.9581 
G01 X-15.8016 Y57.8583 
G01 X-15.6746 Y57.7313 
G01 X-15.5748 Y57.5819 
G01 X-15.5060 Y57.4160 
G01 X-15.4710 Y57.2398 
G01 X-15.4710 Y57.0601 
G01 X-15.5060 Y56.8839 
G01 X-15.5748 Y56.7180 
G01 X-15.6746 Y56.5686 
G01 X-15.8016 Y56.4416 
G01 X-15.9510 Y56.3418 
G01 X-16.1169 Y56.2730 
G01 X-16.2931 Y56.2380 
G01 X-17.9968 Y56.2380 
G01 X-18.1730 Y56.2730 
G01 X-18.3389 Y56.3418 
G01 X-18.4883 Y56.4416 
G01 X-18.6153 Y56.5686 
G01 X-18.6994 Y56.6946 
G01 X-18.9283 Y56.6946 
G01 X-18.9473 Y56.6755 
G01 X-18.9663 Y56.6646 
G01 X-18.9828 Y56.6509 
G01 X-19.0176 Y56.6351 
G01 X-19.0510 Y56.6157 
G01 X-19.0721 Y56.6101 
G01 X-19.0916 Y56.6011 
G01 X-19.1292 Y56.5948 
G01 X-19.1666 Y56.5847 
G01 X-19.1885 Y56.5847 
G01 X-19.1912 Y56.5843 
G01 X-19.4491 Y56.4775 
G01 X-19.6475 Y56.2791 
G01 X-19.7547 Y56.0201 
G01 X-19.7547 Y53.5106 
G01 X-19.7547 Y53.1997 
G01 X-19.6475 Y52.9408 
G01 X-19.4491 Y52.7423 
G01 X-19.1901 Y52.6351 
G01 X-12.8706 Y52.6351 
G01 X-12.5597 Y52.6351 
G01 X-12.3007 Y52.7423 
G01 X-12.1023 Y52.9408 
G01 X-12.0123 Y53.1582 
G01 X-11.9922 Y53.2104 
G01 X-11.9887 Y53.2152 
G01 X-11.9865 Y53.2205 
G01 X-11.9542 Y53.2626 
G01 X-11.9218 Y53.3072 
G01 X-11.9172 Y53.3109 
G01 X-11.9137 Y53.3155 
G01 X-11.8714 Y53.3479 
G01 X-11.8287 Y53.3825 
G01 X-11.8232 Y53.3849 
G01 X-11.8187 Y53.3884 
G01 X-11.7688 Y53.4091 
G01 X-11.7193 Y53.4311 
G01 X-11.7136 Y53.4320 
G01 X-11.7081 Y53.4343 
G01 X-11.6544 Y53.4413 
G01 X-11.6010 Y53.4498 
G01 X-11.5949 Y53.4491 
G01 X-11.5894 Y53.4499 
G01 X-11.5375 Y53.4431 
G01 X-11.4818 Y53.4372 
G01 X-11.4762 Y53.4350 
G01 X-11.4706 Y53.4343 
G01 X-11.4557 Y53.4281 
G01 X-11.4583 Y53.4306 
G01 X-11.5517 Y53.5704 
G01 X-11.6161 Y53.7258 
G01 X-11.6489 Y53.8908 
G00 Z1.0000 
G00 X-17.9968 Y55.5219 
G01 Z-0.0800 F150.00 
G01 X-16.2931 Y55.5219 
G01 X-16.1169 Y55.4869 
G01 X-16.0195 Y55.4464 
G01 X-16.0354 Y55.4660 
G01 X-16.0380 Y55.4720 
G01 X-16.0416 Y55.4766 
G01 X-16.0613 Y55.5243 
G01 X-16.0841 Y55.5754 
G01 X-16.0851 Y55.5817 
G01 X-16.0874 Y55.5872 
G01 X-16.0941 Y55.6387 
G01 X-16.1029 Y55.6936 
G01 X-16.1022 Y55.7001 
G01 X-16.1030 Y55.7060 
G01 X-16.0961 Y55.7585 
G01 X-16.0904 Y55.8128 
G01 X-16.0882 Y55.8185 
G01 X-16.0874 Y55.8247 
G01 X-16.0666 Y55.8747 
G01 X-16.0475 Y55.9246 
G01 X-16.0438 Y55.9296 
G01 X-16.0415 Y55.9353 
G01 X-16.0092 Y55.9773 
G01 X-15.9772 Y56.0215 
G01 X-15.9723 Y56.0254 
G01 X-15.9686 Y56.0303 
G01 X-15.9275 Y56.0618 
G01 X-15.8842 Y56.0969 
G01 X-15.8782 Y56.0995 
G01 X-15.8736 Y56.1031 
G01 X-15.8260 Y56.1228 
G01 X-15.7748 Y56.1456 
G01 X-15.7685 Y56.1466 
G01 X-15.7247 Y56.1647 
G01 X-15.3977 Y56.4917 
G01 X-15.2209 Y56.9187 
G01 X-15.2209 Y57.3811 
G01 X-15.3977 Y57.8081 
G01 X-15.7304 Y58.1407 
G01 X-15.7902 Y58.2444 
G01 X-15.8212 Y58.3600 
G01 X-15.8212 Y58.4799 
G01 X-15.8198 Y58.4848 
G01 X-15.7902 Y58.5956 
G01 X-15.7687 Y58.6326 
G01 X-15.7304 Y58.6992 
G01 X-15.6457 Y58.7839 
G01 X-15.6454 Y58.7840 
G01 X-15.3978 Y59.0316 
G01 X-15.2209 Y59.4587 
G01 X-15.2209 Y59.9211 
G01 X-15.3977 Y60.3481 
G01 X-15.7247 Y60.6751 
G01 X-16.1517 Y60.8519 
G01 X-18.1381 Y60.8519 
G01 X-18.5651 Y60.6751 
G01 X-18.6698 Y60.5704 
G01 X-18.6699 Y60.5702 
G01 X-18.7546 Y60.4855 
G01 X-18.8583 Y60.4257 
G01 X-18.9739 Y60.3947 
G01 X-19.1901 Y60.3947 
G01 X-19.4491 Y60.2875 
G01 X-20.4105 Y59.3260 
G01 X-20.5142 Y59.2662 
G01 X-20.6298 Y59.2352 
G01 X-20.7497 Y59.2352 
G01 X-44.8561 Y59.2352 
G01 X-44.9717 Y59.2662 
G01 X-45.0754 Y59.3260 
G01 X-45.1601 Y59.4107 
G01 X-45.2199 Y59.5144 
G01 X-45.2509 Y59.6300 
G01 X-45.2509 Y59.7499 
G01 X-45.2509 Y59.9095 
G01 X-45.4189 Y60.3152 
G01 X-45.7296 Y60.6259 
G01 X-46.1353 Y60.7939 
G01 X-46.5745 Y60.7939 
G01 X-46.9802 Y60.6259 
G01 X-47.2909 Y60.3152 
G01 X-47.4589 Y59.9095 
G01 X-47.4589 Y59.6300 
G01 X-47.4899 Y59.5144 
G01 X-47.5497 Y59.4107 
G01 X-47.6344 Y59.3260 
G01 X-47.7381 Y59.2662 
G01 X-47.8537 Y59.2352 
G01 X-47.9736 Y59.2352 
G01 X-53.2518 Y59.2352 
G01 X-53.3116 Y59.1456 
G01 X-53.4306 Y59.0266 
G01 X-53.5704 Y58.9332 
G01 X-53.7258 Y58.8688 
G01 X-53.8908 Y58.8360 
G01 X-54.0591 Y58.8360 
G01 X-54.2241 Y58.8688 
G01 X-54.3795 Y58.9332 
G01 X-54.5193 Y59.0266 
G01 X-54.6383 Y59.1456 
G01 X-54.6981 Y59.2352 
G01 X-68.3915 Y59.2352 
G01 X-75.2857 Y52.3410 
G01 X-75.3894 Y52.2812 
G01 X-75.5050 Y52.2502 
G01 X-75.6249 Y52.2502 
G01 X-77.5876 Y52.2502 
G01 X-77.6116 Y52.2464 
G01 X-77.6476 Y52.2502 
G01 X-77.6834 Y52.2502 
G01 X-77.7067 Y52.2565 
G01 X-77.7308 Y52.2590 
G01 X-77.7642 Y52.2719 
G01 X-77.7990 Y52.2812 
G01 X-77.8201 Y52.2934 
G01 X-77.8425 Y52.3020 
G01 X-77.8710 Y52.3228 
G01 X-77.9027 Y52.3410 
G01 X-77.9200 Y52.3584 
G01 X-77.9394 Y52.3724 
G01 X-77.9618 Y52.4002 
G01 X-77.9874 Y52.4257 
G01 X-77.9995 Y52.4468 
G01 X-78.0147 Y52.4655 
G01 X-78.0292 Y52.4984 
G01 X-78.0472 Y52.5294 
G01 X-78.0534 Y52.5528 
G01 X-78.0633 Y52.5749 
G01 X-78.0689 Y52.6104 
G01 X-78.0782 Y52.6450 
G01 X-78.0782 Y52.6691 
G01 X-78.0820 Y52.6931 
G01 X-78.0782 Y52.7291 
G01 X-78.0782 Y52.7649 
G01 X-78.0719 Y52.7882 
G01 X-78.0694 Y52.8123 
G01 X-78.0565 Y52.8457 
G01 X-78.0554 Y52.8497 
G01 X-78.0559 Y52.8491 
G01 X-78.1896 Y52.7519 
G01 X-78.3369 Y52.6769 
G01 X-78.4940 Y52.6259 
G01 X-78.6573 Y52.6000 
G01 X-78.8226 Y52.6000 
G01 X-78.9859 Y52.6259 
G01 X-79.1430 Y52.6769 
G01 X-79.2903 Y52.7519 
G01 X-79.4240 Y52.8491 
G01 X-79.5408 Y52.9659 
G01 X-79.6380 Y53.0996 
G01 X-79.7130 Y53.2469 
G01 X-79.7640 Y53.4040 
G01 X-79.7899 Y53.5673 
G01 X-79.7899 Y53.7326 
G01 X-79.7640 Y53.8959 
G01 X-79.7130 Y54.0530 
G01 X-79.6380 Y54.2003 
G01 X-79.5408 Y54.3340 
G01 X-79.4240 Y54.4508 
G01 X-79.4192 Y54.4542 
G01 X-79.4254 Y54.4525 
G01 X-79.4377 Y54.4525 
G01 X-79.4494 Y54.4500 
G01 X-79.4969 Y54.4525 
G01 X-79.5453 Y54.4525 
G01 X-79.5571 Y54.4557 
G01 X-79.5690 Y54.4563 
G01 X-79.6141 Y54.4710 
G01 X-79.6609 Y54.4835 
G01 X-79.6714 Y54.4896 
G01 X-79.6829 Y54.4933 
G01 X-79.7226 Y54.5191 
G01 X-79.7646 Y54.5433 
G01 X-79.7733 Y54.5521 
G01 X-79.7833 Y54.5585 
G01 X-79.8148 Y54.5936 
G01 X-79.8493 Y54.6280 
G01 X-79.8554 Y54.6387 
G01 X-79.8634 Y54.6475 
G01 X-79.8850 Y54.6900 
G01 X-79.9091 Y54.7317 
G01 X-79.9122 Y54.7434 
G01 X-79.9177 Y54.7541 
G01 X-79.9276 Y54.8007 
G01 X-79.9401 Y54.8473 
G01 X-79.9401 Y54.8596 
G01 X-79.9426 Y54.8713 
G01 X-79.9401 Y54.9188 
G01 X-79.9401 Y55.4153 
G01 X-79.9091 Y55.5309 
G01 X-79.8493 Y55.6346 
G01 X-79.7646 Y55.7193 
G01 X-79.6609 Y55.7791 
G01 X-79.5453 Y55.8101 
G01 X-79.4254 Y55.8101 
G01 X-77.6406 Y55.8101 
G01 X-77.3297 Y55.8101 
G01 X-77.0707 Y55.9173 
G01 X-76.8723 Y56.1157 
G01 X-76.7651 Y56.3747 
G01 X-76.7651 Y57.9995 
G01 X-76.7341 Y58.1151 
G01 X-76.6743 Y58.2188 
G01 X-76.5896 Y58.3035 
G01 X-71.5538 Y63.3393 
G01 X-71.4501 Y63.3991 
G01 X-71.3345 Y63.4301 
G01 X-71.2146 Y63.4301 
G01 X-13.1645 Y63.4301 
G01 X-13.0489 Y63.3991 
G01 X-12.9452 Y63.3393 
G01 X-12.8605 Y63.2546 
G01 X-12.8007 Y63.1509 
G01 X-12.7697 Y63.0353 
G01 X-12.7697 Y62.9154 
G01 X-12.7697 Y58.5906 
G01 X-12.7697 Y58.2797 
G01 X-12.6625 Y58.0207 
G01 X-12.4537 Y57.8119 
G01 X-12.4478 Y57.8074 
G01 X-12.4207 Y57.7918 
G01 X-12.3992 Y57.7702 
G01 X-12.3760 Y57.7526 
G01 X-12.3579 Y57.7290 
G01 X-12.3360 Y57.7071 
G01 X-12.3209 Y57.6809 
G01 X-12.3030 Y57.6577 
G01 X-12.2915 Y57.6299 
G01 X-12.2762 Y57.6034 
G01 X-12.2685 Y57.5745 
G01 X-12.2570 Y57.5471 
G01 X-12.2531 Y57.5172 
G01 X-12.2452 Y57.4878 
G01 X-12.2452 Y57.4575 
G01 X-12.2413 Y57.4284 
G01 X-12.2452 Y57.3988 
G01 X-12.2452 Y53.2800 
G01 X-12.2762 Y53.1644 
G01 X-12.3360 Y53.0607 
G01 X-12.4207 Y52.9760 
G01 X-12.5244 Y52.9162 
G01 X-12.6400 Y52.8852 
G01 X-12.7599 Y52.8852 
G01 X-16.0054 Y52.8852 
G01 X-16.0537 Y52.8827 
G01 X-16.0654 Y52.8852 
G01 X-16.0775 Y52.8852 
G01 X-16.1236 Y52.8976 
G01 X-16.1708 Y52.9076 
G01 X-16.1816 Y52.9131 
G01 X-16.1931 Y52.9162 
G01 X-16.2345 Y52.9401 
G01 X-16.2775 Y52.9620 
G01 X-16.2863 Y52.9700 
G01 X-16.2968 Y52.9760 
G01 X-16.3310 Y53.0103 
G01 X-16.3664 Y53.0421 
G01 X-16.3728 Y53.0521 
G01 X-16.3815 Y53.0607 
G01 X-16.4058 Y53.1028 
G01 X-16.4316 Y53.1426 
G01 X-16.4353 Y53.1540 
G01 X-16.4413 Y53.1644 
G01 X-16.4536 Y53.2103 
G01 X-16.4686 Y53.2564 
G01 X-16.4692 Y53.2686 
G01 X-16.4723 Y53.2800 
G01 X-16.4723 Y53.3278 
G01 X-16.4748 Y53.3761 
G01 X-16.4723 Y53.3878 
G01 X-16.4723 Y53.3999 
G01 X-16.4599 Y53.4460 
G01 X-16.4499 Y53.4932 
G01 X-16.4444 Y53.5040 
G01 X-16.4413 Y53.5155 
G01 X-16.4174 Y53.5569 
G01 X-16.3955 Y53.5999 
G01 X-16.3875 Y53.6087 
G01 X-16.3815 Y53.6192 
G01 X-16.3472 Y53.6534 
G01 X-16.3154 Y53.6888 
G01 X-16.3054 Y53.6952 
G01 X-16.3026 Y53.6980 
G01 X-17.9872 Y53.6980 
G01 X-17.9844 Y53.6952 
G01 X-17.9744 Y53.6888 
G01 X-17.9425 Y53.6534 
G01 X-17.9083 Y53.6192 
G01 X-17.9023 Y53.6087 
G01 X-17.8943 Y53.5999 
G01 X-17.8724 Y53.5569 
G01 X-17.8485 Y53.5155 
G01 X-17.8454 Y53.5040 
G01 X-17.8399 Y53.4932 
G01 X-17.8299 Y53.4460 
G01 X-17.8175 Y53.3999 
G01 X-17.8175 Y53.3878 
G01 X-17.8150 Y53.3761 
G01 X-17.8175 Y53.3278 
G01 X-17.8175 Y53.2800 
G01 X-17.8206 Y53.2686 
G01 X-17.8212 Y53.2564 
G01 X-17.8362 Y53.2103 
G01 X-17.8485 Y53.1644 
G01 X-17.8545 Y53.1541 
G01 X-17.8582 Y53.1426 
G01 X-17.8841 Y53.1028 
G01 X-17.9083 Y53.0607 
G01 X-17.9170 Y53.0521 
G01 X-17.9234 Y53.0421 
G01 X-17.9588 Y53.0102 
G01 X-17.9930 Y52.9760 
G01 X-18.0035 Y52.9700 
G01 X-18.0123 Y52.9620 
G01 X-18.0553 Y52.9401 
G01 X-18.0967 Y52.9162 
G01 X-18.1082 Y52.9131 
G01 X-18.1190 Y52.9076 
G01 X-18.1662 Y52.8976 
G01 X-18.2123 Y52.8852 
G01 X-18.2244 Y52.8852 
G01 X-18.2361 Y52.8827 
G01 X-18.2844 Y52.8852 
G01 X-19.1099 Y52.8852 
G01 X-19.2255 Y52.9162 
G01 X-19.3292 Y52.9760 
G01 X-19.4139 Y53.0607 
G01 X-19.4737 Y53.1644 
G01 X-19.5047 Y53.2800 
G01 X-19.5047 Y53.3999 
G01 X-19.5047 Y53.4000 
G01 X-19.5047 Y53.8962 
G01 X-19.5072 Y53.9079 
G01 X-19.5047 Y53.9554 
G01 X-19.5047 Y54.0039 
G01 X-19.5015 Y54.0157 
G01 X-19.5009 Y54.0276 
G01 X-19.4863 Y54.0724 
G01 X-19.4737 Y54.1195 
G01 X-19.4675 Y54.1301 
G01 X-19.4639 Y54.1414 
G01 X-19.4384 Y54.1806 
G01 X-19.4139 Y54.2232 
G01 X-19.4051 Y54.2319 
G01 X-19.3987 Y54.2419 
G01 X-19.3633 Y54.2737 
G01 X-19.3292 Y54.3079 
G01 X-19.3187 Y54.3139 
G01 X-19.3098 Y54.3220 
G01 X-19.2668 Y54.3438 
G01 X-19.2255 Y54.3677 
G01 X-19.2138 Y54.3708 
G01 X-19.2031 Y54.3763 
G01 X-19.1564 Y54.3862 
G01 X-19.1099 Y54.3987 
G01 X-19.0977 Y54.3987 
G01 X-19.0860 Y54.4012 
G01 X-19.0385 Y54.3987 
G01 X-18.9900 Y54.3987 
G01 X-18.9782 Y54.3955 
G01 X-18.9663 Y54.3949 
G01 X-18.9215 Y54.3803 
G01 X-18.8744 Y54.3677 
G01 X-18.8638 Y54.3615 
G01 X-18.8525 Y54.3579 
G01 X-18.8133 Y54.3324 
G01 X-18.7707 Y54.3079 
G01 X-18.7676 Y54.3047 
G01 X-18.7839 Y54.3439 
G01 X-18.8189 Y54.5201 
G01 X-18.8189 Y54.6998 
G01 X-18.7839 Y54.8760 
G01 X-18.7677 Y54.9150 
G01 X-18.7707 Y54.9119 
G01 X-18.8133 Y54.8874 
G01 X-18.8525 Y54.8619 
G01 X-18.8638 Y54.8583 
G01 X-18.8744 Y54.8521 
G01 X-18.9215 Y54.8395 
G01 X-18.9663 Y54.8249 
G01 X-18.9782 Y54.8243 
G01 X-18.9900 Y54.8211 
G01 X-19.0385 Y54.8211 
G01 X-19.0860 Y54.8186 
G01 X-19.0977 Y54.8211 
G01 X-19.1099 Y54.8211 
G01 X-19.1563 Y54.8336 
G01 X-19.2031 Y54.8435 
G01 X-19.2138 Y54.8490 
G01 X-19.2255 Y54.8521 
G01 X-19.2668 Y54.8759 
G01 X-19.3098 Y54.8978 
G01 X-19.3188 Y54.9059 
G01 X-19.3292 Y54.9119 
G01 X-19.3633 Y54.9461 
G01 X-19.3987 Y54.9779 
G01 X-19.4051 Y54.9879 
G01 X-19.4139 Y54.9966 
G01 X-19.4384 Y55.0392 
G01 X-19.4639 Y55.0784 
G01 X-19.4675 Y55.0897 
G01 X-19.4737 Y55.1003 
G01 X-19.4863 Y55.1474 
G01 X-19.5009 Y55.1922 
G01 X-19.5015 Y55.2041 
G01 X-19.5047 Y55.2159 
G01 X-19.5047 Y55.2644 
G01 X-19.5072 Y55.3119 
G01 X-19.5047 Y55.3236 
G01 X-19.5047 Y55.8200 
G01 X-19.5047 Y55.9399 
G01 X-19.4737 Y56.0555 
G01 X-19.4139 Y56.1592 
G01 X-19.3292 Y56.2439 
G01 X-19.2255 Y56.3037 
G01 X-19.1099 Y56.3347 
G01 X-18.8634 Y56.3347 
G01 X-18.8632 Y56.3347 
G01 X-18.8026 Y56.3184 
G01 X-18.7478 Y56.3037 
G01 X-18.7477 Y56.3036 
G01 X-18.7476 Y56.3036 
G01 X-18.7331 Y56.2952 
G01 X-18.6441 Y56.2439 
G01 X-18.5649 Y56.1646 
G01 X-18.5213 Y56.1466 
G01 X-18.5150 Y56.1456 
G01 X-18.4639 Y56.1228 
G01 X-18.4162 Y56.1031 
G01 X-18.4116 Y56.0995 
G01 X-18.4056 Y56.0969 
G01 X-18.3624 Y56.0618 
G01 X-18.3212 Y56.0303 
G01 X-18.3175 Y56.0254 
G01 X-18.3126 Y56.0215 
G01 X-18.2806 Y55.9774 
G01 X-18.2483 Y55.9353 
G01 X-18.2460 Y55.9296 
G01 X-18.2423 Y55.9246 
G01 X-18.2232 Y55.8748 
G01 X-18.2024 Y55.8247 
G01 X-18.2016 Y55.8184 
G01 X-18.1994 Y55.8128 
G01 X-18.1937 Y55.7585 
G01 X-18.1868 Y55.7060 
G01 X-18.1876 Y55.7001 
G01 X-18.1869 Y55.6936 
G01 X-18.1956 Y55.6388 
G01 X-18.2024 Y55.5872 
G01 X-18.2047 Y55.5817 
G01 X-18.2057 Y55.5754 
G01 X-18.2284 Y55.5244 
G01 X-18.2482 Y55.4766 
G01 X-18.2518 Y55.4720 
G01 X-18.2544 Y55.4660 
G01 X-18.2703 Y55.4465 
G01 X-18.1730 Y55.4869 
G01 X-17.9968 Y55.5219 
G00 Z1.0000 
G00 X-66.2153 Y50.4643 
G01 Z-0.0800 F150.00 
G01 X-66.2153 Y50.4976 
G01 X-69.0350 Y50.4976 
G01 X-69.0350 Y50.1701 
G01 X-69.0578 Y50.1150 
G01 X-69.1000 Y50.0728 
G01 X-69.1551 Y50.0500 
G01 X-70.0148 Y50.0500 
G01 X-70.0699 Y50.0728 
G01 X-70.1121 Y50.1150 
G01 X-70.1349 Y50.1701 
G01 X-70.1349 Y50.4302 
G01 X-70.1367 Y50.4371 
G01 X-70.1443 Y50.4552 
G01 X-70.1470 Y50.4754 
G01 X-70.1523 Y50.4951 
G01 X-70.1523 Y50.5148 
G01 X-70.1549 Y50.5341 
G01 X-70.1523 Y50.5543 
G01 X-70.1523 Y50.5748 
G01 X-70.1471 Y50.5939 
G01 X-70.1447 Y50.6131 
G01 X-70.1370 Y50.6318 
G01 X-70.1349 Y50.6397 
G01 X-70.1349 Y51.4298 
G01 X-70.1121 Y51.4849 
G01 X-70.0699 Y51.5271 
G01 X-70.0148 Y51.5499 
G01 X-69.1551 Y51.5499 
G01 X-69.1000 Y51.5271 
G01 X-69.0578 Y51.4849 
G01 X-69.0350 Y51.4298 
G01 X-69.0350 Y51.1023 
G01 X-66.2153 Y51.1023 
G01 X-66.2153 Y51.1356 
G01 X-65.7406 Y51.6103 
G01 X-65.0693 Y51.6103 
G01 X-64.5946 Y51.1356 
G01 X-64.5946 Y50.4643 
G01 X-65.0693 Y49.9896 
G01 X-65.7406 Y49.9896 
G01 X-66.2153 Y50.4643 
G00 Z1.0000 
G00 X-40.8661 Y17.0601 
G01 Z-0.0800 F150.00 
G01 X-40.8661 Y17.2298 
G01 X-40.8330 Y17.3962 
G01 X-40.7681 Y17.5529 
G01 X-40.6739 Y17.6939 
G01 X-40.5539 Y17.8139 
G01 X-40.4129 Y17.9081 
G01 X-40.2562 Y17.9730 
G01 X-40.0898 Y18.0061 
G01 X-39.9201 Y18.0061 
G01 X-39.7537 Y17.9730 
G01 X-39.5970 Y17.9081 
G01 X-39.4560 Y17.8139 
G01 X-39.3360 Y17.6939 
G01 X-39.2418 Y17.5529 
G01 X-39.1769 Y17.3962 
G01 X-39.1438 Y17.2298 
G01 X-39.1438 Y17.0601 
G01 X-39.1769 Y16.8937 
G01 X-39.2418 Y16.7370 
G01 X-39.3360 Y16.5960 
G01 X-39.4560 Y16.4760 
G01 X-39.5970 Y16.3818 
G01 X-39.7537 Y16.3169 
G01 X-39.9201 Y16.2838 
G01 X-40.0898 Y16.2838 
G01 X-40.2562 Y16.3169 
G01 X-40.4129 Y16.3818 
G01 X-40.5539 Y16.4760 
G01 X-40.6739 Y16.5960 
G01 X-40.7681 Y16.7370 
G01 X-40.8330 Y16.8937 
G01 X-40.8661 Y17.0601 
G00 Z1.0000 
G00 X-38.3261 Y17.0601 
G01 Z-0.0800 F150.00 
G01 X-38.3261 Y17.2298 
G01 X-38.2930 Y17.3962 
G01 X-38.2281 Y17.5529 
G01 X-38.1339 Y17.6939 
G01 X-38.0139 Y17.8139 
G01 X-37.8729 Y17.9081 
G01 X-37.7162 Y17.9730 
G01 X-37.5498 Y18.0061 
G01 X-37.3801 Y18.0061 
G01 X-37.2137 Y17.9730 
G01 X-37.0570 Y17.9081 
G01 X-36.9160 Y17.8139 
G01 X-36.7960 Y17.6939 
G01 X-36.7018 Y17.5529 
G01 X-36.6369 Y17.3962 
G01 X-36.6038 Y17.2298 
G01 X-36.6038 Y17.0601 
G01 X-36.6369 Y16.8937 
G01 X-36.7018 Y16.7370 
G01 X-36.7960 Y16.5960 
G01 X-36.9160 Y16.4760 
G01 X-36.9685 Y16.4410 
G01 X-36.0697 Y15.5423 
G01 X-30.5198 Y15.5423 
G01 X-30.4401 Y15.5423 
G01 X-30.3632 Y15.5217 
G01 X-30.2943 Y15.4819 
G01 X-27.8147 Y13.0023 
G01 X-26.1998 Y13.0023 
G01 X-26.1201 Y13.0023 
G01 X-26.0432 Y12.9817 
G01 X-25.9743 Y12.9419 
G01 X-25.2281 Y12.1956 
G01 X-25.0985 Y12.2494 
G01 X-24.9223 Y12.2844 
G01 X-24.7426 Y12.2844 
G01 X-24.5664 Y12.2494 
G01 X-24.4005 Y12.1806 
G01 X-24.2511 Y12.0808 
G01 X-24.1241 Y11.9538 
G01 X-24.0243 Y11.8044 
G01 X-23.9555 Y11.6385 
G01 X-23.9205 Y11.4623 
G01 X-23.9205 Y11.2826 
G01 X-23.9555 Y11.1064 
G01 X-24.0243 Y10.9405 
G01 X-24.1241 Y10.7911 
G01 X-24.2511 Y10.6641 
G01 X-24.4005 Y10.5643 
G01 X-24.5664 Y10.4955 
G01 X-24.7426 Y10.4605 
G01 X-24.9223 Y10.4605 
G01 X-25.0985 Y10.4955 
G01 X-25.2644 Y10.5643 
G01 X-25.4138 Y10.6641 
G01 X-25.5408 Y10.7911 
G01 X-25.6406 Y10.9405 
G01 X-25.7094 Y11.1064 
G01 X-25.7444 Y11.2826 
G01 X-25.7444 Y11.4623 
G01 X-25.7094 Y11.6385 
G01 X-25.6556 Y11.7681 
G01 X-26.2852 Y12.3976 
G01 X-27.9798 Y12.3976 
G01 X-28.0567 Y12.4182 
G01 X-28.1256 Y12.4580 
G01 X-28.1819 Y12.5143 
G01 X-30.6052 Y14.9376 
G01 X-36.2348 Y14.9376 
G01 X-36.3117 Y14.9582 
G01 X-36.3806 Y14.9980 
G01 X-36.4369 Y15.0543 
G01 X-37.6506 Y16.2680 
G01 X-37.6953 Y16.3128 
G01 X-37.7162 Y16.3169 
G01 X-37.8729 Y16.3818 
G01 X-38.0139 Y16.4760 
G01 X-38.1339 Y16.5960 
G01 X-38.2281 Y16.7370 
G01 X-38.2930 Y16.8937 
G01 X-38.3261 Y17.0601 
G00 Z1.0000 
G00 X-35.7861 Y19.6001 
G01 Z-0.0800 F150.00 
G01 X-35.7861 Y19.7698 
G01 X-35.7530 Y19.9362 
G01 X-35.7093 Y20.0417 
G01 X-36.3202 Y20.6526 
G01 X-61.5551 Y20.6526 
G01 X-61.6348 Y20.6526 
G01 X-61.7117 Y20.6732 
G01 X-61.7806 Y20.7130 
G01 X-64.2602 Y23.1926 
G01 X-72.2647 Y23.1926 
G01 X-75.9764 Y19.4810 
G01 X-75.9230 Y19.4277 
G01 X-75.9230 Y18.6722 
G01 X-76.4572 Y18.1380 
G01 X-77.2127 Y18.1380 
G01 X-77.7469 Y18.6722 
G01 X-77.7469 Y19.4277 
G01 X-77.2127 Y19.9619 
G01 X-76.4572 Y19.9619 
G01 X-76.4039 Y19.9085 
G01 X-72.5756 Y23.7369 
G01 X-72.5067 Y23.7767 
G01 X-72.4298 Y23.7973 
G01 X-72.3501 Y23.7973 
G01 X-64.0951 Y23.7973 
G01 X-64.0182 Y23.7767 
G01 X-63.9493 Y23.7369 
G01 X-63.8930 Y23.6806 
G01 X-61.4697 Y21.2573 
G01 X-36.1551 Y21.2573 
G01 X-36.0782 Y21.2367 
G01 X-36.0093 Y21.1969 
G01 X-35.9530 Y21.1406 
G01 X-35.2817 Y20.4693 
G01 X-35.1762 Y20.5130 
G01 X-35.0098 Y20.5461 
G01 X-34.8401 Y20.5461 
G01 X-34.6737 Y20.5130 
G01 X-34.5170 Y20.4481 
G01 X-34.3760 Y20.3539 
G01 X-34.2560 Y20.2339 
G01 X-34.1618 Y20.0929 
G01 X-34.0969 Y19.9362 
G01 X-34.0638 Y19.7698 
G01 X-34.0638 Y19.6001 
G01 X-34.0969 Y19.4337 
G01 X-34.1618 Y19.2770 
G01 X-34.2560 Y19.1360 
G01 X-34.3760 Y19.0160 
G01 X-34.5170 Y18.9218 
G01 X-34.6737 Y18.8569 
G01 X-34.8401 Y18.8238 
G01 X-35.0098 Y18.8238 
G01 X-35.1762 Y18.8569 
G01 X-35.3329 Y18.9218 
G01 X-35.4739 Y19.0160 
G01 X-35.5939 Y19.1360 
G01 X-35.6881 Y19.2770 
G01 X-35.7530 Y19.4337 
G01 X-35.7861 Y19.6001 
G00 Z1.0000 
G00 X-35.7861 Y17.0601 
G01 Z-0.0800 F150.00 
G01 X-35.7861 Y17.2298 
G01 X-35.7530 Y17.3962 
G01 X-35.6881 Y17.5529 
G01 X-35.5939 Y17.6939 
G01 X-35.4739 Y17.8139 
G01 X-35.3329 Y17.9081 
G01 X-35.1762 Y17.9730 
G01 X-35.0098 Y18.0061 
G01 X-34.8401 Y18.0061 
G01 X-34.6737 Y17.9730 
G01 X-34.5170 Y17.9081 
G01 X-34.3760 Y17.8139 
G01 X-34.2560 Y17.6939 
G01 X-34.1618 Y17.5529 
G01 X-34.0969 Y17.3962 
G01 X-34.0638 Y17.2298 
G01 X-34.0638 Y17.0601 
G01 X-34.0969 Y16.8937 
G01 X-34.1618 Y16.7370 
G01 X-34.2560 Y16.5960 
G01 X-34.3760 Y16.4760 
G01 X-34.5170 Y16.3818 
G01 X-34.6737 Y16.3169 
G01 X-34.8401 Y16.2838 
G01 X-35.0098 Y16.2838 
G01 X-35.1762 Y16.3169 
G01 X-35.3329 Y16.3818 
G01 X-35.4739 Y16.4760 
G01 X-35.5939 Y16.5960 
G01 X-35.6881 Y16.7370 
G01 X-35.7530 Y16.8937 
G01 X-35.7861 Y17.0601 
G00 Z1.0000 
G00 X-33.2461 Y19.6001 
G01 Z-0.0800 F150.00 
G01 X-33.2461 Y19.7698 
G01 X-33.2130 Y19.9362 
G01 X-33.1481 Y20.0929 
G01 X-33.0539 Y20.2339 
G01 X-32.9339 Y20.3539 
G01 X-32.8814 Y20.3889 
G01 X-34.4152 Y21.9226 
G01 X-60.2851 Y21.9226 
G01 X-60.3648 Y21.9226 
G01 X-60.4417 Y21.9432 
G01 X-60.5106 Y21.9830 
G01 X-62.9902 Y24.4626 
G01 X-75.9230 Y24.4626 
G01 X-75.9230 Y23.7522 
G01 X-76.4572 Y23.2180 
G01 X-77.2127 Y23.2180 
G01 X-77.7469 Y23.7522 
G01 X-77.7469 Y24.5077 
G01 X-77.2127 Y25.0419 
G01 X-76.4572 Y25.0419 
G01 X-76.4039 Y24.9885 
G01 X-76.3856 Y25.0069 
G01 X-76.3167 Y25.0467 
G01 X-76.2398 Y25.0673 
G01 X-76.1601 Y25.0673 
G01 X-62.8251 Y25.0673 
G01 X-62.7482 Y25.0467 
G01 X-62.6793 Y25.0069 
G01 X-62.6230 Y24.9506 
G01 X-60.1997 Y22.5273 
G01 X-34.2501 Y22.5273 
G01 X-34.1732 Y22.5067 
G01 X-34.1043 Y22.4669 
G01 X-34.0480 Y22.4106 
G01 X-32.1546 Y20.5171 
G01 X-32.1337 Y20.5130 
G01 X-31.9770 Y20.4481 
G01 X-31.8360 Y20.3539 
G01 X-31.7160 Y20.2339 
G01 X-31.6218 Y20.0929 
G01 X-31.5569 Y19.9362 
G01 X-31.5238 Y19.7698 
G01 X-31.5238 Y19.6001 
G01 X-31.5569 Y19.4337 
G01 X-31.6218 Y19.2770 
G01 X-31.7160 Y19.1360 
G01 X-31.8360 Y19.0160 
G01 X-31.9770 Y18.9218 
G01 X-32.1337 Y18.8569 
G01 X-32.3001 Y18.8238 
G01 X-32.4698 Y18.8238 
G01 X-32.6362 Y18.8569 
G01 X-32.7929 Y18.9218 
G01 X-32.9339 Y19.0160 
G01 X-33.0539 Y19.1360 
G01 X-33.1481 Y19.2770 
G01 X-33.2130 Y19.4337 
G01 X-33.2461 Y19.6001 
G00 Z1.0000 
G00 X-30.7061 Y19.6001 
G01 Z-0.0800 F150.00 
G01 X-30.7061 Y19.7698 
G01 X-30.6730 Y19.9362 
G01 X-30.6081 Y20.0929 
G01 X-30.5139 Y20.2339 
G01 X-30.3939 Y20.3539 
G01 X-30.3414 Y20.3889 
G01 X-33.1452 Y23.1926 
G01 X-59.0151 Y23.1926 
G01 X-59.0948 Y23.1926 
G01 X-59.1717 Y23.2132 
G01 X-59.2406 Y23.2530 
G01 X-61.7202 Y25.7326 
G01 X-73.6201 Y25.7326 
G01 X-73.6998 Y25.7326 
G01 X-73.7767 Y25.7532 
G01 X-73.8456 Y25.7930 
G01 X-76.4039 Y28.3514 
G01 X-76.4572 Y28.2980 
G01 X-77.2127 Y28.2980 
G01 X-77.7469 Y28.8322 
G01 X-77.7469 Y29.5877 
G01 X-77.2127 Y30.1219 
G01 X-76.4572 Y30.1219 
G01 X-75.9230 Y29.5877 
G01 X-75.9230 Y28.8322 
G01 X-75.9764 Y28.7789 
G01 X-73.5347 Y26.3373 
G01 X-61.5551 Y26.3373 
G01 X-61.4782 Y26.3167 
G01 X-61.4093 Y26.2769 
G01 X-61.3530 Y26.2206 
G01 X-58.9297 Y23.7973 
G01 X-32.9801 Y23.7973 
G01 X-32.9032 Y23.7767 
G01 X-32.8343 Y23.7369 
G01 X-32.7780 Y23.6806 
G01 X-29.6146 Y20.5171 
G01 X-29.5937 Y20.5130 
G01 X-29.4370 Y20.4481 
G01 X-29.2960 Y20.3539 
G01 X-29.1760 Y20.2339 
G01 X-29.0818 Y20.0929 
G01 X-29.0169 Y19.9362 
G01 X-28.9838 Y19.7698 
G01 X-28.9838 Y19.6001 
G01 X-29.0169 Y19.4337 
G01 X-29.0818 Y19.2770 
G01 X-29.1760 Y19.1360 
G01 X-29.2960 Y19.0160 
G01 X-29.4370 Y18.9218 
G01 X-29.5937 Y18.8569 
G01 X-29.7601 Y18.8238 
G01 X-29.9298 Y18.8238 
G01 X-30.0962 Y18.8569 
G01 X-30.2529 Y18.9218 
G01 X-30.3939 Y19.0160 
G01 X-30.5139 Y19.1360 
G01 X-30.6081 Y19.2770 
G01 X-30.6730 Y19.4337 
G01 X-30.7061 Y19.6001 
G00 Z1.0000 
G00 X-30.7061 Y17.0601 
G01 Z-0.0800 F150.00 
G01 X-30.7061 Y17.2298 
G01 X-30.6730 Y17.3962 
G01 X-30.6293 Y17.5017 
G01 X-31.3006 Y18.1730 
G01 X-31.3569 Y18.2293 
G01 X-31.3967 Y18.2982 
G01 X-31.4173 Y18.3751 
G01 X-31.4173 Y20.1947 
G01 X-33.7802 Y22.5576 
G01 X-59.6501 Y22.5576 
G01 X-59.7298 Y22.5576 
G01 X-59.8067 Y22.5782 
G01 X-59.8756 Y22.6180 
G01 X-62.3552 Y25.0976 
G01 X-75.5251 Y25.0976 
G01 X-75.6048 Y25.0976 
G01 X-75.6817 Y25.1182 
G01 X-75.7506 Y25.1580 
G01 X-76.4039 Y25.8114 
G01 X-76.4572 Y25.7580 
G01 X-77.2127 Y25.7580 
G01 X-77.7469 Y26.2922 
G01 X-77.7469 Y27.0477 
G01 X-77.2127 Y27.5819 
G01 X-76.4572 Y27.5819 
G01 X-75.9230 Y27.0477 
G01 X-75.9230 Y26.2922 
G01 X-75.9764 Y26.2389 
G01 X-75.4397 Y25.7023 
G01 X-62.1901 Y25.7023 
G01 X-62.1132 Y25.6817 
G01 X-62.0443 Y25.6419 
G01 X-61.9880 Y25.5856 
G01 X-59.5647 Y23.1623 
G01 X-33.6151 Y23.1623 
G01 X-33.5382 Y23.1417 
G01 X-33.4693 Y23.1019 
G01 X-33.4130 Y23.0456 
G01 X-30.8730 Y20.5056 
G01 X-30.8332 Y20.4367 
G01 X-30.8126 Y20.3598 
G01 X-30.8126 Y20.2801 
G01 X-30.8126 Y18.5402 
G01 X-30.2017 Y17.9293 
G01 X-30.0962 Y17.9730 
G01 X-29.9298 Y18.0061 
G01 X-29.7601 Y18.0061 
G01 X-29.5937 Y17.9730 
G01 X-29.4370 Y17.9081 
G01 X-29.2960 Y17.8139 
G01 X-29.1760 Y17.6939 
G01 X-29.0818 Y17.5529 
G01 X-29.0169 Y17.3962 
G01 X-28.9838 Y17.2298 
G01 X-28.9838 Y17.0601 
G01 X-29.0169 Y16.8937 
G01 X-29.0818 Y16.7370 
G01 X-29.1760 Y16.5960 
G01 X-29.2960 Y16.4760 
G01 X-29.4370 Y16.3818 
G01 X-29.5937 Y16.3169 
G01 X-29.7601 Y16.2838 
G01 X-29.9298 Y16.2838 
G01 X-30.0962 Y16.3169 
G01 X-30.2529 Y16.3818 
G01 X-30.3939 Y16.4760 
G01 X-30.5139 Y16.5960 
G01 X-30.6081 Y16.7370 
G01 X-30.6730 Y16.8937 
G01 X-30.7061 Y17.0601 
G00 Z1.0000 
G00 X-25.6261 Y19.6001 
G01 Z-0.0800 F150.00 
G01 X-25.6261 Y19.7698 
G01 X-25.5930 Y19.9362 
G01 X-25.5493 Y20.0417 
G01 X-29.9702 Y24.4626 
G01 X-57.7451 Y24.4626 
G01 X-57.8248 Y24.4626 
G01 X-57.9017 Y24.4832 
G01 X-57.9706 Y24.5230 
G01 X-60.4502 Y27.0026 
G01 X-69.8101 Y27.0026 
G01 X-69.8898 Y27.0026 
G01 X-69.9667 Y27.0232 
G01 X-70.0356 Y27.0630 
G01 X-76.4039 Y33.4314 
G01 X-76.4572 Y33.3780 
G01 X-77.2127 Y33.3780 
G01 X-77.7469 Y33.9122 
G01 X-77.7469 Y34.6677 
G01 X-77.2127 Y35.2019 
G01 X-76.4572 Y35.2019 
G01 X-75.9230 Y34.6677 
G01 X-75.9230 Y33.9122 
G01 X-75.9764 Y33.8589 
G01 X-69.7247 Y27.6073 
G01 X-60.2851 Y27.6073 
G01 X-60.2082 Y27.5867 
G01 X-60.1393 Y27.5469 
G01 X-60.0830 Y27.4906 
G01 X-57.6597 Y25.0673 
G01 X-29.8051 Y25.0673 
G01 X-29.7282 Y25.0467 
G01 X-29.6593 Y25.0069 
G01 X-29.6030 Y24.9506 
G01 X-25.1217 Y20.4693 
G01 X-25.0162 Y20.5130 
G01 X-24.8498 Y20.5461 
G01 X-24.6801 Y20.5461 
G01 X-24.5137 Y20.5130 
G01 X-24.3570 Y20.4481 
G01 X-24.2160 Y20.3539 
G01 X-24.0960 Y20.2339 
G01 X-24.0018 Y20.0929 
G01 X-23.9369 Y19.9362 
G01 X-23.9038 Y19.7698 
G01 X-23.9038 Y19.6001 
G01 X-23.9369 Y19.4337 
G01 X-24.0018 Y19.2770 
G01 X-24.0960 Y19.1360 
G01 X-24.2160 Y19.0160 
G01 X-24.3570 Y18.9218 
G01 X-24.5137 Y18.8569 
G01 X-24.6801 Y18.8238 
G01 X-24.8498 Y18.8238 
G01 X-25.0162 Y18.8569 
G01 X-25.1729 Y18.9218 
G01 X-25.3139 Y19.0160 
G01 X-25.4339 Y19.1360 
G01 X-25.5281 Y19.2770 
G01 X-25.5930 Y19.4337 
G01 X-25.6261 Y19.6001 
G00 Z1.0000 
G00 X-25.6261 Y17.0601 
G01 Z-0.0800 F150.00 
G01 X-25.6261 Y17.2298 
G01 X-25.5930 Y17.3962 
G01 X-25.5281 Y17.5529 
G01 X-25.4339 Y17.6939 
G01 X-25.3139 Y17.8139 
G01 X-25.1729 Y17.9081 
G01 X-25.0162 Y17.9730 
G01 X-24.8498 Y18.0061 
G01 X-24.6801 Y18.0061 
G01 X-24.5137 Y17.9730 
G01 X-24.3570 Y17.9081 
G01 X-24.2160 Y17.8139 
G01 X-24.0960 Y17.6939 
G01 X-24.0018 Y17.5529 
G01 X-23.9369 Y17.3962 
G01 X-23.9038 Y17.2298 
G01 X-23.9038 Y17.0601 
G01 X-23.9369 Y16.8937 
G01 X-24.0018 Y16.7370 
G01 X-24.0960 Y16.5960 
G01 X-24.2160 Y16.4760 
G01 X-24.3570 Y16.3818 
G01 X-24.4626 Y16.3381 
G01 X-24.4626 Y14.7302 
G01 X-22.0505 Y12.3181 
G01 X-22.0107 Y12.2492 
G01 X-22.0088 Y12.2421 
G01 X-21.8605 Y12.1806 
G01 X-21.7111 Y12.0808 
G01 X-21.5841 Y11.9538 
G01 X-21.4843 Y11.8044 
G01 X-21.4155 Y11.6385 
G01 X-21.3805 Y11.4623 
G01 X-21.3805 Y11.2826 
G01 X-21.4155 Y11.1064 
G01 X-21.4843 Y10.9405 
G01 X-21.5841 Y10.7911 
G01 X-21.7111 Y10.6641 
G01 X-21.8605 Y10.5643 
G01 X-22.0264 Y10.4955 
G01 X-22.2026 Y10.4605 
G01 X-22.3823 Y10.4605 
G01 X-22.5585 Y10.4955 
G01 X-22.7244 Y10.5643 
G01 X-22.8738 Y10.6641 
G01 X-23.0008 Y10.7911 
G01 X-23.1006 Y10.9405 
G01 X-23.1694 Y11.1064 
G01 X-23.2044 Y11.2826 
G01 X-23.2044 Y11.4623 
G01 X-23.1694 Y11.6385 
G01 X-23.1006 Y11.8044 
G01 X-23.0008 Y11.9538 
G01 X-22.8738 Y12.0808 
G01 X-22.7506 Y12.1630 
G01 X-25.0069 Y14.4193 
G01 X-25.0467 Y14.4882 
G01 X-25.0673 Y14.5651 
G01 X-25.0673 Y14.6448 
G01 X-25.0673 Y16.3381 
G01 X-25.1729 Y16.3818 
G01 X-25.3139 Y16.4760 
G01 X-25.4339 Y16.5960 
G01 X-25.5281 Y16.7370 
G01 X-25.5930 Y16.8937 
G01 X-25.6261 Y17.0601 
G00 Z1.0000 
G00 X-23.0861 Y19.6001 
G01 Z-0.0800 F150.00 
G01 X-23.0861 Y19.7698 
G01 X-23.0530 Y19.9362 
G01 X-22.9881 Y20.0929 
G01 X-22.8939 Y20.2339 
G01 X-22.7739 Y20.3539 
G01 X-22.6329 Y20.4481 
G01 X-22.4762 Y20.5130 
G01 X-22.3098 Y20.5461 
G01 X-22.1401 Y20.5461 
G01 X-21.9737 Y20.5130 
G01 X-21.8170 Y20.4481 
G01 X-21.6760 Y20.3539 
G01 X-21.5560 Y20.2339 
G01 X-21.4618 Y20.0929 
G01 X-21.3969 Y19.9362 
G01 X-21.3638 Y19.7698 
G01 X-21.3638 Y19.6001 
G01 X-21.3969 Y19.4337 
G01 X-21.4618 Y19.2770 
G01 X-21.5560 Y19.1360 
G01 X-21.6760 Y19.0160 
G01 X-21.7285 Y18.9810 
G01 X-20.7693 Y18.0219 
G01 X-20.7130 Y17.9656 
G01 X-20.6732 Y17.8967 
G01 X-20.6526 Y17.8198 
G01 X-20.6526 Y14.2349 
G01 X-20.1751 Y14.2349 
G01 X-20.1200 Y14.2121 
G01 X-20.0778 Y14.1699 
G01 X-20.0550 Y14.1148 
G01 X-20.0550 Y12.5551 
G01 X-20.0778 Y12.5000 
G01 X-20.1200 Y12.4578 
G01 X-20.1751 Y12.4350 
G01 X-21.7348 Y12.4350 
G01 X-21.7899 Y12.4578 
G01 X-21.8321 Y12.5000 
G01 X-21.8549 Y12.5551 
G01 X-21.8549 Y14.1148 
G01 X-21.8321 Y14.1699 
G01 X-21.7899 Y14.2121 
G01 X-21.7348 Y14.2349 
G01 X-21.2573 Y14.2349 
G01 X-21.2573 Y17.6547 
G01 X-22.4553 Y18.8528 
G01 X-22.4762 Y18.8569 
G01 X-22.6329 Y18.9218 
G01 X-22.7739 Y19.0160 
G01 X-22.8939 Y19.1360 
G01 X-22.9881 Y19.2770 
G01 X-23.0530 Y19.4337 
G01 X-23.0861 Y19.6001 
G00 Z1.0000 
G00 X-20.5461 Y19.6001 
G01 Z-0.0800 F150.00 
G01 X-20.5461 Y19.7698 
G01 X-20.5130 Y19.9362 
G01 X-20.4481 Y20.0929 
G01 X-20.3539 Y20.2339 
G01 X-20.2339 Y20.3539 
G01 X-20.0929 Y20.4481 
G01 X-19.9362 Y20.5130 
G01 X-19.7698 Y20.5461 
G01 X-19.6001 Y20.5461 
G01 X-19.4337 Y20.5130 
G01 X-19.2770 Y20.4481 
G01 X-19.1360 Y20.3539 
G01 X-19.0160 Y20.2339 
G01 X-18.9218 Y20.0929 
G01 X-18.8569 Y19.9362 
G01 X-18.8238 Y19.7698 
G01 X-18.8238 Y19.6001 
G01 X-18.8569 Y19.4337 
G01 X-18.9007 Y19.3282 
G01 X-18.2293 Y18.6569 
G01 X-18.1730 Y18.6006 
G01 X-18.1332 Y18.5317 
G01 X-18.1126 Y18.4548 
G01 X-18.1126 Y16.6352 
G01 X-15.7909 Y14.3135 
G01 X-15.7346 Y14.2572 
G01 X-15.6948 Y14.1883 
G01 X-15.6742 Y14.1114 
G01 X-15.6742 Y10.8186 
G01 X-15.6330 Y10.7774 
G01 X-15.5932 Y10.7085 
G01 X-15.5726 Y10.6316 
G01 X-15.5726 Y10.5519 
G01 X-15.5726 Y6.3101 
G01 X-15.5932 Y6.2332 
G01 X-15.6330 Y6.1643 
G01 X-15.6893 Y6.1080 
G01 X-18.2293 Y3.5680 
G01 X-18.2982 Y3.5282 
G01 X-18.3751 Y3.5076 
G01 X-18.4548 Y3.5076 
G01 X-32.4248 Y3.5076 
G01 X-32.5017 Y3.5282 
G01 X-32.5706 Y3.5680 
G01 X-32.6269 Y3.6243 
G01 X-37.6506 Y8.6480 
G01 X-37.7069 Y8.7043 
G01 X-37.7467 Y8.7732 
G01 X-37.7673 Y8.8501 
G01 X-37.7673 Y10.4893 
G01 X-37.7985 Y10.4955 
G01 X-37.9644 Y10.5643 
G01 X-38.1138 Y10.6641 
G01 X-38.2408 Y10.7911 
G01 X-38.3406 Y10.9405 
G01 X-38.4094 Y11.1064 
G01 X-38.4444 Y11.2826 
G01 X-38.4444 Y11.4623 
G01 X-38.4094 Y11.6385 
G01 X-38.3406 Y11.8044 
G01 X-38.2408 Y11.9538 
G01 X-38.1138 Y12.0808 
G01 X-37.9644 Y12.1806 
G01 X-37.7985 Y12.2494 
G01 X-37.6223 Y12.2844 
G01 X-37.4426 Y12.2844 
G01 X-37.2664 Y12.2494 
G01 X-37.1005 Y12.1806 
G01 X-36.9511 Y12.0808 
G01 X-36.8241 Y11.9538 
G01 X-36.7243 Y11.8044 
G01 X-36.6555 Y11.6385 
G01 X-36.6205 Y11.4623 
G01 X-36.6205 Y11.2826 
G01 X-36.6555 Y11.1064 
G01 X-36.7243 Y10.9405 
G01 X-36.8241 Y10.7911 
G01 X-36.9511 Y10.6641 
G01 X-37.1005 Y10.5643 
G01 X-37.1626 Y10.5386 
G01 X-37.1626 Y9.0152 
G01 X-32.2597 Y4.1123 
G01 X-18.5402 Y4.1123 
G01 X-16.1773 Y6.4752 
G01 X-16.1773 Y10.4665 
G01 X-16.2185 Y10.5077 
G01 X-16.2583 Y10.5766 
G01 X-16.2789 Y10.6535 
G01 X-16.2789 Y10.7332 
G01 X-16.2789 Y13.9463 
G01 X-18.6569 Y16.3243 
G01 X-18.6967 Y16.3932 
G01 X-18.7173 Y16.4701 
G01 X-18.7173 Y16.5498 
G01 X-18.7173 Y18.2897 
G01 X-19.3282 Y18.9007 
G01 X-19.4337 Y18.8569 
G01 X-19.6001 Y18.8238 
G01 X-19.7698 Y18.8238 
G01 X-19.9362 Y18.8569 
G01 X-20.0929 Y18.9218 
G01 X-20.2339 Y19.0160 
G01 X-20.3539 Y19.1360 
G01 X-20.4481 Y19.2770 
G01 X-20.5130 Y19.4337 
G01 X-20.5461 Y19.6001 
G00 Z1.0000 
G00 X-20.5461 Y17.0601 
G01 Z-0.0800 F150.00 
G01 X-20.5461 Y17.2298 
G01 X-20.5130 Y17.3962 
G01 X-20.4481 Y17.5529 
G01 X-20.3539 Y17.6939 
G01 X-20.2339 Y17.8139 
G01 X-20.1814 Y17.8489 
G01 X-21.1406 Y18.8080 
G01 X-21.1969 Y18.8643 
G01 X-21.2367 Y18.9332 
G01 X-21.2573 Y19.0101 
G01 X-21.2573 Y21.4647 
G01 X-25.5252 Y25.7326 
G01 X-48.8551 Y25.7326 
G01 X-48.9348 Y25.7326 
G01 X-49.0117 Y25.7532 
G01 X-49.0806 Y25.7930 
G01 X-50.9626 Y27.6750 
G01 X-52.2148 Y27.6750 
G01 X-52.2699 Y27.6978 
G01 X-52.3121 Y27.7400 
G01 X-52.3349 Y27.7951 
G01 X-52.3349 Y29.3548 
G01 X-52.3121 Y29.4099 
G01 X-52.2699 Y29.4521 
G01 X-52.2148 Y29.4749 
G01 X-50.6551 Y29.4749 
G01 X-50.6000 Y29.4521 
G01 X-50.5578 Y29.4099 
G01 X-50.5350 Y29.3548 
G01 X-50.5350 Y28.1026 
G01 X-48.7697 Y26.3373 
G01 X-25.3601 Y26.3373 
G01 X-25.2832 Y26.3167 
G01 X-25.2143 Y26.2769 
G01 X-25.1580 Y26.2206 
G01 X-20.7130 Y21.7756 
G01 X-20.6732 Y21.7067 
G01 X-20.6526 Y21.6298 
G01 X-20.6526 Y21.5501 
G01 X-20.6526 Y19.1752 
G01 X-19.4546 Y17.9771 
G01 X-19.4337 Y17.9730 
G01 X-19.2770 Y17.9081 
G01 X-19.1360 Y17.8139 
G01 X-19.0160 Y17.6939 
G01 X-18.9218 Y17.5529 
G01 X-18.8569 Y17.3962 
G01 X-18.8238 Y17.2298 
G01 X-18.8238 Y17.0601 
G01 X-18.8569 Y16.8937 
G01 X-18.9218 Y16.7370 
G01 X-19.0160 Y16.5960 
G01 X-19.1360 Y16.4760 
G01 X-19.2770 Y16.3818 
G01 X-19.4337 Y16.3169 
G01 X-19.6001 Y16.2838 
G01 X-19.7698 Y16.2838 
G01 X-19.9362 Y16.3169 
G01 X-20.0929 Y16.3818 
G01 X-20.2339 Y16.4760 
G01 X-20.3539 Y16.5960 
G01 X-20.4481 Y16.7370 
G01 X-20.5130 Y16.8937 
G01 X-20.5461 Y17.0601 
G00 Z1.0000 
G00 X-18.0061 Y19.6001 
G01 Z-0.0800 F150.00 
G01 X-18.0061 Y19.7698 
G01 X-17.9730 Y19.9362 
G01 X-17.9081 Y20.0929 
G01 X-17.8139 Y20.2339 
G01 X-17.6939 Y20.3539 
G01 X-17.5529 Y20.4481 
G01 X-17.3962 Y20.5130 
G01 X-17.2298 Y20.5461 
G01 X-17.0601 Y20.5461 
G01 X-16.8937 Y20.5130 
G01 X-16.7370 Y20.4481 
G01 X-16.5960 Y20.3539 
G01 X-16.4760 Y20.2339 
G01 X-16.3818 Y20.0929 
G01 X-16.3169 Y19.9362 
G01 X-16.2838 Y19.7698 
G01 X-16.2838 Y19.6001 
G01 X-16.3169 Y19.4337 
G01 X-16.3818 Y19.2770 
G01 X-16.4760 Y19.1360 
G01 X-16.5960 Y19.0160 
G01 X-16.7370 Y18.9218 
G01 X-16.8937 Y18.8569 
G01 X-17.0601 Y18.8238 
G01 X-17.2298 Y18.8238 
G01 X-17.3962 Y18.8569 
G01 X-17.5529 Y18.9218 
G01 X-17.6939 Y19.0160 
G01 X-17.8139 Y19.1360 
G01 X-17.9081 Y19.2770 
G01 X-17.9730 Y19.4337 
G01 X-18.0061 Y19.6001 
G00 Z1.0000 
G00 X-15.4661 Y19.6001 
G01 Z-0.0800 F150.00 
G01 X-15.4661 Y19.7698 
G01 X-15.4330 Y19.9362 
G01 X-15.3681 Y20.0929 
G01 X-15.2739 Y20.2339 
G01 X-15.1539 Y20.3539 
G01 X-15.0129 Y20.4481 
G01 X-14.8562 Y20.5130 
G01 X-14.6898 Y20.5461 
G01 X-14.5201 Y20.5461 
G01 X-14.3537 Y20.5130 
G01 X-14.1970 Y20.4481 
G01 X-14.0560 Y20.3539 
G01 X-13.9360 Y20.2339 
G01 X-13.8418 Y20.0929 
G01 X-13.7769 Y19.9362 
G01 X-13.7438 Y19.7698 
G01 X-13.7438 Y19.6001 
G01 X-13.7769 Y19.4337 
G01 X-13.8418 Y19.2770 
G01 X-13.9360 Y19.1360 
G01 X-14.0560 Y19.0160 
G01 X-14.1970 Y18.9218 
G01 X-14.3537 Y18.8569 
G01 X-14.5201 Y18.8238 
G01 X-14.6898 Y18.8238 
G01 X-14.8562 Y18.8569 
G01 X-15.0129 Y18.9218 
G01 X-15.1539 Y19.0160 
G01 X-15.2739 Y19.1360 
G01 X-15.3681 Y19.2770 
G01 X-15.4330 Y19.4337 
G01 X-15.4661 Y19.6001 
G00 Z1.0000 
G00 X-15.4661 Y17.0601 
G01 Z-0.0800 F150.00 
G01 X-15.4661 Y17.2298 
G01 X-15.4330 Y17.3962 
G01 X-15.3681 Y17.5529 
G01 X-15.2739 Y17.6939 
G01 X-15.1539 Y17.8139 
G01 X-15.0129 Y17.9081 
G01 X-14.8562 Y17.9730 
G01 X-14.6898 Y18.0061 
G01 X-14.5201 Y18.0061 
G01 X-14.3537 Y17.9730 
G01 X-14.1970 Y17.9081 
G01 X-14.0560 Y17.8139 
G01 X-13.9360 Y17.6939 
G01 X-13.8418 Y17.5529 
G01 X-13.7769 Y17.3962 
G01 X-13.7438 Y17.2298 
G01 X-13.7438 Y17.0601 
G01 X-13.7769 Y16.8937 
G01 X-13.8418 Y16.7370 
G01 X-13.9360 Y16.5960 
G01 X-14.0560 Y16.4760 
G01 X-14.1970 Y16.3818 
G01 X-14.3537 Y16.3169 
G01 X-14.5201 Y16.2838 
G01 X-14.6898 Y16.2838 
G01 X-14.8562 Y16.3169 
G01 X-15.0129 Y16.3818 
G01 X-15.1539 Y16.4760 
G01 X-15.2739 Y16.5960 
G01 X-15.3681 Y16.7370 
G01 X-15.4330 Y16.8937 
G01 X-15.4661 Y17.0601 
G00 Z1.0000 
G00 X-12.9261 Y19.6001 
G01 Z-0.0800 F150.00 
G01 X-12.9261 Y19.7698 
G01 X-12.8930 Y19.9362 
G01 X-12.8281 Y20.0929 
G01 X-12.7339 Y20.2339 
G01 X-12.6139 Y20.3539 
G01 X-12.4729 Y20.4481 
G01 X-12.3162 Y20.5130 
G01 X-12.1498 Y20.5461 
G01 X-11.9801 Y20.5461 
G01 X-11.8137 Y20.5130 
G01 X-11.7082 Y20.4692 
G01 X-11.0973 Y21.0802 
G01 X-11.0973 Y41.3148 
G01 X-11.0767 Y41.3917 
G01 X-11.0369 Y41.4606 
G01 X-10.9806 Y41.5169 
G01 X-8.4431 Y44.0543 
G01 X-8.4969 Y44.1839 
G01 X-8.5319 Y44.3601 
G01 X-8.5319 Y44.5398 
G01 X-8.4969 Y44.7160 
G01 X-8.4281 Y44.8819 
G01 X-8.3283 Y45.0313 
G01 X-8.2013 Y45.1583 
G01 X-8.0519 Y45.2581 
G01 X-7.8860 Y45.3269 
G01 X-7.7098 Y45.3619 
G01 X-7.5301 Y45.3619 
G01 X-7.3539 Y45.3269 
G01 X-7.1880 Y45.2581 
G01 X-7.0386 Y45.1583 
G01 X-6.9116 Y45.0313 
G01 X-6.8118 Y44.8819 
G01 X-6.7430 Y44.7160 
G01 X-6.7080 Y44.5398 
G01 X-6.7080 Y44.3601 
G01 X-6.7430 Y44.1839 
G01 X-6.8118 Y44.0180 
G01 X-6.9116 Y43.8686 
G01 X-7.0386 Y43.7416 
G01 X-7.1880 Y43.6418 
G01 X-7.3539 Y43.5730 
G01 X-7.5301 Y43.5380 
G01 X-7.7098 Y43.5380 
G01 X-7.8860 Y43.5730 
G01 X-8.0156 Y43.6268 
G01 X-10.4926 Y41.1497 
G01 X-10.4926 Y20.9948 
G01 X-10.4926 Y20.9151 
G01 X-10.5132 Y20.8382 
G01 X-10.5530 Y20.7693 
G01 X-11.2807 Y20.0417 
G01 X-11.2369 Y19.9362 
G01 X-11.2038 Y19.7698 
G01 X-11.2038 Y19.6001 
G01 X-11.2369 Y19.4337 
G01 X-11.3018 Y19.2770 
G01 X-11.3960 Y19.1360 
G01 X-11.5160 Y19.0160 
G01 X-11.6570 Y18.9218 
G01 X-11.8137 Y18.8569 
G01 X-11.9801 Y18.8238 
G01 X-12.1498 Y18.8238 
G01 X-12.3162 Y18.8569 
G01 X-12.4729 Y18.9218 
G01 X-12.6139 Y19.0160 
G01 X-12.7339 Y19.1360 
G01 X-12.8281 Y19.2770 
G01 X-12.8930 Y19.4337 
G01 X-12.9261 Y19.6001 
G00 Z1.0000 
G00 X-12.9261 Y17.0601 
G01 Z-0.0800 F150.00 
G01 X-12.9261 Y17.2298 
G01 X-12.8930 Y17.3962 
G01 X-12.8281 Y17.5529 
G01 X-12.7339 Y17.6939 
G01 X-12.6139 Y17.8139 
G01 X-12.4729 Y17.9081 
G01 X-12.3162 Y17.9730 
G01 X-12.1498 Y18.0061 
G01 X-11.9801 Y18.0061 
G01 X-11.8137 Y17.9730 
G01 X-11.6570 Y17.9081 
G01 X-11.5160 Y17.8139 
G01 X-11.3960 Y17.6939 
G01 X-11.3018 Y17.5529 
G01 X-11.2369 Y17.3962 
G01 X-11.2038 Y17.2298 
G01 X-11.2038 Y17.0601 
G01 X-11.2369 Y16.8937 
G01 X-11.3018 Y16.7370 
G01 X-11.3960 Y16.5960 
G01 X-11.5160 Y16.4760 
G01 X-11.6570 Y16.3818 
G01 X-11.8137 Y16.3169 
G01 X-11.9801 Y16.2838 
G01 X-12.1498 Y16.2838 
G01 X-12.3162 Y16.3169 
G01 X-12.4729 Y16.3818 
G01 X-12.6139 Y16.4760 
G01 X-12.7339 Y16.5960 
G01 X-12.8281 Y16.7370 
G01 X-12.8930 Y16.8937 
G01 X-12.9261 Y17.0601 
G00 Z1.0000 
G00 X-10.3861 Y19.6001 
G01 Z-0.0800 F150.00 
G01 X-10.3861 Y19.7698 
G01 X-10.3530 Y19.9362 
G01 X-10.2881 Y20.0929 
G01 X-10.1939 Y20.2339 
G01 X-10.0739 Y20.3539 
G01 X-9.9329 Y20.4481 
G01 X-9.8273 Y20.4918 
G01 X-9.8273 Y35.2950 
G01 X-10.3048 Y35.2950 
G01 X-10.3599 Y35.3178 
G01 X-10.4021 Y35.3600 
G01 X-10.4249 Y35.4151 
G01 X-10.4249 Y36.9748 
G01 X-10.4021 Y37.0299 
G01 X-10.3599 Y37.0721 
G01 X-10.3048 Y37.0949 
G01 X-8.7451 Y37.0949 
G01 X-8.6900 Y37.0721 
G01 X-8.6478 Y37.0299 
G01 X-8.6250 Y36.9748 
G01 X-8.6250 Y35.4151 
G01 X-8.6478 Y35.3600 
G01 X-8.6900 Y35.3178 
G01 X-8.7451 Y35.2950 
G01 X-9.2226 Y35.2950 
G01 X-9.2226 Y20.4918 
G01 X-9.1170 Y20.4481 
G01 X-8.9760 Y20.3539 
G01 X-8.8560 Y20.2339 
G01 X-8.7618 Y20.0929 
G01 X-8.6969 Y19.9362 
G01 X-8.6638 Y19.7698 
G01 X-8.6638 Y19.6001 
G01 X-8.6969 Y19.4337 
G01 X-8.7618 Y19.2770 
G01 X-8.8560 Y19.1360 
G01 X-8.9760 Y19.0160 
G01 X-9.1170 Y18.9218 
G01 X-9.2737 Y18.8569 
G01 X-9.4401 Y18.8238 
G01 X-9.6098 Y18.8238 
G01 X-9.7762 Y18.8569 
G01 X-9.9329 Y18.9218 
G01 X-10.0739 Y19.0160 
G01 X-10.1939 Y19.1360 
G01 X-10.2881 Y19.2770 
G01 X-10.3530 Y19.4337 
G01 X-10.3861 Y19.6001 
G00 Z1.0000 
G00 X-10.3861 Y17.0601 
G01 Z-0.0800 F150.00 
G01 X-10.3861 Y17.2298 
G01 X-10.3530 Y17.3962 
G01 X-10.2881 Y17.5529 
G01 X-10.1939 Y17.6939 
G01 X-10.0739 Y17.8139 
G01 X-9.9329 Y17.9081 
G01 X-9.7762 Y17.9730 
G01 X-9.6098 Y18.0061 
G01 X-9.4401 Y18.0061 
G01 X-9.2737 Y17.9730 
G01 X-9.1682 Y17.9292 
G01 X-8.5573 Y18.5402 
G01 X-8.5573 Y41.2351 
G01 X-8.5573 Y41.3148 
G01 X-8.5367 Y41.3917 
G01 X-8.4969 Y41.4606 
G01 X-5.9031 Y44.0543 
G01 X-5.9569 Y44.1839 
G01 X-5.9919 Y44.3601 
G01 X-5.9919 Y44.5398 
G01 X-5.9569 Y44.7160 
G01 X-5.8881 Y44.8819 
G01 X-5.7883 Y45.0313 
G01 X-5.6613 Y45.1583 
G01 X-5.5119 Y45.2581 
G01 X-5.3460 Y45.3269 
G01 X-5.1698 Y45.3619 
G01 X-4.9901 Y45.3619 
G01 X-4.8139 Y45.3269 
G01 X-4.6480 Y45.2581 
G01 X-4.4986 Y45.1583 
G01 X-4.3716 Y45.0313 
G01 X-4.2718 Y44.8819 
G01 X-4.2030 Y44.7160 
G01 X-4.1680 Y44.5398 
G01 X-4.1680 Y44.3601 
G01 X-4.2030 Y44.1839 
G01 X-4.2718 Y44.0180 
G01 X-4.3716 Y43.8686 
G01 X-4.4986 Y43.7416 
G01 X-4.6480 Y43.6418 
G01 X-4.8139 Y43.5730 
G01 X-4.9901 Y43.5380 
G01 X-5.1698 Y43.5380 
G01 X-5.3460 Y43.5730 
G01 X-5.4756 Y43.6268 
G01 X-7.9526 Y41.1497 
G01 X-7.9526 Y18.3751 
G01 X-7.9732 Y18.2982 
G01 X-8.0130 Y18.2293 
G01 X-8.0693 Y18.1730 
G01 X-8.7407 Y17.5017 
G01 X-8.6969 Y17.3962 
G01 X-8.6638 Y17.2298 
G01 X-8.6638 Y17.0601 
G01 X-8.6969 Y16.8937 
G01 X-8.7618 Y16.7370 
G01 X-8.8560 Y16.5960 
G01 X-8.9760 Y16.4760 
G01 X-9.1170 Y16.3818 
G01 X-9.2737 Y16.3169 
G01 X-9.4401 Y16.2838 
G01 X-9.6098 Y16.2838 
G01 X-9.7762 Y16.3169 
G01 X-9.9329 Y16.3818 
G01 X-10.0739 Y16.4760 
G01 X-10.1939 Y16.5960 
G01 X-10.2881 Y16.7370 
G01 X-10.3530 Y16.8937 
G01 X-10.3861 Y17.0601 
G00 Z1.0000 
G00 X-7.8461 Y19.6001 
G01 Z-0.0800 F150.00 
G01 X-7.8461 Y19.7698 
G01 X-7.8130 Y19.9362 
G01 X-7.7481 Y20.0929 
G01 X-7.6539 Y20.2339 
G01 X-7.5339 Y20.3539 
G01 X-7.3929 Y20.4481 
G01 X-7.2362 Y20.5130 
G01 X-7.0698 Y20.5461 
G01 X-6.9001 Y20.5461 
G01 X-6.7337 Y20.5130 
G01 X-6.5770 Y20.4481 
G01 X-6.4360 Y20.3539 
G01 X-6.3160 Y20.2339 
G01 X-6.2218 Y20.0929 
G01 X-6.1569 Y19.9362 
G01 X-6.1238 Y19.7698 
G01 X-6.1238 Y19.6001 
G01 X-6.1569 Y19.4337 
G01 X-6.2218 Y19.2770 
G01 X-6.3160 Y19.1360 
G01 X-6.4360 Y19.0160 
G01 X-6.5770 Y18.9218 
G01 X-6.7337 Y18.8569 
G01 X-6.9001 Y18.8238 
G01 X-7.0698 Y18.8238 
G01 X-7.2362 Y18.8569 
G01 X-7.3929 Y18.9218 
G01 X-7.5339 Y19.0160 
G01 X-7.6539 Y19.1360 
G01 X-7.7481 Y19.2770 
G01 X-7.8130 Y19.4337 
G01 X-7.8461 Y19.6001 
G00 Z1.0000 
G00 X-7.8461 Y17.0601 
G01 Z-0.0800 F150.00 
G01 X-7.8461 Y17.2298 
G01 X-7.8130 Y17.3962 
G01 X-7.7481 Y17.5529 
G01 X-7.6539 Y17.6939 
G01 X-7.5339 Y17.8139 
G01 X-7.3929 Y17.9081 
G01 X-7.2362 Y17.9730 
G01 X-7.0698 Y18.0061 
G01 X-6.9001 Y18.0061 
G01 X-6.7337 Y17.9730 
G01 X-6.5770 Y17.9081 
G01 X-6.4360 Y17.8139 
G01 X-6.3160 Y17.6939 
G01 X-6.2218 Y17.5529 
G01 X-6.1569 Y17.3962 
G01 X-6.1238 Y17.2298 
G01 X-6.1238 Y17.0601 
G01 X-6.1569 Y16.8937 
G01 X-6.2218 Y16.7370 
G01 X-6.3160 Y16.5960 
G01 X-6.4360 Y16.4760 
G01 X-6.5770 Y16.3818 
G01 X-6.7337 Y16.3169 
G01 X-6.9001 Y16.2838 
G01 X-7.0698 Y16.2838 
G01 X-7.2362 Y16.3169 
G01 X-7.3417 Y16.3607 
G01 X-7.9526 Y15.7497 
G01 X-7.9526 Y9.5648 
G01 X-7.9526 Y9.4851 
G01 X-7.9732 Y9.4082 
G01 X-8.0130 Y9.3393 
G01 X-8.0693 Y9.2830 
G01 X-8.1382 Y9.2432 
G01 X-8.2151 Y9.2226 
G01 X-11.1276 Y9.2226 
G01 X-11.1276 Y3.1351 
G01 X-11.1482 Y3.0582 
G01 X-11.1880 Y2.9893 
G01 X-11.2443 Y2.9330 
G01 X-11.3132 Y2.8932 
G01 X-11.3901 Y2.8726 
G01 X-11.4698 Y2.8726 
G01 X-33.0598 Y2.8726 
G01 X-33.1367 Y2.8932 
G01 X-33.2056 Y2.9330 
G01 X-33.2619 Y2.9893 
G01 X-40.1894 Y9.9168 
G01 X-40.2292 Y9.9857 
G01 X-40.2498 Y10.0626 
G01 X-40.2498 Y10.1423 
G01 X-40.2498 Y10.4779 
G01 X-40.3385 Y10.4955 
G01 X-40.5044 Y10.5643 
G01 X-40.6538 Y10.6641 
G01 X-40.7808 Y10.7911 
G01 X-40.8806 Y10.9405 
G01 X-40.9494 Y11.1064 
G01 X-40.9844 Y11.2826 
G01 X-40.9844 Y11.4623 
G01 X-40.9494 Y11.6385 
G01 X-40.8806 Y11.8044 
G01 X-40.7808 Y11.9538 
G01 X-40.6538 Y12.0808 
G01 X-40.5044 Y12.1806 
G01 X-40.3385 Y12.2494 
G01 X-40.1623 Y12.2844 
G01 X-39.9826 Y12.2844 
G01 X-39.8064 Y12.2494 
G01 X-39.6405 Y12.1806 
G01 X-39.4911 Y12.0808 
G01 X-39.3641 Y11.9538 
G01 X-39.2643 Y11.8044 
G01 X-39.1955 Y11.6385 
G01 X-39.1605 Y11.4623 
G01 X-39.1605 Y11.2826 
G01 X-39.1955 Y11.1064 
G01 X-39.2643 Y10.9405 
G01 X-39.3641 Y10.7911 
G01 X-39.4911 Y10.6641 
G01 X-39.6405 Y10.5643 
G01 X-39.6451 Y10.5624 
G01 X-39.6451 Y10.2277 
G01 X-32.8947 Y3.4773 
G01 X-11.7323 Y3.4773 
G01 X-11.7323 Y9.5648 
G01 X-11.7117 Y9.6417 
G01 X-11.6719 Y9.7106 
G01 X-11.6156 Y9.7669 
G01 X-11.5467 Y9.8067 
G01 X-11.4698 Y9.8273 
G01 X-11.3901 Y9.8273 
G01 X-8.5573 Y9.8273 
G01 X-8.5573 Y15.9148 
G01 X-8.5367 Y15.9917 
G01 X-8.4969 Y16.0606 
G01 X-8.4406 Y16.1169 
G01 X-7.7692 Y16.7882 
G01 X-7.8130 Y16.8937 
G01 X-7.8461 Y17.0601 
G00 Z1.0000 
G00 X-5.3061 Y19.6001 
G01 Z-0.0800 F150.00 
G01 X-5.3061 Y19.7698 
G01 X-5.2730 Y19.9362 
G01 X-5.2081 Y20.0929 
G01 X-5.1139 Y20.2339 
G01 X-4.9939 Y20.3539 
G01 X-4.8529 Y20.4481 
G01 X-4.6962 Y20.5130 
G01 X-4.5298 Y20.5461 
G01 X-4.3601 Y20.5461 
G01 X-4.1937 Y20.5130 
G01 X-4.0370 Y20.4481 
G01 X-3.8960 Y20.3539 
G01 X-3.7760 Y20.2339 
G01 X-3.6818 Y20.0929 
G01 X-3.6169 Y19.9362 
G01 X-3.5838 Y19.7698 
